(.../pcb-gcode-3_6_0_4/pcb-gcode.ulp)
(Copyright 2005 - 2012 by John Johnson)
(See readme.txt for licensing terms.)
(This file generated from the board:)
(.../Thermostaat/Thermostaat/Thermostaat.brd)
(Current profile is .../pcb-gcode-3_6_0_4/profiles/generic.pp  )
(This file generated 21/01/2023 17:20)
(Settings from pcb-machine.h)
(  Tool Size)
(0.1778 )
(Z Axis Settings)
(  High     Up        Down     Drill)
(5.0000 	2.5400 	-0.1778 	-1.5000 )
(spindle on time = 3.0000)
(milling depth = -1.5000)
(text depth = -0.1270)
(tool change at 10.0000 10.0000 10.0000 )
(feed rate xy = F80.00 )
(feed rate z  = F80.00 )
(Settings from pcb-defaults.h)
(isolate min = 0.1778)
(isolate max = 0.5080)
(isolate step = 0.1270)
(Generated top outlines, top drill, bottom outlines, bottom drill, )
(Unit of measure: mm)
(Metric Mode)
G21
(Absolute Coordinates)
G90
G00 X0.0000 Y0.0000 
M03
G04 P3.000000
G00 Z2.5400 
G00 X-52.7562 Y29.8517 
G01 Z-0.1778 F80.00 
G01 X-52.5062 Y29.6017 F80.00 
G01 X-52.3983 Y29.4938 
G01 X-52.3135 Y29.3670 
G01 X-52.2551 Y29.2260 
G01 X-52.2253 Y29.0763 
G01 X-52.2253 Y27.3209 
G01 X-51.4291 Y26.5247 
G01 X-38.8851 Y26.5247 
G01 X-38.8699 Y26.6010 
G01 X-38.8115 Y26.7420 
G01 X-38.7267 Y26.8688 
G01 X-35.6188 Y29.9767 
G01 X-35.4920 Y30.0615 
G01 X-35.3510 Y30.1199 
G01 X-35.2013 Y30.1497 
G01 X-35.0487 Y30.1497 
G01 X-34.8990 Y30.1199 
G01 X-34.7580 Y30.0615 
G01 X-34.6312 Y29.9767 
G01 X-34.5233 Y29.8688 
G01 X-34.4385 Y29.7420 
G01 X-34.3801 Y29.6010 
G01 X-34.3503 Y29.4513 
G01 X-34.3503 Y29.2987 
G01 X-34.3801 Y29.1490 
G01 X-34.4385 Y29.0080 
G01 X-34.5233 Y28.8812 
G01 X-37.3503 Y26.0541 
G01 X-37.3503 Y25.6737 
G01 X-37.3801 Y25.5240 
G01 X-37.4385 Y25.3830 
G01 X-37.5233 Y25.2562 
G01 X-37.6312 Y25.1483 
G01 X-37.7580 Y25.0635 
G01 X-37.8990 Y25.0051 
G01 X-38.0487 Y24.9753 
G01 X-51.8263 Y24.9753 
G01 X-51.9760 Y25.0051 
G01 X-52.1170 Y25.0635 
G01 X-52.2438 Y25.1483 
G01 X-52.3517 Y25.2562 
G01 X-53.6017 Y26.5062 
G01 X-53.6865 Y26.6330 
G01 X-53.7449 Y26.7740 
G01 X-53.7747 Y26.9237 
G01 X-53.7747 Y28.6791 
G01 X-53.8517 Y28.7562 
G01 X-53.9365 Y28.8830 
G01 X-53.9949 Y29.0240 
G01 X-54.0247 Y29.1737 
G01 X-54.0247 Y29.3263 
G01 X-53.9949 Y29.4760 
G01 X-53.9365 Y29.6170 
G01 X-53.8517 Y29.7438 
G01 X-53.7438 Y29.8517 
G01 X-53.6170 Y29.9365 
G01 X-53.4760 Y29.9949 
G01 X-53.3263 Y30.0247 
G01 X-53.1737 Y30.0247 
G01 X-53.0240 Y29.9949 
G01 X-52.8830 Y29.9365 
G01 X-52.7562 Y29.8517 
G00 Z2.5400 
G00 X-34.6329 Y56.6317 
G01 Z-0.1778 F80.00 
G01 X-34.6329 Y55.1283 F80.00 
G01 X-34.6685 Y54.9492 
G01 X-34.7384 Y54.7805 
G01 X-34.8399 Y54.6286 
G01 X-34.8503 Y54.6182 
G01 X-34.8503 Y51.9237 
G01 X-34.8801 Y51.7740 
G01 X-34.9385 Y51.6330 
G01 X-35.0233 Y51.5062 
G01 X-35.1312 Y51.3983 
G01 X-37.1729 Y49.3565 
G01 X-37.1729 Y49.1460 
G01 X-37.7160 Y48.6029 
G01 X-38.4840 Y48.6029 
G01 X-39.0271 Y49.1460 
G01 X-39.0271 Y49.9140 
G01 X-38.4840 Y50.4571 
G01 X-38.2635 Y50.4571 
G01 X-36.3997 Y52.3209 
G01 X-36.3997 Y54.8242 
G01 X-36.4515 Y54.9492 
G01 X-36.4871 Y55.1283 
G01 X-36.4871 Y56.6317 
G01 X-36.4515 Y56.8108 
G01 X-36.3816 Y56.9795 
G01 X-36.2801 Y57.1314 
G01 X-36.1510 Y57.2605 
G01 X-35.9991 Y57.3620 
G01 X-35.8304 Y57.4319 
G01 X-35.6513 Y57.4675 
G01 X-35.4687 Y57.4675 
G01 X-35.2896 Y57.4319 
G01 X-35.1209 Y57.3620 
G01 X-34.9690 Y57.2605 
G01 X-34.8399 Y57.1314 
G01 X-34.7384 Y56.9795 
G01 X-34.6685 Y56.8108 
G01 X-34.6329 Y56.6317 
G00 Z2.5400 
G00 X-69.5071 Y13.5860 
G01 Z-0.1778 F80.00 
G01 X-69.5071 Y14.3540 F80.00 
G01 X-68.9640 Y14.8971 
G01 X-68.1960 Y14.8971 
G01 X-67.6529 Y14.3540 
G01 X-67.6529 Y13.5860 
G01 X-68.1960 Y13.0429 
G01 X-68.9640 Y13.0429 
G01 X-69.5071 Y13.5860 
G00 Z2.5400 
G00 X-64.4271 Y14.8560 
G01 Z-0.1778 F80.00 
G01 X-64.4271 Y15.6240 F80.00 
G01 X-63.8840 Y16.1671 
G01 X-63.1160 Y16.1671 
G01 X-62.5729 Y15.6240 
G01 X-62.5729 Y14.8560 
G01 X-63.1160 Y14.3129 
G01 X-63.8840 Y14.3129 
G01 X-64.4271 Y14.8560 
G00 Z2.5400 
G00 X-64.4271 Y22.4760 
G01 Z-0.1778 F80.00 
G01 X-64.4271 Y23.2440 F80.00 
G01 X-63.8840 Y23.7871 
G01 X-63.6835 Y23.7871 
G01 X-63.5247 Y23.9459 
G01 X-63.5247 Y39.2013 
G01 X-63.4949 Y39.3510 
G01 X-63.4365 Y39.4920 
G01 X-63.3517 Y39.6188 
G01 X-63.2438 Y39.7267 
G01 X-63.1170 Y39.8115 
G01 X-62.9760 Y39.8699 
G01 X-62.8263 Y39.8997 
G01 X-62.6737 Y39.8997 
G01 X-62.5240 Y39.8699 
G01 X-62.3830 Y39.8115 
G01 X-62.2562 Y39.7267 
G01 X-62.1483 Y39.6188 
G01 X-62.0635 Y39.4920 
G01 X-62.0051 Y39.3510 
G01 X-61.9753 Y39.2013 
G01 X-61.9753 Y23.5487 
G01 X-62.0051 Y23.3990 
G01 X-62.0635 Y23.2580 
G01 X-62.1483 Y23.1312 
G01 X-62.2562 Y23.0233 
G01 X-62.5729 Y22.7065 
G01 X-62.5729 Y22.4760 
G01 X-63.1160 Y21.9329 
G01 X-63.8840 Y21.9329 
G01 X-64.4271 Y22.4760 
G00 Z2.5400 
G00 X-59.3471 Y22.4760 
G01 Z-0.1778 F80.00 
G01 X-59.3471 Y23.2440 F80.00 
G01 X-58.8040 Y23.7871 
G01 X-58.5585 Y23.7871 
G01 X-56.1497 Y26.1959 
G01 X-56.1497 Y30.0763 
G01 X-56.1199 Y30.2260 
G01 X-56.0615 Y30.3670 
G01 X-55.9767 Y30.4938 
G01 X-53.9767 Y32.4938 
G01 X-53.8688 Y32.6017 
G01 X-53.7420 Y32.6865 
G01 X-53.6010 Y32.7449 
G01 X-53.4513 Y32.7747 
G01 X-51.8997 Y32.7747 
G01 X-51.8997 Y37.8263 
G01 X-51.8699 Y37.9760 
G01 X-51.8115 Y38.1170 
G01 X-51.7267 Y38.2438 
G01 X-51.6188 Y38.3517 
G01 X-51.4920 Y38.4365 
G01 X-51.3510 Y38.4949 
G01 X-51.2013 Y38.5247 
G01 X-51.0487 Y38.5247 
G01 X-50.8990 Y38.4949 
G01 X-50.7580 Y38.4365 
G01 X-50.6312 Y38.3517 
G01 X-50.5233 Y38.2438 
G01 X-50.4385 Y38.1170 
G01 X-50.3801 Y37.9760 
G01 X-50.3503 Y37.8263 
G01 X-50.3503 Y31.9237 
G01 X-50.3801 Y31.7740 
G01 X-50.4385 Y31.6330 
G01 X-50.5233 Y31.5062 
G01 X-50.6312 Y31.3983 
G01 X-50.7580 Y31.3135 
G01 X-50.8990 Y31.2551 
G01 X-51.0487 Y31.2253 
G01 X-53.0541 Y31.2253 
G01 X-54.6003 Y29.6791 
G01 X-54.6003 Y25.7987 
G01 X-54.6301 Y25.6490 
G01 X-54.6885 Y25.5080 
G01 X-54.7733 Y25.3812 
G01 X-54.8812 Y25.2733 
G01 X-57.4929 Y22.6615 
G01 X-57.4929 Y22.4760 
G01 X-58.0360 Y21.9329 
G01 X-58.8040 Y21.9329 
G01 X-59.3471 Y22.4760 
G00 Z2.5400 
G00 X-65.0745 Y6.3881 
G01 Z-0.1778 F80.00 
G01 X-63.3479 Y6.3881 F80.00 
G01 X-63.1491 Y6.3486 
G01 X-62.9619 Y6.2710 
G01 X-62.7934 Y6.1584 
G01 X-62.6502 Y6.0152 
G01 X-62.5376 Y5.8467 
G01 X-62.4600 Y5.6595 
G01 X-62.4205 Y5.4607 
G01 X-62.4205 Y5.2581 
G01 X-62.4600 Y5.0593 
G01 X-62.5376 Y4.8721 
G01 X-62.6502 Y4.7036 
G01 X-62.7934 Y4.5604 
G01 X-62.9619 Y4.4478 
G01 X-63.1491 Y4.3702 
G01 X-63.3479 Y4.3307 
G01 X-65.0745 Y4.3307 
G01 X-65.2733 Y4.3702 
G01 X-65.4605 Y4.4478 
G01 X-65.6290 Y4.5604 
G01 X-65.7722 Y4.7036 
G01 X-65.8848 Y4.8721 
G01 X-65.9624 Y5.0593 
G01 X-66.0019 Y5.2581 
G01 X-66.0019 Y5.4607 
G01 X-65.9624 Y5.6595 
G01 X-65.8848 Y5.8467 
G01 X-65.7722 Y6.0152 
G01 X-65.6290 Y6.1584 
G01 X-65.4605 Y6.2710 
G01 X-65.2733 Y6.3486 
G01 X-65.0745 Y6.3881 
G00 Z2.5400 
G00 X-65.0745 Y10.9093 
G01 Z-0.1778 F80.00 
G01 X-63.3479 Y10.9093 F80.00 
G01 X-63.1491 Y10.8698 
G01 X-62.9619 Y10.7922 
G01 X-62.7934 Y10.6796 
G01 X-62.6502 Y10.5364 
G01 X-62.5376 Y10.3679 
G01 X-62.4600 Y10.1807 
G01 X-62.4205 Y9.9819 
G01 X-62.4205 Y9.7793 
G01 X-62.4600 Y9.5805 
G01 X-62.5376 Y9.3933 
G01 X-62.6502 Y9.2248 
G01 X-62.7934 Y9.0816 
G01 X-62.9619 Y8.9690 
G01 X-63.1491 Y8.8914 
G01 X-63.3479 Y8.8519 
G01 X-65.0745 Y8.8519 
G01 X-65.2733 Y8.8914 
G01 X-65.4605 Y8.9690 
G01 X-65.6290 Y9.0816 
G01 X-65.7722 Y9.2248 
G01 X-65.8848 Y9.3933 
G01 X-65.9624 Y9.5805 
G01 X-66.0019 Y9.7793 
G01 X-66.0019 Y9.9819 
G01 X-65.9624 Y10.1807 
G01 X-65.8848 Y10.3679 
G01 X-65.7722 Y10.5364 
G01 X-65.6290 Y10.6796 
G01 X-65.4605 Y10.7922 
G01 X-65.2733 Y10.8698 
G01 X-65.0745 Y10.9093 
G00 Z2.5400 
G00 X-58.5721 Y6.3881 
G01 Z-0.1778 F80.00 
G01 X-56.8455 Y6.3881 F80.00 
G01 X-56.6467 Y6.3486 
G01 X-56.4595 Y6.2710 
G01 X-56.2910 Y6.1584 
G01 X-56.1478 Y6.0152 
G01 X-56.0352 Y5.8467 
G01 X-55.9576 Y5.6595 
G01 X-55.9181 Y5.4607 
G01 X-55.9181 Y5.2581 
G01 X-55.9576 Y5.0593 
G01 X-56.0352 Y4.8721 
G01 X-56.1478 Y4.7036 
G01 X-56.2910 Y4.5604 
G01 X-56.4595 Y4.4478 
G01 X-56.6467 Y4.3702 
G01 X-56.8455 Y4.3307 
G01 X-58.5721 Y4.3307 
G01 X-58.7709 Y4.3702 
G01 X-58.9581 Y4.4478 
G01 X-59.1266 Y4.5604 
G01 X-59.2698 Y4.7036 
G01 X-59.3824 Y4.8721 
G01 X-59.4600 Y5.0593 
G01 X-59.4995 Y5.2581 
G01 X-59.4995 Y5.4607 
G01 X-59.4600 Y5.6595 
G01 X-59.3824 Y5.8467 
G01 X-59.2698 Y6.0152 
G01 X-59.1266 Y6.1584 
G01 X-58.9581 Y6.2710 
G01 X-58.7709 Y6.3486 
G01 X-58.5721 Y6.3881 
G00 Z2.5400 
G00 X-56.8455 Y10.9093 
G01 Z-0.1778 F80.00 
G01 X-56.6467 Y10.8698 F80.00 
G01 X-56.4595 Y10.7922 
G01 X-56.2910 Y10.6796 
G01 X-56.1478 Y10.5364 
G01 X-56.0352 Y10.3679 
G01 X-55.9576 Y10.1807 
G01 X-55.9181 Y9.9819 
G01 X-55.9181 Y9.7793 
G01 X-55.9576 Y9.5805 
G01 X-56.0352 Y9.3933 
G01 X-56.1478 Y9.2248 
G01 X-56.2910 Y9.0816 
G01 X-56.4595 Y8.9690 
G01 X-56.6467 Y8.8914 
G01 X-56.8455 Y8.8519 
G01 X-58.5721 Y8.8519 
G01 X-58.7709 Y8.8914 
G01 X-58.9581 Y8.9690 
G01 X-59.1266 Y9.0816 
G01 X-59.2698 Y9.2248 
G01 X-59.3824 Y9.3933 
G01 X-59.4600 Y9.5805 
G01 X-59.4995 Y9.7793 
G01 X-59.4995 Y9.9819 
G01 X-59.4600 Y10.1807 
G01 X-59.3824 Y10.3679 
G01 X-59.3147 Y10.4692 
G01 X-61.2267 Y12.3812 
G01 X-61.3115 Y12.5080 
G01 X-61.3699 Y12.6490 
G01 X-61.3997 Y12.7987 
G01 X-61.3997 Y18.6003 
G01 X-69.5763 Y18.6003 
G01 X-69.7260 Y18.6301 
G01 X-69.8670 Y18.6885 
G01 X-69.9938 Y18.7733 
G01 X-70.1017 Y18.8812 
G01 X-71.4767 Y20.2562 
G01 X-71.5615 Y20.3830 
G01 X-71.6199 Y20.5240 
G01 X-71.6497 Y20.6737 
G01 X-71.6497 Y22.5763 
G01 X-71.6199 Y22.7260 
G01 X-71.5615 Y22.8670 
G01 X-71.4767 Y22.9938 
G01 X-71.3688 Y23.1017 
G01 X-71.2747 Y23.1959 
G01 X-71.2747 Y27.4291 
G01 X-72.2508 Y28.4052 
G01 X-72.4107 Y28.2984 
G01 X-72.5979 Y28.2208 
G01 X-72.7967 Y28.1813 
G01 X-74.5233 Y28.1813 
G01 X-74.7221 Y28.2208 
G01 X-74.9093 Y28.2984 
G01 X-75.0778 Y28.4110 
G01 X-75.2210 Y28.5542 
G01 X-75.3336 Y28.7227 
G01 X-75.4112 Y28.9099 
G01 X-75.4507 Y29.1087 
G01 X-75.4507 Y29.3113 
G01 X-75.4112 Y29.5101 
G01 X-75.3336 Y29.6973 
G01 X-75.2210 Y29.8658 
G01 X-75.0778 Y30.0090 
G01 X-74.9093 Y30.1216 
G01 X-74.7221 Y30.1992 
G01 X-74.5233 Y30.2387 
G01 X-72.7967 Y30.2387 
G01 X-72.5979 Y30.1992 
G01 X-72.4107 Y30.1216 
G01 X-72.3737 Y30.0969 
G01 X-71.2747 Y31.1959 
G01 X-71.2747 Y44.2013 
G01 X-71.2449 Y44.3510 
G01 X-71.1865 Y44.4920 
G01 X-71.1017 Y44.6188 
G01 X-70.9938 Y44.7267 
G01 X-70.8670 Y44.8115 
G01 X-70.7260 Y44.8699 
G01 X-70.5763 Y44.8997 
G01 X-67.3209 Y44.8997 
G01 X-65.8997 Y46.3209 
G01 X-65.8997 Y46.7013 
G01 X-65.8699 Y46.8510 
G01 X-65.8115 Y46.9920 
G01 X-65.7267 Y47.1188 
G01 X-65.6188 Y47.2267 
G01 X-60.6171 Y52.2285 
G01 X-60.6171 Y52.4540 
G01 X-60.0740 Y52.9971 
G01 X-59.3060 Y52.9971 
G01 X-58.7629 Y52.4540 
G01 X-58.7629 Y51.6860 
G01 X-59.3060 Y51.1429 
G01 X-59.5115 Y51.1429 
G01 X-64.3503 Y46.3041 
G01 X-64.3503 Y45.9237 
G01 X-64.3801 Y45.7740 
G01 X-64.4385 Y45.6330 
G01 X-64.5233 Y45.5062 
G01 X-66.3983 Y43.6312 
G01 X-66.5062 Y43.5233 
G01 X-66.6330 Y43.4385 
G01 X-66.7740 Y43.3801 
G01 X-66.9237 Y43.3503 
G01 X-69.7253 Y43.3503 
G01 X-69.7253 Y30.7987 
G01 X-69.7551 Y30.6490 
G01 X-69.8135 Y30.5080 
G01 X-69.8983 Y30.3812 
G01 X-70.9669 Y29.3125 
G01 X-70.0062 Y28.3517 
G01 X-69.8983 Y28.2438 
G01 X-69.8135 Y28.1170 
G01 X-69.7551 Y27.9760 
G01 X-69.7253 Y27.8263 
G01 X-69.7253 Y22.7987 
G01 X-69.7551 Y22.6490 
G01 X-69.8135 Y22.5080 
G01 X-69.8983 Y22.3812 
G01 X-70.1003 Y22.1791 
G01 X-70.1003 Y21.0709 
G01 X-69.1791 Y20.1497 
G01 X-61.3997 Y20.1497 
G01 X-61.3997 Y23.8263 
G01 X-61.3699 Y23.9760 
G01 X-61.3115 Y24.1170 
G01 X-61.2267 Y24.2438 
G01 X-61.1188 Y24.3517 
G01 X-58.2747 Y27.1959 
G01 X-58.2747 Y31.4513 
G01 X-58.2449 Y31.6010 
G01 X-58.1865 Y31.7420 
G01 X-58.1017 Y31.8688 
G01 X-57.9938 Y31.9767 
G01 X-56.2373 Y33.7333 
G01 X-56.2836 Y33.8027 
G01 X-56.3612 Y33.9899 
G01 X-56.4007 Y34.1887 
G01 X-56.4007 Y34.3913 
G01 X-56.3612 Y34.5901 
G01 X-56.2836 Y34.7773 
G01 X-56.1710 Y34.9458 
G01 X-56.0278 Y35.0890 
G01 X-55.8593 Y35.2016 
G01 X-55.6721 Y35.2792 
G01 X-55.4733 Y35.3187 
G01 X-53.7467 Y35.3187 
G01 X-53.5479 Y35.2792 
G01 X-53.3607 Y35.2016 
G01 X-53.1922 Y35.0890 
G01 X-53.0490 Y34.9458 
G01 X-52.9364 Y34.7773 
G01 X-52.8588 Y34.5901 
G01 X-52.8193 Y34.3913 
G01 X-52.8193 Y34.1887 
G01 X-52.8588 Y33.9899 
G01 X-52.9364 Y33.8027 
G01 X-53.0490 Y33.6342 
G01 X-53.1922 Y33.4910 
G01 X-53.3607 Y33.3784 
G01 X-53.5479 Y33.3008 
G01 X-53.7467 Y33.2613 
G01 X-54.5181 Y33.2613 
G01 X-56.7253 Y31.0541 
G01 X-56.7253 Y26.7987 
G01 X-56.7551 Y26.6490 
G01 X-56.8135 Y26.5080 
G01 X-56.8983 Y26.3812 
G01 X-59.8503 Y23.4291 
G01 X-59.8503 Y13.1959 
G01 X-57.5637 Y10.9093 
G01 X-56.8455 Y10.9093 
G00 Z2.5400 
G00 X-52.3745 Y6.3881 
G01 Z-0.1778 F80.00 
G01 X-50.6479 Y6.3881 F80.00 
G01 X-50.4491 Y6.3486 
G01 X-50.2619 Y6.2710 
G01 X-50.0934 Y6.1584 
G01 X-49.9502 Y6.0152 
G01 X-49.8376 Y5.8467 
G01 X-49.7600 Y5.6595 
G01 X-49.7205 Y5.4607 
G01 X-49.7205 Y5.2581 
G01 X-49.7600 Y5.0593 
G01 X-49.8376 Y4.8721 
G01 X-49.9502 Y4.7036 
G01 X-50.0934 Y4.5604 
G01 X-50.2619 Y4.4478 
G01 X-50.4491 Y4.3702 
G01 X-50.6479 Y4.3307 
G01 X-52.3745 Y4.3307 
G01 X-52.5733 Y4.3702 
G01 X-52.7605 Y4.4478 
G01 X-52.9290 Y4.5604 
G01 X-53.0722 Y4.7036 
G01 X-53.1848 Y4.8721 
G01 X-53.2624 Y5.0593 
G01 X-53.3019 Y5.2581 
G01 X-53.3019 Y5.4607 
G01 X-53.2624 Y5.6595 
G01 X-53.1848 Y5.8467 
G01 X-53.0722 Y6.0152 
G01 X-52.9290 Y6.1584 
G01 X-52.7605 Y6.2710 
G01 X-52.5733 Y6.3486 
G01 X-52.3745 Y6.3881 
G00 Z2.5400 
G00 X-52.3745 Y10.9093 
G01 Z-0.1778 F80.00 
G01 X-50.6479 Y10.9093 F80.00 
G01 X-50.4491 Y10.8698 
G01 X-50.2619 Y10.7922 
G01 X-50.0934 Y10.6796 
G01 X-49.9502 Y10.5364 
G01 X-49.8376 Y10.3679 
G01 X-49.7600 Y10.1807 
G01 X-49.7205 Y9.9819 
G01 X-49.7205 Y9.7793 
G01 X-49.7600 Y9.5805 
G01 X-49.8376 Y9.3933 
G01 X-49.9502 Y9.2248 
G01 X-50.0934 Y9.0816 
G01 X-50.2619 Y8.9690 
G01 X-50.4491 Y8.8914 
G01 X-50.6479 Y8.8519 
G01 X-52.3745 Y8.8519 
G01 X-52.5733 Y8.8914 
G01 X-52.7605 Y8.9690 
G01 X-52.9290 Y9.0816 
G01 X-53.0722 Y9.2248 
G01 X-53.1848 Y9.3933 
G01 X-53.2624 Y9.5805 
G01 X-53.3019 Y9.7793 
G01 X-53.3019 Y9.9819 
G01 X-53.2624 Y10.1807 
G01 X-53.1848 Y10.3679 
G01 X-53.0722 Y10.5364 
G01 X-52.9290 Y10.6796 
G01 X-52.7605 Y10.7922 
G01 X-52.5733 Y10.8698 
G01 X-52.3745 Y10.9093 
G00 Z2.5400 
G00 X-44.1455 Y6.3881 
G01 Z-0.1778 F80.00 
G01 X-43.9467 Y6.3486 F80.00 
G01 X-43.7595 Y6.2710 
G01 X-43.5910 Y6.1584 
G01 X-43.4478 Y6.0152 
G01 X-43.3352 Y5.8467 
G01 X-43.2576 Y5.6595 
G01 X-43.2181 Y5.4607 
G01 X-43.2181 Y5.2581 
G01 X-43.2576 Y5.0593 
G01 X-43.3352 Y4.8721 
G01 X-43.4478 Y4.7036 
G01 X-43.5910 Y4.5604 
G01 X-43.7595 Y4.4478 
G01 X-43.9467 Y4.3702 
G01 X-44.1455 Y4.3307 
G01 X-45.8721 Y4.3307 
G01 X-46.0709 Y4.3702 
G01 X-46.2581 Y4.4478 
G01 X-46.4266 Y4.5604 
G01 X-46.5698 Y4.7036 
G01 X-46.6824 Y4.8721 
G01 X-46.7600 Y5.0593 
G01 X-46.7995 Y5.2581 
G01 X-46.7995 Y5.4607 
G01 X-46.7600 Y5.6595 
G01 X-46.6853 Y5.8397 
G01 X-48.9767 Y8.1312 
G01 X-49.0615 Y8.2580 
G01 X-49.1199 Y8.3990 
G01 X-49.1497 Y8.5487 
G01 X-49.1497 Y10.4291 
G01 X-53.0709 Y14.3503 
G01 X-57.9986 Y14.3503 
G01 X-58.0360 Y14.3129 
G01 X-58.8040 Y14.3129 
G01 X-59.3471 Y14.8560 
G01 X-59.3471 Y15.6240 
G01 X-58.8040 Y16.1671 
G01 X-58.0360 Y16.1671 
G01 X-57.7686 Y15.8997 
G01 X-52.6737 Y15.8997 
G01 X-52.5240 Y15.8699 
G01 X-52.3830 Y15.8115 
G01 X-52.2562 Y15.7267 
G01 X-52.1483 Y15.6188 
G01 X-47.7733 Y11.2438 
G01 X-47.6885 Y11.1170 
G01 X-47.6301 Y10.9760 
G01 X-47.6003 Y10.8263 
G01 X-47.6003 Y8.9459 
G01 X-45.0425 Y6.3881 
G01 X-44.1455 Y6.3881 
G00 Z2.5400 
G00 X-45.8721 Y10.9093 
G01 Z-0.1778 F80.00 
G01 X-44.1455 Y10.9093 F80.00 
G01 X-43.9467 Y10.8698 
G01 X-43.7595 Y10.7922 
G01 X-43.5910 Y10.6796 
G01 X-43.4478 Y10.5364 
G01 X-43.3352 Y10.3679 
G01 X-43.2576 Y10.1807 
G01 X-43.2181 Y9.9819 
G01 X-43.2181 Y9.7793 
G01 X-43.2576 Y9.5805 
G01 X-43.3352 Y9.3933 
G01 X-43.4478 Y9.2248 
G01 X-43.5910 Y9.0816 
G01 X-43.7595 Y8.9690 
G01 X-43.9467 Y8.8914 
G01 X-44.1455 Y8.8519 
G01 X-45.8721 Y8.8519 
G01 X-46.0709 Y8.8914 
G01 X-46.2581 Y8.9690 
G01 X-46.4266 Y9.0816 
G01 X-46.5698 Y9.2248 
G01 X-46.6824 Y9.3933 
G01 X-46.7600 Y9.5805 
G01 X-46.7995 Y9.7793 
G01 X-46.7995 Y9.9819 
G01 X-46.7600 Y10.1807 
G01 X-46.6824 Y10.3679 
G01 X-46.5698 Y10.5364 
G01 X-46.4266 Y10.6796 
G01 X-46.2581 Y10.7922 
G01 X-46.0709 Y10.8698 
G01 X-45.8721 Y10.9093 
G00 Z2.5400 
G00 X-38.4045 Y6.3881 
G01 Z-0.1778 F80.00 
G01 X-36.6779 Y6.3881 F80.00 
G01 X-36.4791 Y6.3486 
G01 X-36.2919 Y6.2710 
G01 X-36.1234 Y6.1584 
G01 X-35.9802 Y6.0152 
G01 X-35.8676 Y5.8467 
G01 X-35.7900 Y5.6595 
G01 X-35.7505 Y5.4607 
G01 X-35.7505 Y5.2581 
G01 X-35.7900 Y5.0593 
G01 X-35.8676 Y4.8721 
G01 X-35.9802 Y4.7036 
G01 X-36.1234 Y4.5604 
G01 X-36.2919 Y4.4478 
G01 X-36.4791 Y4.3702 
G01 X-36.6779 Y4.3307 
G01 X-38.4045 Y4.3307 
G01 X-38.6033 Y4.3702 
G01 X-38.7905 Y4.4478 
G01 X-38.9590 Y4.5604 
G01 X-39.1022 Y4.7036 
G01 X-39.2148 Y4.8721 
G01 X-39.2924 Y5.0593 
G01 X-39.3319 Y5.2581 
G01 X-39.3319 Y5.4607 
G01 X-39.2924 Y5.6595 
G01 X-39.2148 Y5.8467 
G01 X-39.1022 Y6.0152 
G01 X-38.9590 Y6.1584 
G01 X-38.7905 Y6.2710 
G01 X-38.6033 Y6.3486 
G01 X-38.4045 Y6.3881 
G00 Z2.5400 
G00 X-38.4045 Y10.9093 
G01 Z-0.1778 F80.00 
G01 X-36.6779 Y10.9093 F80.00 
G01 X-36.4791 Y10.8698 
G01 X-36.2919 Y10.7922 
G01 X-36.1234 Y10.6796 
G01 X-35.9802 Y10.5364 
G01 X-35.8676 Y10.3679 
G01 X-35.7900 Y10.1807 
G01 X-35.7505 Y9.9819 
G01 X-35.7505 Y9.7793 
G01 X-35.7900 Y9.5805 
G01 X-35.8676 Y9.3933 
G01 X-35.9802 Y9.2248 
G01 X-36.1234 Y9.0816 
G01 X-36.2919 Y8.9690 
G01 X-36.4791 Y8.8914 
G01 X-36.6779 Y8.8519 
G01 X-38.4045 Y8.8519 
G01 X-38.6033 Y8.8914 
G01 X-38.7905 Y8.9690 
G01 X-38.9590 Y9.0816 
G01 X-39.1022 Y9.2248 
G01 X-39.2148 Y9.3933 
G01 X-39.2924 Y9.5805 
G01 X-39.3319 Y9.7793 
G01 X-39.3319 Y9.9819 
G01 X-39.2924 Y10.1807 
G01 X-39.2148 Y10.3679 
G01 X-39.1022 Y10.5364 
G01 X-38.9590 Y10.6796 
G01 X-38.7905 Y10.7922 
G01 X-38.6033 Y10.8698 
G01 X-38.4045 Y10.9093 
G00 Z2.5400 
G00 X-31.9021 Y10.9093 
G01 Z-0.1778 F80.00 
G01 X-30.1755 Y10.9093 F80.00 
G01 X-29.9767 Y10.8698 
G01 X-29.7895 Y10.7922 
G01 X-29.6210 Y10.6796 
G01 X-29.4778 Y10.5364 
G01 X-29.3652 Y10.3679 
G01 X-29.2876 Y10.1807 
G01 X-29.2481 Y9.9819 
G01 X-29.2481 Y9.7793 
G01 X-29.2876 Y9.5805 
G01 X-29.3652 Y9.3933 
G01 X-29.4778 Y9.2248 
G01 X-29.6210 Y9.0816 
G01 X-29.7895 Y8.9690 
G01 X-29.9767 Y8.8914 
G01 X-30.1755 Y8.8519 
G01 X-31.9021 Y8.8519 
G01 X-32.1009 Y8.8914 
G01 X-32.2881 Y8.9690 
G01 X-32.4566 Y9.0816 
G01 X-32.5998 Y9.2248 
G01 X-32.7124 Y9.3933 
G01 X-32.7900 Y9.5805 
G01 X-32.8295 Y9.7793 
G01 X-32.8295 Y9.9819 
G01 X-32.7900 Y10.1807 
G01 X-32.7124 Y10.3679 
G01 X-32.5998 Y10.5364 
G01 X-32.4566 Y10.6796 
G01 X-32.2881 Y10.7922 
G01 X-32.1009 Y10.8698 
G01 X-31.9021 Y10.9093 
G00 Z2.5400 
G00 X-26.3271 Y8.5060 
G01 Z-0.1778 F80.00 
G01 X-26.3271 Y9.2740 F80.00 
G01 X-25.7840 Y9.8171 
G01 X-25.0160 Y9.8171 
G01 X-24.4729 Y9.2740 
G01 X-24.4729 Y8.5060 
G01 X-25.0160 Y7.9629 
G01 X-25.7840 Y7.9629 
G01 X-26.3271 Y8.5060 
G00 Z2.5400 
G00 X-18.7071 Y8.5060 
G01 Z-0.1778 F80.00 
G01 X-18.7071 Y9.2740 F80.00 
G01 X-18.1640 Y9.8171 
G01 X-17.3960 Y9.8171 
G01 X-16.8529 Y9.2740 
G01 X-16.8529 Y8.5060 
G01 X-17.3960 Y7.9629 
G01 X-18.1640 Y7.9629 
G01 X-18.7071 Y8.5060 
G00 Z2.5400 
G00 X-26.3271 Y13.5860 
G01 Z-0.1778 F80.00 
G01 X-26.3271 Y14.3540 F80.00 
G01 X-25.7840 Y14.8971 
G01 X-25.0160 Y14.8971 
G01 X-24.4729 Y14.3540 
G01 X-24.4729 Y13.5860 
G01 X-25.0160 Y13.0429 
G01 X-25.7840 Y13.0429 
G01 X-26.3271 Y13.5860 
G00 Z2.5400 
G00 X-18.7071 Y13.5860 
G01 Z-0.1778 F80.00 
G01 X-18.7071 Y14.3540 F80.00 
G01 X-18.5247 Y14.5364 
G01 X-18.5247 Y18.4836 
G01 X-18.7071 Y18.6660 
G01 X-18.7071 Y19.1115 
G01 X-28.2267 Y28.6312 
G01 X-28.3115 Y28.7580 
G01 X-28.3699 Y28.8990 
G01 X-28.3997 Y29.0487 
G01 X-28.3997 Y32.8218 
G01 X-28.5310 Y32.9095 
G01 X-28.6601 Y33.0386 
G01 X-28.7616 Y33.1905 
G01 X-28.8315 Y33.3592 
G01 X-28.8671 Y33.5383 
G01 X-28.8671 Y35.0417 
G01 X-28.8315 Y35.2208 
G01 X-28.7616 Y35.3895 
G01 X-28.6601 Y35.5414 
G01 X-28.5310 Y35.6705 
G01 X-28.3997 Y35.7582 
G01 X-28.3997 Y38.4513 
G01 X-28.3699 Y38.6010 
G01 X-28.3115 Y38.7420 
G01 X-28.2267 Y38.8688 
G01 X-26.2747 Y40.8209 
G01 X-26.2747 Y40.9387 
G01 X-26.2915 Y40.9792 
G01 X-26.3271 Y41.1583 
G01 X-26.3271 Y42.6617 
G01 X-26.2915 Y42.8408 
G01 X-26.2216 Y43.0095 
G01 X-26.1201 Y43.1614 
G01 X-25.9910 Y43.2905 
G01 X-25.8391 Y43.3920 
G01 X-25.6704 Y43.4619 
G01 X-25.4913 Y43.4975 
G01 X-25.3087 Y43.4975 
G01 X-25.1296 Y43.4619 
G01 X-24.9609 Y43.3920 
G01 X-24.8090 Y43.2905 
G01 X-24.6799 Y43.1614 
G01 X-24.5784 Y43.0095 
G01 X-24.5085 Y42.8408 
G01 X-24.4729 Y42.6617 
G01 X-24.4729 Y41.1583 
G01 X-24.5085 Y40.9792 
G01 X-24.5784 Y40.8105 
G01 X-24.6799 Y40.6586 
G01 X-24.7253 Y40.6132 
G01 X-24.7253 Y40.4237 
G01 X-24.7551 Y40.2740 
G01 X-24.8135 Y40.1330 
G01 X-24.8983 Y40.0062 
G01 X-25.0062 Y39.8983 
G01 X-26.8503 Y38.0541 
G01 X-26.8503 Y34.5487 
G01 X-26.8801 Y34.3990 
G01 X-26.9385 Y34.2580 
G01 X-26.9438 Y34.2500 
G01 X-26.9385 Y34.2420 
G01 X-26.9182 Y34.1930 
G01 X-26.8950 Y34.1454 
G01 X-26.8891 Y34.1227 
G01 X-26.8801 Y34.1010 
G01 X-26.8697 Y34.0490 
G01 X-26.8563 Y33.9978 
G01 X-26.8549 Y33.9743 
G01 X-26.8503 Y33.9513 
G01 X-26.8503 Y33.8983 
G01 X-26.8471 Y33.8454 
G01 X-26.8503 Y33.8222 
G01 X-26.8503 Y29.4459 
G01 X-17.4692 Y20.0648 
G01 X-17.4300 Y20.0302 
G01 X-17.4154 Y20.0109 
G01 X-17.3983 Y19.9938 
G01 X-17.3692 Y19.9504 
G01 X-16.8529 Y19.4340 
G01 X-16.8529 Y18.6660 
G01 X-16.9753 Y18.5436 
G01 X-16.9753 Y14.4764 
G01 X-16.8529 Y14.3540 
G01 X-16.8529 Y13.5860 
G01 X-17.3960 Y13.0429 
G01 X-18.1640 Y13.0429 
G01 X-18.7071 Y13.5860 
G00 Z2.5400 
G00 X-26.3271 Y19.4340 
G01 Z-0.1778 F80.00 
G01 X-25.7840 Y19.9771 F80.00 
G01 X-25.0160 Y19.9771 
G01 X-24.4729 Y19.4340 
G01 X-24.4729 Y18.6660 
G01 X-25.0160 Y18.1229 
G01 X-25.2815 Y18.1229 
G01 X-26.8503 Y16.5541 
G01 X-26.8503 Y8.6737 
G01 X-26.8801 Y8.5240 
G01 X-26.9385 Y8.3830 
G01 X-27.0233 Y8.2562 
G01 X-27.1312 Y8.1483 
G01 X-29.3922 Y5.8872 
G01 X-29.3652 Y5.8467 
G01 X-29.2876 Y5.6595 
G01 X-29.2481 Y5.4607 
G01 X-29.2481 Y5.2581 
G01 X-29.2876 Y5.0593 
G01 X-29.3652 Y4.8721 
G01 X-29.4778 Y4.7036 
G01 X-29.6210 Y4.5604 
G01 X-29.7895 Y4.4478 
G01 X-29.9767 Y4.3702 
G01 X-30.1755 Y4.3307 
G01 X-31.9021 Y4.3307 
G01 X-32.1009 Y4.3702 
G01 X-32.2881 Y4.4478 
G01 X-32.4566 Y4.5604 
G01 X-32.5998 Y4.7036 
G01 X-32.7124 Y4.8721 
G01 X-32.7900 Y5.0593 
G01 X-32.8295 Y5.2581 
G01 X-32.8295 Y5.4607 
G01 X-32.7900 Y5.6595 
G01 X-32.7124 Y5.8467 
G01 X-32.5998 Y6.0152 
G01 X-32.4566 Y6.1584 
G01 X-32.2881 Y6.2710 
G01 X-32.1009 Y6.3486 
G01 X-31.9021 Y6.3881 
G01 X-31.0825 Y6.3881 
G01 X-28.3997 Y9.0709 
G01 X-28.3997 Y16.9513 
G01 X-28.3699 Y17.1010 
G01 X-28.3115 Y17.2420 
G01 X-28.2267 Y17.3688 
G01 X-26.3271 Y19.2685 
G01 X-26.3271 Y19.4340 
G00 Z2.5400 
G00 X-9.7533 Y14.9987 
G01 Z-0.1778 F80.00 
G01 X-8.0267 Y14.9987 F80.00 
G01 X-7.8279 Y14.9592 
G01 X-7.6407 Y14.8816 
G01 X-7.4722 Y14.7690 
G01 X-7.3290 Y14.6258 
G01 X-7.2164 Y14.4573 
G01 X-7.1388 Y14.2701 
G01 X-7.0993 Y14.0713 
G01 X-7.0993 Y13.8687 
G01 X-7.1388 Y13.6699 
G01 X-7.2164 Y13.4827 
G01 X-7.3290 Y13.3142 
G01 X-7.4722 Y13.1710 
G01 X-7.6407 Y13.0584 
G01 X-7.8279 Y12.9808 
G01 X-8.0267 Y12.9413 
G01 X-9.7533 Y12.9413 
G01 X-9.9521 Y12.9808 
G01 X-10.1393 Y13.0584 
G01 X-10.3078 Y13.1710 
G01 X-10.4510 Y13.3142 
G01 X-10.5636 Y13.4827 
G01 X-10.6412 Y13.6699 
G01 X-10.6807 Y13.8687 
G01 X-10.6807 Y14.0713 
G01 X-10.6412 Y14.2701 
G01 X-10.5636 Y14.4573 
G01 X-10.4510 Y14.6258 
G01 X-10.3078 Y14.7690 
G01 X-10.1393 Y14.8816 
G01 X-9.9521 Y14.9592 
G01 X-9.7533 Y14.9987 
G00 Z2.5400 
G00 X-9.7533 Y17.5387 
G01 Z-0.1778 F80.00 
G01 X-8.0267 Y17.5387 F80.00 
G01 X-7.8279 Y17.4992 
G01 X-7.6407 Y17.4216 
G01 X-7.4722 Y17.3090 
G01 X-7.3290 Y17.1658 
G01 X-7.2164 Y16.9973 
G01 X-7.1388 Y16.8101 
G01 X-7.0993 Y16.6113 
G01 X-7.0993 Y16.4087 
G01 X-7.1388 Y16.2099 
G01 X-7.2164 Y16.0227 
G01 X-7.3290 Y15.8542 
G01 X-7.4722 Y15.7110 
G01 X-7.6407 Y15.5984 
G01 X-7.8279 Y15.5208 
G01 X-8.0267 Y15.4813 
G01 X-9.7533 Y15.4813 
G01 X-9.9521 Y15.5208 
G01 X-10.1393 Y15.5984 
G01 X-10.3078 Y15.7110 
G01 X-10.4471 Y15.8503 
G01 X-10.5763 Y15.8503 
G01 X-10.7260 Y15.8801 
G01 X-10.8670 Y15.9385 
G01 X-10.9938 Y16.0233 
G01 X-11.1017 Y16.1312 
G01 X-12.6017 Y17.6312 
G01 X-12.6865 Y17.7580 
G01 X-12.7449 Y17.8990 
G01 X-12.7747 Y18.0487 
G01 X-12.7747 Y26.7253 
G01 X-19.9513 Y26.7253 
G01 X-20.1010 Y26.7551 
G01 X-20.2420 Y26.8135 
G01 X-20.3688 Y26.8983 
G01 X-20.4767 Y27.0062 
G01 X-25.7267 Y32.2562 
G01 X-25.8115 Y32.3830 
G01 X-25.8699 Y32.5240 
G01 X-25.8997 Y32.6737 
G01 X-25.8997 Y32.8485 
G01 X-25.9910 Y32.9095 
G01 X-26.1201 Y33.0386 
G01 X-26.2216 Y33.1905 
G01 X-26.2915 Y33.3592 
G01 X-26.3271 Y33.5383 
G01 X-26.3271 Y35.0417 
G01 X-26.2915 Y35.2208 
G01 X-26.2216 Y35.3895 
G01 X-26.1201 Y35.5414 
G01 X-25.9910 Y35.6705 
G01 X-25.8391 Y35.7720 
G01 X-25.6704 Y35.8419 
G01 X-25.4913 Y35.8775 
G01 X-25.3087 Y35.8775 
G01 X-25.1296 Y35.8419 
G01 X-24.9609 Y35.7720 
G01 X-24.8090 Y35.6705 
G01 X-24.6799 Y35.5414 
G01 X-24.5784 Y35.3895 
G01 X-24.5085 Y35.2208 
G01 X-24.4729 Y35.0417 
G01 X-24.4729 Y34.4185 
G01 X-24.4385 Y34.3670 
G01 X-24.3801 Y34.2260 
G01 X-24.3503 Y34.0763 
G01 X-24.3503 Y33.0709 
G01 X-19.5541 Y28.2747 
G01 X-12.5573 Y28.2747 
G01 X-12.5386 Y28.2775 
G01 X-12.4812 Y28.2747 
G01 X-12.4237 Y28.2747 
G01 X-12.4051 Y28.2710 
G01 X-12.3861 Y28.2701 
G01 X-12.3304 Y28.2561 
G01 X-12.2740 Y28.2449 
G01 X-12.2565 Y28.2377 
G01 X-12.2376 Y28.2329 
G01 X-11.0871 Y29.3835 
G01 X-11.0871 Y29.5940 
G01 X-10.5440 Y30.1371 
G01 X-9.7760 Y30.1371 
G01 X-9.2329 Y29.5940 
G01 X-9.2329 Y28.8260 
G01 X-9.7760 Y28.2829 
G01 X-9.9965 Y28.2829 
G01 X-11.2253 Y27.0541 
G01 X-11.2253 Y18.4459 
G01 X-10.1791 Y17.3997 
G01 X-10.1721 Y17.3997 
G01 X-10.1393 Y17.4216 
G01 X-9.9521 Y17.4992 
G01 X-9.7533 Y17.5387 
G00 Z2.5400 
G00 X-9.7533 Y20.0787 
G01 Z-0.1778 F80.00 
G01 X-8.0267 Y20.0787 F80.00 
G01 X-7.8279 Y20.0392 
G01 X-7.6407 Y19.9616 
G01 X-7.4722 Y19.8490 
G01 X-7.3290 Y19.7058 
G01 X-7.2164 Y19.5373 
G01 X-7.1388 Y19.3501 
G01 X-7.0993 Y19.1513 
G01 X-7.0993 Y18.9487 
G01 X-7.1388 Y18.7499 
G01 X-7.2164 Y18.5627 
G01 X-7.3290 Y18.3942 
G01 X-7.4722 Y18.2510 
G01 X-7.6407 Y18.1384 
G01 X-7.8279 Y18.0608 
G01 X-8.0267 Y18.0213 
G01 X-9.7533 Y18.0213 
G01 X-9.9521 Y18.0608 
G01 X-10.1393 Y18.1384 
G01 X-10.3078 Y18.2510 
G01 X-10.4510 Y18.3942 
G01 X-10.5636 Y18.5627 
G01 X-10.6412 Y18.7499 
G01 X-10.6807 Y18.9487 
G01 X-10.6807 Y19.1513 
G01 X-10.6412 Y19.3501 
G01 X-10.5636 Y19.5373 
G01 X-10.4510 Y19.7058 
G01 X-10.3078 Y19.8490 
G01 X-10.1393 Y19.9616 
G01 X-9.9521 Y20.0392 
G01 X-9.7533 Y20.0787 
G00 Z2.5400 
G00 X-9.7533 Y22.6187 
G01 Z-0.1778 F80.00 
G01 X-8.0267 Y22.6187 F80.00 
G01 X-7.8279 Y22.5792 
G01 X-7.6407 Y22.5016 
G01 X-7.4722 Y22.3890 
G01 X-7.3290 Y22.2458 
G01 X-7.2164 Y22.0773 
G01 X-7.1388 Y21.8901 
G01 X-7.0993 Y21.6913 
G01 X-7.0993 Y21.4887 
G01 X-7.1388 Y21.2899 
G01 X-7.2164 Y21.1027 
G01 X-7.3290 Y20.9342 
G01 X-7.4722 Y20.7910 
G01 X-7.6407 Y20.6784 
G01 X-7.8279 Y20.6008 
G01 X-8.0267 Y20.5613 
G01 X-9.7533 Y20.5613 
G01 X-9.9521 Y20.6008 
G01 X-10.1393 Y20.6784 
G01 X-10.3078 Y20.7910 
G01 X-10.4510 Y20.9342 
G01 X-10.5636 Y21.1027 
G01 X-10.6412 Y21.2899 
G01 X-10.6807 Y21.4887 
G01 X-10.6807 Y21.6913 
G01 X-10.6412 Y21.8901 
G01 X-10.5636 Y22.0773 
G01 X-10.4510 Y22.2458 
G01 X-10.3078 Y22.3890 
G01 X-10.1393 Y22.5016 
G01 X-9.9521 Y22.5792 
G01 X-9.7533 Y22.6187 
G00 Z2.5400 
G00 X-9.7533 Y25.1587 
G01 Z-0.1778 F80.00 
G01 X-8.0267 Y25.1587 F80.00 
G01 X-7.8279 Y25.1192 
G01 X-7.6407 Y25.0416 
G01 X-7.4722 Y24.9290 
G01 X-7.3290 Y24.7858 
G01 X-7.2164 Y24.6173 
G01 X-7.1388 Y24.4301 
G01 X-7.0993 Y24.2313 
G01 X-7.0993 Y24.0287 
G01 X-7.1388 Y23.8299 
G01 X-7.2164 Y23.6427 
G01 X-7.3290 Y23.4742 
G01 X-7.4722 Y23.3310 
G01 X-7.6407 Y23.2184 
G01 X-7.8279 Y23.1408 
G01 X-8.0267 Y23.1013 
G01 X-9.7533 Y23.1013 
G01 X-9.9521 Y23.1408 
G01 X-10.1393 Y23.2184 
G01 X-10.3078 Y23.3310 
G01 X-10.4510 Y23.4742 
G01 X-10.5636 Y23.6427 
G01 X-10.6412 Y23.8299 
G01 X-10.6807 Y24.0287 
G01 X-10.6807 Y24.2313 
G01 X-10.6412 Y24.4301 
G01 X-10.5636 Y24.6173 
G01 X-10.4510 Y24.7858 
G01 X-10.3078 Y24.9290 
G01 X-10.1393 Y25.0416 
G01 X-9.9521 Y25.1192 
G01 X-9.7533 Y25.1587 
G00 Z2.5400 
G00 X-55.4733 Y37.8587 
G01 Z-0.1778 F80.00 
G01 X-53.7467 Y37.8587 F80.00 
G01 X-53.5479 Y37.8192 
G01 X-53.3607 Y37.7416 
G01 X-53.1922 Y37.6290 
G01 X-53.0490 Y37.4858 
G01 X-52.9364 Y37.3173 
G01 X-52.8588 Y37.1301 
G01 X-52.8193 Y36.9313 
G01 X-52.8193 Y36.7287 
G01 X-52.8588 Y36.5299 
G01 X-52.9364 Y36.3427 
G01 X-53.0490 Y36.1742 
G01 X-53.1922 Y36.0310 
G01 X-53.3607 Y35.9184 
G01 X-53.5479 Y35.8408 
G01 X-53.7467 Y35.8013 
G01 X-55.4733 Y35.8013 
G01 X-55.6721 Y35.8408 
G01 X-55.8593 Y35.9184 
G01 X-56.0278 Y36.0310 
G01 X-56.1710 Y36.1742 
G01 X-56.2836 Y36.3427 
G01 X-56.3612 Y36.5299 
G01 X-56.4007 Y36.7287 
G01 X-56.4007 Y36.9313 
G01 X-56.3612 Y37.1301 
G01 X-56.2836 Y37.3173 
G01 X-56.1710 Y37.4858 
G01 X-56.0278 Y37.6290 
G01 X-55.8593 Y37.7416 
G01 X-55.6721 Y37.8192 
G01 X-55.4733 Y37.8587 
G00 Z2.5400 
G00 X-55.4733 Y40.3987 
G01 Z-0.1778 F80.00 
G01 X-54.5719 Y40.3987 F80.00 
G01 X-51.8997 Y43.0709 
G01 X-51.8997 Y47.0763 
G01 X-51.8699 Y47.2260 
G01 X-51.8115 Y47.3670 
G01 X-51.7267 Y47.4938 
G01 X-50.3517 Y48.8688 
G01 X-50.2438 Y48.9767 
G01 X-50.1170 Y49.0615 
G01 X-49.9760 Y49.1199 
G01 X-49.8263 Y49.1497 
G01 X-42.4237 Y49.1497 
G01 X-42.2740 Y49.1199 
G01 X-42.1330 Y49.0615 
G01 X-42.0062 Y48.9767 
G01 X-41.8983 Y48.8688 
G01 X-41.8135 Y48.7420 
G01 X-41.7551 Y48.6010 
G01 X-41.7253 Y48.4513 
G01 X-41.7253 Y48.2987 
G01 X-41.7551 Y48.1490 
G01 X-41.8135 Y48.0080 
G01 X-41.8983 Y47.8812 
G01 X-42.0062 Y47.7733 
G01 X-42.1330 Y47.6885 
G01 X-42.2740 Y47.6301 
G01 X-42.4237 Y47.6003 
G01 X-49.4291 Y47.6003 
G01 X-50.3503 Y46.6791 
G01 X-50.3503 Y42.6737 
G01 X-50.3801 Y42.5240 
G01 X-50.4385 Y42.3830 
G01 X-50.5233 Y42.2562 
G01 X-52.9322 Y39.8472 
G01 X-52.8588 Y39.6701 
G01 X-52.8193 Y39.4713 
G01 X-52.8193 Y39.2687 
G01 X-52.8588 Y39.0699 
G01 X-52.9364 Y38.8827 
G01 X-53.0490 Y38.7142 
G01 X-53.1922 Y38.5710 
G01 X-53.3607 Y38.4584 
G01 X-53.5479 Y38.3808 
G01 X-53.7467 Y38.3413 
G01 X-55.4733 Y38.3413 
G01 X-55.6721 Y38.3808 
G01 X-55.8593 Y38.4584 
G01 X-56.0278 Y38.5710 
G01 X-56.1710 Y38.7142 
G01 X-56.2836 Y38.8827 
G01 X-56.3612 Y39.0699 
G01 X-56.4007 Y39.2687 
G01 X-56.4007 Y39.4713 
G01 X-56.3612 Y39.6701 
G01 X-56.2836 Y39.8573 
G01 X-56.1710 Y40.0258 
G01 X-56.0278 Y40.1690 
G01 X-55.8593 Y40.2816 
G01 X-55.6721 Y40.3592 
G01 X-55.4733 Y40.3987 
G00 Z2.5400 
G00 X-51.7271 Y27.5560 
G01 Z-0.1778 F80.00 
G01 X-51.7271 Y28.3240 F80.00 
G01 X-51.1840 Y28.8671 
G01 X-50.4160 Y28.8671 
G01 X-49.8729 Y28.3240 
G01 X-49.8729 Y27.5560 
G01 X-50.4160 Y27.0129 
G01 X-51.1840 Y27.0129 
G01 X-51.7271 Y27.5560 
G00 Z2.5400 
G00 X-44.1071 Y27.5560 
G01 Z-0.1778 F80.00 
G01 X-44.1071 Y28.3240 F80.00 
G01 X-43.5640 Y28.8671 
G01 X-42.7960 Y28.8671 
G01 X-42.2529 Y28.3240 
G01 X-42.2529 Y27.5560 
G01 X-42.7960 Y27.0129 
G01 X-43.5640 Y27.0129 
G01 X-44.1071 Y27.5560 
G00 Z2.5400 
G00 X-68.2371 Y31.3660 
G01 Z-0.1778 F80.00 
G01 X-68.2371 Y32.1340 F80.00 
G01 X-67.6940 Y32.6771 
G01 X-66.9260 Y32.6771 
G01 X-66.3829 Y32.1340 
G01 X-66.3829 Y31.3660 
G01 X-66.9260 Y30.8229 
G01 X-67.6940 Y30.8229 
G01 X-68.2371 Y31.3660 
G00 Z2.5400 
G00 X-60.6171 Y31.3660 
G01 Z-0.1778 F80.00 
G01 X-60.6171 Y32.1340 F80.00 
G01 X-60.0740 Y32.6771 
G01 X-59.3060 Y32.6771 
G01 X-58.7629 Y32.1340 
G01 X-58.7629 Y31.3660 
G01 X-59.3060 Y30.8229 
G01 X-60.0740 Y30.8229 
G01 X-60.6171 Y31.3660 
G00 Z2.5400 
G00 X-68.2371 Y36.4460 
G01 Z-0.1778 F80.00 
G01 X-68.2371 Y37.2140 F80.00 
G01 X-67.6940 Y37.7571 
G01 X-66.9260 Y37.7571 
G01 X-66.3829 Y37.2140 
G01 X-66.3829 Y36.4460 
G01 X-66.9260 Y35.9029 
G01 X-67.6940 Y35.9029 
G01 X-68.2371 Y36.4460 
G00 Z2.5400 
G00 X-60.6171 Y36.4460 
G01 Z-0.1778 F80.00 
G01 X-60.6171 Y37.2140 F80.00 
G01 X-60.0740 Y37.7571 
G01 X-59.3060 Y37.7571 
G01 X-58.7629 Y37.2140 
G01 X-58.7629 Y36.4460 
G01 X-59.3060 Y35.9029 
G01 X-60.0740 Y35.9029 
G01 X-60.6171 Y36.4460 
G00 Z2.5400 
G00 X-68.2371 Y41.5260 
G01 Z-0.1778 F80.00 
G01 X-68.2371 Y42.2940 F80.00 
G01 X-67.6940 Y42.8371 
G01 X-66.9260 Y42.8371 
G01 X-66.3829 Y42.2940 
G01 X-66.3829 Y41.5260 
G01 X-66.9260 Y40.9829 
G01 X-67.6940 Y40.9829 
G01 X-68.2371 Y41.5260 
G00 Z2.5400 
G00 X-60.6171 Y41.5260 
G01 Z-0.1778 F80.00 
G01 X-60.6171 Y42.2940 F80.00 
G01 X-60.0740 Y42.8371 
G01 X-59.3060 Y42.8371 
G01 X-58.7629 Y42.2940 
G01 X-58.7629 Y41.5260 
G01 X-59.3060 Y40.9829 
G01 X-60.0740 Y40.9829 
G01 X-60.6171 Y41.5260 
G00 Z2.5400 
G00 X-68.2371 Y46.6060 
G01 Z-0.1778 F80.00 
G01 X-68.2371 Y47.3740 F80.00 
G01 X-67.6940 Y47.9171 
G01 X-66.9260 Y47.9171 
G01 X-66.3829 Y47.3740 
G01 X-66.3829 Y46.6060 
G01 X-66.9260 Y46.0629 
G01 X-67.6940 Y46.0629 
G01 X-68.2371 Y46.6060 
G00 Z2.5400 
G00 X-60.6171 Y46.6060 
G01 Z-0.1778 F80.00 
G01 X-60.6171 Y47.3740 F80.00 
G01 X-60.0740 Y47.9171 
G01 X-59.3060 Y47.9171 
G01 X-58.7629 Y47.3740 
G01 X-58.7629 Y46.6060 
G01 X-59.3060 Y46.0629 
G01 X-60.0740 Y46.0629 
G01 X-60.6171 Y46.6060 
G00 Z2.5400 
G00 X-68.2371 Y51.6860 
G01 Z-0.1778 F80.00 
G01 X-68.2371 Y52.4540 F80.00 
G01 X-67.6940 Y52.9971 
G01 X-66.9260 Y52.9971 
G01 X-66.3829 Y52.4540 
G01 X-66.3829 Y51.6860 
G01 X-66.9260 Y51.1429 
G01 X-67.6940 Y51.1429 
G01 X-68.2371 Y51.6860 
G00 Z2.5400 
G00 X-31.4071 Y49.1460 
G01 Z-0.1778 F80.00 
G01 X-31.4071 Y49.9140 F80.00 
G01 X-30.8640 Y50.4571 
G01 X-30.0960 Y50.4571 
G01 X-29.5529 Y49.9140 
G01 X-29.5529 Y49.1460 
G01 X-30.0960 Y48.6029 
G01 X-30.8640 Y48.6029 
G01 X-31.4071 Y49.1460 
G00 Z2.5400 
G00 X-72.7967 Y40.8813 
G01 Z-0.1778 F80.00 
G01 X-74.5233 Y40.8813 F80.00 
G01 X-74.7221 Y40.9208 
G01 X-74.9093 Y40.9984 
G01 X-75.0778 Y41.1110 
G01 X-75.2210 Y41.2542 
G01 X-75.3336 Y41.4227 
G01 X-75.4112 Y41.6099 
G01 X-75.4507 Y41.8087 
G01 X-75.4507 Y42.0113 
G01 X-75.4112 Y42.2101 
G01 X-75.3336 Y42.3973 
G01 X-75.2210 Y42.5658 
G01 X-75.0778 Y42.7090 
G01 X-74.9093 Y42.8216 
G01 X-74.7221 Y42.8992 
G01 X-74.5233 Y42.9387 
G01 X-72.7967 Y42.9387 
G01 X-72.5979 Y42.8992 
G01 X-72.4107 Y42.8216 
G01 X-72.2422 Y42.7090 
G01 X-72.0990 Y42.5658 
G01 X-71.9864 Y42.3973 
G01 X-71.9088 Y42.2101 
G01 X-71.8693 Y42.0113 
G01 X-71.8693 Y41.8087 
G01 X-71.9088 Y41.6099 
G01 X-71.9864 Y41.4227 
G01 X-72.0990 Y41.2542 
G01 X-72.2422 Y41.1110 
G01 X-72.4107 Y40.9984 
G01 X-72.5979 Y40.9208 
G01 X-72.7967 Y40.8813 
G00 Z2.5400 
G00 X-72.7967 Y38.3413 
G01 Z-0.1778 F80.00 
G01 X-74.5233 Y38.3413 F80.00 
G01 X-74.7221 Y38.3808 
G01 X-74.9093 Y38.4584 
G01 X-75.0778 Y38.5710 
G01 X-75.2210 Y38.7142 
G01 X-75.3336 Y38.8827 
G01 X-75.4112 Y39.0699 
G01 X-75.4507 Y39.2687 
G01 X-75.4507 Y39.4713 
G01 X-75.4112 Y39.6701 
G01 X-75.3336 Y39.8573 
G01 X-75.2210 Y40.0258 
G01 X-75.0778 Y40.1690 
G01 X-74.9093 Y40.2816 
G01 X-74.7221 Y40.3592 
G01 X-74.5233 Y40.3987 
G01 X-72.7967 Y40.3987 
G01 X-72.5979 Y40.3592 
G01 X-72.4107 Y40.2816 
G01 X-72.2422 Y40.1690 
G01 X-72.0990 Y40.0258 
G01 X-71.9864 Y39.8573 
G01 X-71.9088 Y39.6701 
G01 X-71.8693 Y39.4713 
G01 X-71.8693 Y39.2687 
G01 X-71.9088 Y39.0699 
G01 X-71.9864 Y38.8827 
G01 X-72.0990 Y38.7142 
G01 X-72.2422 Y38.5710 
G01 X-72.4107 Y38.4584 
G01 X-72.5979 Y38.3808 
G01 X-72.7967 Y38.3413 
G00 Z2.5400 
G00 X-72.7967 Y35.8013 
G01 Z-0.1778 F80.00 
G01 X-74.5233 Y35.8013 F80.00 
G01 X-74.7221 Y35.8408 
G01 X-74.9093 Y35.9184 
G01 X-75.0778 Y36.0310 
G01 X-75.2210 Y36.1742 
G01 X-75.3336 Y36.3427 
G01 X-75.4112 Y36.5299 
G01 X-75.4507 Y36.7287 
G01 X-75.4507 Y36.9313 
G01 X-75.4112 Y37.1301 
G01 X-75.3336 Y37.3173 
G01 X-75.2210 Y37.4858 
G01 X-75.0778 Y37.6290 
G01 X-74.9093 Y37.7416 
G01 X-74.7221 Y37.8192 
G01 X-74.5233 Y37.8587 
G01 X-72.7967 Y37.8587 
G01 X-72.5979 Y37.8192 
G01 X-72.4107 Y37.7416 
G01 X-72.2422 Y37.6290 
G01 X-72.0990 Y37.4858 
G01 X-71.9864 Y37.3173 
G01 X-71.9088 Y37.1301 
G01 X-71.8693 Y36.9313 
G01 X-71.8693 Y36.7287 
G01 X-71.9088 Y36.5299 
G01 X-71.9864 Y36.3427 
G01 X-72.0990 Y36.1742 
G01 X-72.2422 Y36.0310 
G01 X-72.4107 Y35.9184 
G01 X-72.5979 Y35.8408 
G01 X-72.7967 Y35.8013 
G00 Z2.5400 
G00 X-72.7967 Y33.2613 
G01 Z-0.1778 F80.00 
G01 X-74.5233 Y33.2613 F80.00 
G01 X-74.7221 Y33.3008 
G01 X-74.9093 Y33.3784 
G01 X-75.0778 Y33.4910 
G01 X-75.2210 Y33.6342 
G01 X-75.3336 Y33.8027 
G01 X-75.4112 Y33.9899 
G01 X-75.4507 Y34.1887 
G01 X-75.4507 Y34.3913 
G01 X-75.4112 Y34.5901 
G01 X-75.3336 Y34.7773 
G01 X-75.2210 Y34.9458 
G01 X-75.0778 Y35.0890 
G01 X-74.9093 Y35.2016 
G01 X-74.7221 Y35.2792 
G01 X-74.5233 Y35.3187 
G01 X-72.7967 Y35.3187 
G01 X-72.5979 Y35.2792 
G01 X-72.4107 Y35.2016 
G01 X-72.2422 Y35.0890 
G01 X-72.0990 Y34.9458 
G01 X-71.9864 Y34.7773 
G01 X-71.9088 Y34.5901 
G01 X-71.8693 Y34.3913 
G01 X-71.8693 Y34.1887 
G01 X-71.9088 Y33.9899 
G01 X-71.9864 Y33.8027 
G01 X-72.0990 Y33.6342 
G01 X-72.2422 Y33.4910 
G01 X-72.4107 Y33.3784 
G01 X-72.5979 Y33.3008 
G01 X-72.7967 Y33.2613 
G00 Z2.5400 
G00 X-72.7967 Y30.7213 
G01 Z-0.1778 F80.00 
G01 X-74.5233 Y30.7213 F80.00 
G01 X-74.7221 Y30.7608 
G01 X-74.9093 Y30.8384 
G01 X-75.0778 Y30.9510 
G01 X-75.2210 Y31.0942 
G01 X-75.3336 Y31.2627 
G01 X-75.4112 Y31.4499 
G01 X-75.4507 Y31.6487 
G01 X-75.4507 Y31.8513 
G01 X-75.4112 Y32.0501 
G01 X-75.3336 Y32.2373 
G01 X-75.2210 Y32.4058 
G01 X-75.0778 Y32.5490 
G01 X-74.9093 Y32.6616 
G01 X-74.7221 Y32.7392 
G01 X-74.5233 Y32.7787 
G01 X-72.7967 Y32.7787 
G01 X-72.5979 Y32.7392 
G01 X-72.4107 Y32.6616 
G01 X-72.2422 Y32.5490 
G01 X-72.0990 Y32.4058 
G01 X-71.9864 Y32.2373 
G01 X-71.9088 Y32.0501 
G01 X-71.8693 Y31.8513 
G01 X-71.8693 Y31.6487 
G01 X-71.9088 Y31.4499 
G01 X-71.9864 Y31.2627 
G01 X-72.0990 Y31.0942 
G01 X-72.2422 Y30.9510 
G01 X-72.4107 Y30.8384 
G01 X-72.5979 Y30.7608 
G01 X-72.7967 Y30.7213 
G00 Z2.5400 
G00 X-72.7967 Y25.6413 
G01 Z-0.1778 F80.00 
G01 X-74.5233 Y25.6413 F80.00 
G01 X-74.7221 Y25.6808 
G01 X-74.9093 Y25.7584 
G01 X-75.0778 Y25.8710 
G01 X-75.2210 Y26.0142 
G01 X-75.3336 Y26.1827 
G01 X-75.4112 Y26.3699 
G01 X-75.4507 Y26.5687 
G01 X-75.4507 Y26.7713 
G01 X-75.4112 Y26.9701 
G01 X-75.3336 Y27.1573 
G01 X-75.2210 Y27.3258 
G01 X-75.0778 Y27.4690 
G01 X-74.9093 Y27.5816 
G01 X-74.7221 Y27.6592 
G01 X-74.5233 Y27.6987 
G01 X-72.7967 Y27.6987 
G01 X-72.5979 Y27.6592 
G01 X-72.4107 Y27.5816 
G01 X-72.2422 Y27.4690 
G01 X-72.0990 Y27.3258 
G01 X-71.9864 Y27.1573 
G01 X-71.9088 Y26.9701 
G01 X-71.8693 Y26.7713 
G01 X-71.8693 Y26.5687 
G01 X-71.9088 Y26.3699 
G01 X-71.9864 Y26.1827 
G01 X-72.0990 Y26.0142 
G01 X-72.2422 Y25.8710 
G01 X-72.4107 Y25.7584 
G01 X-72.5979 Y25.6808 
G01 X-72.7967 Y25.6413 
G00 Z2.5400 
G00 X-72.7967 Y23.1013 
G01 Z-0.1778 F80.00 
G01 X-74.5233 Y23.1013 F80.00 
G01 X-74.7221 Y23.1408 
G01 X-74.9093 Y23.2184 
G01 X-75.0778 Y23.3310 
G01 X-75.2210 Y23.4742 
G01 X-75.3336 Y23.6427 
G01 X-75.4112 Y23.8299 
G01 X-75.4507 Y24.0287 
G01 X-75.4507 Y24.2313 
G01 X-75.4112 Y24.4301 
G01 X-75.3336 Y24.6173 
G01 X-75.2210 Y24.7858 
G01 X-75.0778 Y24.9290 
G01 X-74.9093 Y25.0416 
G01 X-74.7221 Y25.1192 
G01 X-74.5233 Y25.1587 
G01 X-72.7967 Y25.1587 
G01 X-72.5979 Y25.1192 
G01 X-72.4107 Y25.0416 
G01 X-72.2422 Y24.9290 
G01 X-72.0990 Y24.7858 
G01 X-71.9864 Y24.6173 
G01 X-71.9088 Y24.4301 
G01 X-71.8693 Y24.2313 
G01 X-71.8693 Y24.0287 
G01 X-71.9088 Y23.8299 
G01 X-71.9864 Y23.6427 
G01 X-72.0990 Y23.4742 
G01 X-72.2422 Y23.3310 
G01 X-72.4107 Y23.2184 
G01 X-72.5979 Y23.1408 
G01 X-72.7967 Y23.1013 
G00 Z2.5400 
G00 X-18.8087 Y55.4539 
G01 Z-0.1778 F80.00 
G01 X-18.8087 Y56.3061 F80.00 
G01 X-18.2061 Y56.9087 
G01 X-17.3539 Y56.9087 
G01 X-17.0949 Y56.6497 
G01 X-15.9251 Y56.6497 
G01 X-15.6661 Y56.9087 
G01 X-14.8139 Y56.9087 
G01 X-14.5549 Y56.6497 
G01 X-14.0487 Y56.6497 
G01 X-13.8990 Y56.6199 
G01 X-13.7580 Y56.5615 
G01 X-13.6312 Y56.4767 
G01 X-13.5233 Y56.3688 
G01 X-9.8983 Y52.7438 
G01 X-9.8135 Y52.6170 
G01 X-9.7551 Y52.4760 
G01 X-9.7253 Y52.3263 
G01 X-9.7253 Y43.3938 
G01 X-9.7209 Y43.3920 
G01 X-9.5690 Y43.2905 
G01 X-9.4399 Y43.1614 
G01 X-9.3384 Y43.0095 
G01 X-9.2685 Y42.8408 
G01 X-9.2329 Y42.6617 
G01 X-9.2329 Y41.1583 
G01 X-9.2685 Y40.9792 
G01 X-9.3384 Y40.8105 
G01 X-9.4399 Y40.6586 
G01 X-9.5690 Y40.5295 
G01 X-9.7209 Y40.4280 
G01 X-9.8896 Y40.3581 
G01 X-10.0687 Y40.3225 
G01 X-10.2513 Y40.3225 
G01 X-10.4304 Y40.3581 
G01 X-10.5991 Y40.4280 
G01 X-10.7510 Y40.5295 
G01 X-10.8801 Y40.6586 
G01 X-10.9816 Y40.8105 
G01 X-11.0515 Y40.9792 
G01 X-11.0871 Y41.1583 
G01 X-11.0871 Y41.7415 
G01 X-11.1017 Y41.7562 
G01 X-11.1865 Y41.8830 
G01 X-11.2449 Y42.0240 
G01 X-11.2747 Y42.1737 
G01 X-11.2747 Y51.9291 
G01 X-14.4459 Y55.1003 
G01 X-14.5649 Y55.1003 
G01 X-14.8139 Y54.8513 
G01 X-15.6661 Y54.8513 
G01 X-15.9151 Y55.1003 
G01 X-17.1049 Y55.1003 
G01 X-17.3539 Y54.8513 
G01 X-18.2061 Y54.8513 
G01 X-18.8087 Y55.4539 
G00 Z2.5400 
G00 X-18.8087 Y52.9139 
G01 Z-0.1778 F80.00 
G01 X-18.8087 Y53.7661 F80.00 
G01 X-18.2061 Y54.3687 
G01 X-17.3539 Y54.3687 
G01 X-17.1349 Y54.1497 
G01 X-15.8851 Y54.1497 
G01 X-15.6661 Y54.3687 
G01 X-14.8139 Y54.3687 
G01 X-14.4699 Y54.0247 
G01 X-14.2987 Y54.0247 
G01 X-14.1490 Y53.9949 
G01 X-14.0080 Y53.9365 
G01 X-13.8812 Y53.8517 
G01 X-13.7733 Y53.7438 
G01 X-12.2733 Y52.2438 
G01 X-12.1885 Y52.1170 
G01 X-12.1301 Y51.9760 
G01 X-12.1003 Y51.8263 
G01 X-12.1003 Y43.2818 
G01 X-11.9799 Y43.1614 
G01 X-11.8784 Y43.0095 
G01 X-11.8085 Y42.8408 
G01 X-11.7729 Y42.6617 
G01 X-11.7729 Y41.1583 
G01 X-11.8085 Y40.9792 
G01 X-11.8784 Y40.8105 
G01 X-11.9799 Y40.6586 
G01 X-12.1090 Y40.5295 
G01 X-12.2609 Y40.4280 
G01 X-12.4296 Y40.3581 
G01 X-12.6087 Y40.3225 
G01 X-12.7913 Y40.3225 
G01 X-12.9704 Y40.3581 
G01 X-13.1391 Y40.4280 
G01 X-13.2910 Y40.5295 
G01 X-13.4201 Y40.6586 
G01 X-13.5216 Y40.8105 
G01 X-13.5915 Y40.9792 
G01 X-13.6271 Y41.1583 
G01 X-13.6271 Y41.9351 
G01 X-13.6497 Y42.0487 
G01 X-13.6497 Y51.4291 
G01 X-14.6729 Y52.4523 
G01 X-14.8139 Y52.3113 
G01 X-15.6661 Y52.3113 
G01 X-15.9551 Y52.6003 
G01 X-17.0649 Y52.6003 
G01 X-17.3539 Y52.3113 
G01 X-18.2061 Y52.3113 
G01 X-18.8087 Y52.9139 
G00 Z2.5400 
G00 X-18.2061 Y51.8287 
G01 Z-0.1778 F80.00 
G01 X-17.3539 Y51.8287 F80.00 
G01 X-16.7513 Y51.2261 
G01 X-16.7513 Y50.3739 
G01 X-17.3539 Y49.7713 
G01 X-18.2061 Y49.7713 
G01 X-18.4101 Y49.9753 
G01 X-27.4753 Y49.9753 
G01 X-27.4753 Y45.2987 
G01 X-27.5051 Y45.1490 
G01 X-27.5635 Y45.0080 
G01 X-27.6483 Y44.8812 
G01 X-29.6003 Y42.9291 
G01 X-29.6003 Y42.8692 
G01 X-29.5885 Y42.8408 
G01 X-29.5529 Y42.6617 
G01 X-29.5529 Y41.1583 
G01 X-29.5885 Y40.9792 
G01 X-29.6584 Y40.8105 
G01 X-29.7599 Y40.6586 
G01 X-29.8890 Y40.5295 
G01 X-30.0409 Y40.4280 
G01 X-30.2096 Y40.3581 
G01 X-30.3887 Y40.3225 
G01 X-30.5713 Y40.3225 
G01 X-30.7504 Y40.3581 
G01 X-30.9191 Y40.4280 
G01 X-31.0710 Y40.5295 
G01 X-31.2001 Y40.6586 
G01 X-31.3016 Y40.8105 
G01 X-31.3715 Y40.9792 
G01 X-31.4071 Y41.1583 
G01 X-31.4071 Y42.6617 
G01 X-31.3715 Y42.8408 
G01 X-31.3016 Y43.0095 
G01 X-31.2001 Y43.1614 
G01 X-31.1497 Y43.2118 
G01 X-31.1497 Y43.3263 
G01 X-31.1199 Y43.4760 
G01 X-31.0615 Y43.6170 
G01 X-30.9767 Y43.7438 
G01 X-30.8688 Y43.8517 
G01 X-29.0247 Y45.6959 
G01 X-29.0247 Y50.8263 
G01 X-28.9949 Y50.9760 
G01 X-28.9365 Y51.1170 
G01 X-28.8517 Y51.2438 
G01 X-28.7438 Y51.3517 
G01 X-28.6170 Y51.4365 
G01 X-28.4760 Y51.4949 
G01 X-28.3263 Y51.5247 
G01 X-18.5101 Y51.5247 
G01 X-18.2061 Y51.8287 
G00 Z2.5400 
G00 X-18.8087 Y47.8339 
G01 Z-0.1778 F80.00 
G01 X-18.8087 Y48.6861 F80.00 
G01 X-18.2061 Y49.2887 
G01 X-17.3539 Y49.2887 
G01 X-16.7513 Y48.6861 
G01 X-16.7513 Y47.8339 
G01 X-17.3539 Y47.2313 
G01 X-18.2061 Y47.2313 
G01 X-18.8087 Y47.8339 
G00 Z2.5400 
G00 X-16.2687 Y50.3739 
G01 Z-0.1778 F80.00 
G01 X-16.2687 Y51.2261 F80.00 
G01 X-15.6661 Y51.8287 
G01 X-14.8139 Y51.8287 
G01 X-14.2113 Y51.2261 
G01 X-14.2113 Y50.3739 
G01 X-14.8139 Y49.7713 
G01 X-15.6661 Y49.7713 
G01 X-16.2687 Y50.3739 
G00 Z2.5400 
G00 X-16.2687 Y47.8339 
G01 Z-0.1778 F80.00 
G01 X-16.2687 Y48.6861 F80.00 
G01 X-15.6661 Y49.2887 
G01 X-14.8139 Y49.2887 
G01 X-14.2113 Y48.6861 
G01 X-14.2113 Y47.8339 
G01 X-14.8139 Y47.2313 
G01 X-15.6661 Y47.2313 
G01 X-16.2687 Y47.8339 
G00 Z2.5400 
G00 X-4.8768 Y44.0081 
G01 Z-0.1778 F80.00 
G01 X-4.8768 Y44.8919 F80.00 
G01 X-4.2519 Y45.5168 
G01 X-3.3681 Y45.5168 
G01 X-2.7432 Y44.8919 
G01 X-2.7432 Y44.0081 
G01 X-3.3681 Y43.3832 
G01 X-4.2519 Y43.3832 
G01 X-4.8768 Y44.0081 
G00 Z2.5400 
G00 X-4.8768 Y49.0881 
G01 Z-0.1778 F80.00 
G01 X-4.8768 Y49.9719 F80.00 
G01 X-4.2519 Y50.5968 
G01 X-3.3681 Y50.5968 
G01 X-2.7432 Y49.9719 
G01 X-2.7432 Y49.0881 
G01 X-3.3681 Y48.4632 
G01 X-4.2519 Y48.4632 
G01 X-4.8768 Y49.0881 
G00 Z2.5400 
G00 X-34.0868 Y19.8781 
G01 Z-0.1778 F80.00 
G01 X-34.0868 Y20.7619 F80.00 
G01 X-33.4619 Y21.3868 
G01 X-32.5781 Y21.3868 
G01 X-32.3935 Y21.2021 
G01 X-31.3997 Y22.1959 
G01 X-31.3997 Y33.5011 
G01 X-31.4071 Y33.5383 
G01 X-31.4071 Y35.0417 
G01 X-31.3715 Y35.2208 
G01 X-31.3016 Y35.3895 
G01 X-31.2001 Y35.5414 
G01 X-31.0710 Y35.6705 
G01 X-30.9191 Y35.7720 
G01 X-30.7504 Y35.8419 
G01 X-30.5713 Y35.8775 
G01 X-30.3887 Y35.8775 
G01 X-30.2096 Y35.8419 
G01 X-30.0409 Y35.7720 
G01 X-29.8890 Y35.6705 
G01 X-29.7599 Y35.5414 
G01 X-29.6584 Y35.3895 
G01 X-29.5885 Y35.2208 
G01 X-29.5529 Y35.0417 
G01 X-29.5529 Y33.5383 
G01 X-29.5885 Y33.3592 
G01 X-29.6584 Y33.1905 
G01 X-29.7599 Y33.0386 
G01 X-29.8503 Y32.9482 
G01 X-29.8503 Y21.7987 
G01 X-29.8801 Y21.6490 
G01 X-29.9385 Y21.5080 
G01 X-30.0233 Y21.3812 
G01 X-30.1312 Y21.2733 
G01 X-31.5233 Y19.8812 
G01 X-31.6312 Y19.7733 
G01 X-31.7580 Y19.6885 
G01 X-31.8990 Y19.6301 
G01 X-32.0487 Y19.6003 
G01 X-32.2310 Y19.6003 
G01 X-32.5781 Y19.2532 
G01 X-33.4619 Y19.2532 
G01 X-34.0868 Y19.8781 
G00 Z2.5400 
G00 X-33.4619 Y23.9268 
G01 Z-0.1778 F80.00 
G01 X-32.5781 Y23.9268 F80.00 
G01 X-31.9532 Y23.3019 
G01 X-31.9532 Y22.4181 
G01 X-32.5781 Y21.7932 
G01 X-33.4619 Y21.7932 
G01 X-33.6440 Y21.9753 
G01 X-33.6791 Y21.9753 
G01 X-34.6003 Y21.0541 
G01 X-34.6003 Y19.0487 
G01 X-34.6301 Y18.8990 
G01 X-34.6885 Y18.7580 
G01 X-34.7733 Y18.6312 
G01 X-34.8812 Y18.5233 
G01 X-35.0080 Y18.4385 
G01 X-35.1490 Y18.3801 
G01 X-35.2987 Y18.3503 
G01 X-39.8310 Y18.3503 
G01 X-40.1981 Y17.9832 
G01 X-41.0819 Y17.9832 
G01 X-41.7068 Y18.6081 
G01 X-41.7068 Y19.4919 
G01 X-41.0819 Y20.1168 
G01 X-40.1981 Y20.1168 
G01 X-39.9810 Y19.8997 
G01 X-36.1497 Y19.8997 
G01 X-36.1497 Y21.4513 
G01 X-36.1199 Y21.6010 
G01 X-36.0615 Y21.7420 
G01 X-35.9767 Y21.8688 
G01 X-34.6017 Y23.2438 
G01 X-34.4938 Y23.3517 
G01 X-34.3670 Y23.4365 
G01 X-34.2260 Y23.4949 
G01 X-34.0763 Y23.5247 
G01 X-33.8640 Y23.5247 
G01 X-33.4619 Y23.9268 
G00 Z2.5400 
G00 X-51.7271 Y16.5457 
G01 Z-0.1778 F80.00 
G01 X-51.7271 Y16.7283 F80.00 
G01 X-51.6915 Y16.9074 
G01 X-51.6216 Y17.0761 
G01 X-51.5201 Y17.2280 
G01 X-51.3910 Y17.3571 
G01 X-51.2391 Y17.4586 
G01 X-51.0704 Y17.5285 
G01 X-50.8913 Y17.5641 
G01 X-50.7087 Y17.5641 
G01 X-50.5296 Y17.5285 
G01 X-50.5205 Y17.5247 
G01 X-44.3997 Y17.5247 
G01 X-44.3997 Y18.7483 
G01 X-44.4000 Y18.8231 
G01 X-44.3997 Y18.8263 
G01 X-44.3851 Y18.8995 
G01 X-44.3709 Y18.9729 
G01 X-44.3699 Y18.9760 
G01 X-44.3413 Y19.0451 
G01 X-44.3130 Y19.1141 
G01 X-44.3115 Y19.1170 
G01 X-44.2701 Y19.1789 
G01 X-44.2468 Y19.2141 
G01 X-44.2468 Y19.4919 
G01 X-43.8997 Y19.8390 
G01 X-43.8997 Y21.4513 
G01 X-43.8699 Y21.6010 
G01 X-43.8115 Y21.7420 
G01 X-43.7267 Y21.8688 
G01 X-43.6188 Y21.9767 
G01 X-43.4920 Y22.0615 
G01 X-43.3510 Y22.1199 
G01 X-43.2013 Y22.1497 
G01 X-39.9459 Y22.1497 
G01 X-33.7747 Y28.3209 
G01 X-33.7747 Y33.0904 
G01 X-33.8416 Y33.1905 
G01 X-33.9115 Y33.3592 
G01 X-33.9471 Y33.5383 
G01 X-33.9471 Y35.0417 
G01 X-33.9115 Y35.2208 
G01 X-33.8416 Y35.3895 
G01 X-33.7401 Y35.5414 
G01 X-33.6110 Y35.6705 
G01 X-33.4591 Y35.7720 
G01 X-33.2904 Y35.8419 
G01 X-33.1113 Y35.8775 
G01 X-32.9287 Y35.8775 
G01 X-32.7496 Y35.8419 
G01 X-32.5809 Y35.7720 
G01 X-32.4290 Y35.6705 
G01 X-32.2999 Y35.5414 
G01 X-32.1984 Y35.3895 
G01 X-32.1285 Y35.2208 
G01 X-32.0929 Y35.0417 
G01 X-32.0929 Y33.5383 
G01 X-32.1285 Y33.3592 
G01 X-32.1984 Y33.1905 
G01 X-32.2253 Y33.1502 
G01 X-32.2253 Y27.9237 
G01 X-32.2551 Y27.7740 
G01 X-32.3135 Y27.6330 
G01 X-32.3983 Y27.5062 
G01 X-39.0233 Y20.8812 
G01 X-39.1312 Y20.7733 
G01 X-39.2580 Y20.6885 
G01 X-39.3990 Y20.6301 
G01 X-39.5487 Y20.6003 
G01 X-42.3503 Y20.6003 
G01 X-42.3503 Y19.7290 
G01 X-42.1132 Y19.4919 
G01 X-42.1132 Y18.6081 
G01 X-42.7381 Y17.9832 
G01 X-42.8503 Y17.9832 
G01 X-42.8503 Y16.6737 
G01 X-42.8801 Y16.5240 
G01 X-42.9385 Y16.3830 
G01 X-43.0233 Y16.2562 
G01 X-43.1312 Y16.1483 
G01 X-43.2580 Y16.0635 
G01 X-43.3990 Y16.0051 
G01 X-43.5487 Y15.9753 
G01 X-50.1506 Y15.9753 
G01 X-50.2090 Y15.9169 
G01 X-50.3609 Y15.8154 
G01 X-50.5296 Y15.7455 
G01 X-50.7087 Y15.7099 
G01 X-50.8913 Y15.7099 
G01 X-51.0704 Y15.7455 
G01 X-51.2391 Y15.8154 
G01 X-51.3910 Y15.9169 
G01 X-51.5201 Y16.0460 
G01 X-51.6216 Y16.1979 
G01 X-51.6915 Y16.3666 
G01 X-51.7271 Y16.5457 
G00 Z2.5400 
G00 X-51.7271 Y21.3717 
G01 Z-0.1778 F80.00 
G01 X-51.7271 Y21.5543 F80.00 
G01 X-51.6915 Y21.7334 
G01 X-51.6216 Y21.9021 
G01 X-51.5201 Y22.0540 
G01 X-51.3910 Y22.1831 
G01 X-51.2391 Y22.2846 
G01 X-51.0704 Y22.3545 
G01 X-50.8913 Y22.3901 
G01 X-50.7087 Y22.3901 
G01 X-50.5296 Y22.3545 
G01 X-50.3609 Y22.2846 
G01 X-50.2090 Y22.1831 
G01 X-50.0799 Y22.0540 
G01 X-49.9784 Y21.9021 
G01 X-49.9085 Y21.7334 
G01 X-49.8729 Y21.5543 
G01 X-49.8729 Y21.3717 
G01 X-49.9085 Y21.1926 
G01 X-49.9784 Y21.0239 
G01 X-50.0799 Y20.8720 
G01 X-50.2090 Y20.7429 
G01 X-50.3609 Y20.6414 
G01 X-50.5296 Y20.5715 
G01 X-50.7087 Y20.5359 
G01 X-50.8913 Y20.5359 
G01 X-51.0704 Y20.5715 
G01 X-51.2391 Y20.6414 
G01 X-51.3910 Y20.7429 
G01 X-51.5201 Y20.8720 
G01 X-51.6216 Y21.0239 
G01 X-51.6915 Y21.1926 
G01 X-51.7271 Y21.3717 
G00 Z2.5400 
G00 X-3.4671 Y28.8260 
G01 Z-0.1778 F80.00 
G01 X-3.4671 Y29.5940 F80.00 
G01 X-2.9240 Y30.1371 
G01 X-2.1560 Y30.1371 
G01 X-1.6129 Y29.5940 
G01 X-1.6129 Y28.8260 
G01 X-2.1560 Y28.2829 
G01 X-2.9240 Y28.2829 
G01 X-3.4671 Y28.8260 
G00 Z2.5400 
G00 X-14.3129 Y42.6617 
G01 Z-0.1778 F80.00 
G01 X-14.3129 Y41.1583 F80.00 
G01 X-14.3485 Y40.9792 
G01 X-14.4184 Y40.8105 
G01 X-14.5199 Y40.6586 
G01 X-14.6490 Y40.5295 
G01 X-14.8009 Y40.4280 
G01 X-14.9696 Y40.3581 
G01 X-15.1487 Y40.3225 
G01 X-15.3313 Y40.3225 
G01 X-15.5104 Y40.3581 
G01 X-15.6791 Y40.4280 
G01 X-15.8310 Y40.5295 
G01 X-15.9601 Y40.6586 
G01 X-16.0616 Y40.8105 
G01 X-16.1315 Y40.9792 
G01 X-16.1671 Y41.1583 
G01 X-16.1671 Y42.6617 
G01 X-16.1315 Y42.8408 
G01 X-16.0616 Y43.0095 
G01 X-15.9601 Y43.1614 
G01 X-15.8310 Y43.2905 
G01 X-15.6791 Y43.3920 
G01 X-15.5104 Y43.4619 
G01 X-15.3313 Y43.4975 
G01 X-15.1487 Y43.4975 
G01 X-14.9696 Y43.4619 
G01 X-14.8009 Y43.3920 
G01 X-14.6490 Y43.2905 
G01 X-14.5199 Y43.1614 
G01 X-14.4184 Y43.0095 
G01 X-14.3485 Y42.8408 
G01 X-14.3129 Y42.6617 
G00 Z2.5400 
G00 X-16.8529 Y42.6617 
G01 Z-0.1778 F80.00 
G01 X-16.8529 Y41.1583 F80.00 
G01 X-16.8885 Y40.9792 
G01 X-16.9584 Y40.8105 
G01 X-17.0599 Y40.6586 
G01 X-17.1890 Y40.5295 
G01 X-17.3409 Y40.4280 
G01 X-17.5096 Y40.3581 
G01 X-17.6887 Y40.3225 
G01 X-17.8713 Y40.3225 
G01 X-18.0504 Y40.3581 
G01 X-18.2191 Y40.4280 
G01 X-18.3710 Y40.5295 
G01 X-18.5001 Y40.6586 
G01 X-18.6016 Y40.8105 
G01 X-18.6715 Y40.9792 
G01 X-18.7071 Y41.1583 
G01 X-18.7071 Y42.6617 
G01 X-18.6715 Y42.8408 
G01 X-18.6016 Y43.0095 
G01 X-18.5001 Y43.1614 
G01 X-18.3710 Y43.2905 
G01 X-18.2191 Y43.3920 
G01 X-18.0504 Y43.4619 
G01 X-17.8713 Y43.4975 
G01 X-17.6887 Y43.4975 
G01 X-17.5096 Y43.4619 
G01 X-17.3409 Y43.3920 
G01 X-17.1890 Y43.2905 
G01 X-17.0599 Y43.1614 
G01 X-16.9584 Y43.0095 
G01 X-16.8885 Y42.8408 
G01 X-16.8529 Y42.6617 
G00 Z2.5400 
G00 X-19.3929 Y42.6617 
G01 Z-0.1778 F80.00 
G01 X-19.3929 Y41.1583 F80.00 
G01 X-19.4285 Y40.9792 
G01 X-19.4984 Y40.8105 
G01 X-19.5999 Y40.6586 
G01 X-19.7290 Y40.5295 
G01 X-19.8809 Y40.4280 
G01 X-20.0496 Y40.3581 
G01 X-20.2287 Y40.3225 
G01 X-20.4113 Y40.3225 
G01 X-20.5904 Y40.3581 
G01 X-20.7591 Y40.4280 
G01 X-20.9110 Y40.5295 
G01 X-21.0401 Y40.6586 
G01 X-21.1416 Y40.8105 
G01 X-21.2115 Y40.9792 
G01 X-21.2471 Y41.1583 
G01 X-21.2471 Y42.6617 
G01 X-21.2115 Y42.8408 
G01 X-21.1416 Y43.0095 
G01 X-21.0401 Y43.1614 
G01 X-20.9110 Y43.2905 
G01 X-20.7591 Y43.3920 
G01 X-20.5904 Y43.4619 
G01 X-20.4113 Y43.4975 
G01 X-20.2287 Y43.4975 
G01 X-20.0496 Y43.4619 
G01 X-19.8809 Y43.3920 
G01 X-19.7290 Y43.2905 
G01 X-19.5999 Y43.1614 
G01 X-19.4984 Y43.0095 
G01 X-19.4285 Y42.8408 
G01 X-19.3929 Y42.6617 
G00 Z2.5400 
G00 X-21.9329 Y42.6617 
G01 Z-0.1778 F80.00 
G01 X-21.9329 Y41.1583 F80.00 
G01 X-21.9685 Y40.9792 
G01 X-22.0384 Y40.8105 
G01 X-22.1399 Y40.6586 
G01 X-22.2690 Y40.5295 
G01 X-22.4209 Y40.4280 
G01 X-22.5896 Y40.3581 
G01 X-22.7687 Y40.3225 
G01 X-22.9513 Y40.3225 
G01 X-23.1304 Y40.3581 
G01 X-23.2991 Y40.4280 
G01 X-23.4510 Y40.5295 
G01 X-23.5801 Y40.6586 
G01 X-23.6816 Y40.8105 
G01 X-23.7515 Y40.9792 
G01 X-23.7871 Y41.1583 
G01 X-23.7871 Y42.6617 
G01 X-23.7515 Y42.8408 
G01 X-23.6816 Y43.0095 
G01 X-23.5801 Y43.1614 
G01 X-23.4510 Y43.2905 
G01 X-23.2991 Y43.3920 
G01 X-23.1304 Y43.4619 
G01 X-22.9513 Y43.4975 
G01 X-22.7687 Y43.4975 
G01 X-22.5896 Y43.4619 
G01 X-22.4209 Y43.3920 
G01 X-22.2690 Y43.2905 
G01 X-22.1399 Y43.1614 
G01 X-22.0384 Y43.0095 
G01 X-21.9685 Y42.8408 
G01 X-21.9329 Y42.6617 
G00 Z2.5400 
G00 X-27.0129 Y42.6617 
G01 Z-0.1778 F80.00 
G01 X-27.0129 Y41.1583 F80.00 
G01 X-27.0485 Y40.9792 
G01 X-27.1184 Y40.8105 
G01 X-27.2199 Y40.6586 
G01 X-27.3490 Y40.5295 
G01 X-27.5009 Y40.4280 
G01 X-27.6696 Y40.3581 
G01 X-27.8487 Y40.3225 
G01 X-28.0313 Y40.3225 
G01 X-28.2104 Y40.3581 
G01 X-28.3791 Y40.4280 
G01 X-28.5310 Y40.5295 
G01 X-28.6601 Y40.6586 
G01 X-28.7616 Y40.8105 
G01 X-28.8315 Y40.9792 
G01 X-28.8671 Y41.1583 
G01 X-28.8671 Y42.6617 
G01 X-28.8315 Y42.8408 
G01 X-28.7616 Y43.0095 
G01 X-28.6601 Y43.1614 
G01 X-28.5310 Y43.2905 
G01 X-28.3791 Y43.3920 
G01 X-28.2104 Y43.4619 
G01 X-28.0313 Y43.4975 
G01 X-27.8487 Y43.4975 
G01 X-27.6696 Y43.4619 
G01 X-27.5009 Y43.3920 
G01 X-27.3490 Y43.2905 
G01 X-27.2199 Y43.1614 
G01 X-27.1184 Y43.0095 
G01 X-27.0485 Y42.8408 
G01 X-27.0129 Y42.6617 
G00 Z2.5400 
G00 X-32.0929 Y42.6617 
G01 Z-0.1778 F80.00 
G01 X-32.0929 Y41.1583 F80.00 
G01 X-32.1285 Y40.9792 
G01 X-32.1984 Y40.8105 
G01 X-32.2999 Y40.6586 
G01 X-32.4290 Y40.5295 
G01 X-32.5809 Y40.4280 
G01 X-32.7496 Y40.3581 
G01 X-32.9287 Y40.3225 
G01 X-33.1113 Y40.3225 
G01 X-33.2904 Y40.3581 
G01 X-33.4591 Y40.4280 
G01 X-33.6110 Y40.5295 
G01 X-33.7401 Y40.6586 
G01 X-33.8416 Y40.8105 
G01 X-33.9115 Y40.9792 
G01 X-33.9471 Y41.1583 
G01 X-33.9471 Y42.6617 
G01 X-33.9115 Y42.8408 
G01 X-33.8416 Y43.0095 
G01 X-33.7747 Y43.1096 
G01 X-33.7747 Y54.6804 
G01 X-33.8416 Y54.7805 
G01 X-33.9115 Y54.9492 
G01 X-33.9471 Y55.1283 
G01 X-33.9471 Y56.6317 
G01 X-33.9115 Y56.8108 
G01 X-33.8416 Y56.9795 
G01 X-33.7401 Y57.1314 
G01 X-33.6110 Y57.2605 
G01 X-33.4591 Y57.3620 
G01 X-33.2904 Y57.4319 
G01 X-33.1113 Y57.4675 
G01 X-32.9287 Y57.4675 
G01 X-32.7496 Y57.4319 
G01 X-32.5809 Y57.3620 
G01 X-32.4290 Y57.2605 
G01 X-32.2999 Y57.1314 
G01 X-32.1984 Y56.9795 
G01 X-32.1285 Y56.8108 
G01 X-32.0929 Y56.6317 
G01 X-32.0929 Y55.1283 
G01 X-32.1285 Y54.9492 
G01 X-32.1984 Y54.7805 
G01 X-32.2253 Y54.7402 
G01 X-32.2253 Y43.0498 
G01 X-32.1984 Y43.0095 
G01 X-32.1285 Y42.8408 
G01 X-32.0929 Y42.6617 
G00 Z2.5400 
G00 X-34.6329 Y42.6617 
G01 Z-0.1778 F80.00 
G01 X-34.6329 Y41.1583 F80.00 
G01 X-34.6685 Y40.9792 
G01 X-34.7384 Y40.8105 
G01 X-34.8399 Y40.6586 
G01 X-34.9690 Y40.5295 
G01 X-35.1209 Y40.4280 
G01 X-35.2896 Y40.3581 
G01 X-35.4687 Y40.3225 
G01 X-35.6513 Y40.3225 
G01 X-35.8304 Y40.3581 
G01 X-35.9991 Y40.4280 
G01 X-36.1510 Y40.5295 
G01 X-36.2801 Y40.6586 
G01 X-36.3816 Y40.8105 
G01 X-36.4515 Y40.9792 
G01 X-36.4871 Y41.1583 
G01 X-36.4871 Y42.6617 
G01 X-36.4515 Y42.8408 
G01 X-36.3816 Y43.0095 
G01 X-36.2801 Y43.1614 
G01 X-36.1510 Y43.2905 
G01 X-35.9991 Y43.3920 
G01 X-35.8304 Y43.4619 
G01 X-35.6513 Y43.4975 
G01 X-35.4687 Y43.4975 
G01 X-35.2896 Y43.4619 
G01 X-35.1209 Y43.3920 
G01 X-34.9690 Y43.2905 
G01 X-34.8399 Y43.1614 
G01 X-34.7384 Y43.0095 
G01 X-34.6685 Y42.8408 
G01 X-34.6329 Y42.6617 
G00 Z2.5400 
G00 X-37.1729 Y42.6617 
G01 Z-0.1778 F80.00 
G01 X-37.1729 Y41.1583 F80.00 
G01 X-37.2085 Y40.9792 
G01 X-37.2784 Y40.8105 
G01 X-37.3799 Y40.6586 
G01 X-37.5090 Y40.5295 
G01 X-37.6609 Y40.4280 
G01 X-37.8296 Y40.3581 
G01 X-38.0087 Y40.3225 
G01 X-38.1913 Y40.3225 
G01 X-38.3704 Y40.3581 
G01 X-38.5391 Y40.4280 
G01 X-38.6910 Y40.5295 
G01 X-38.8201 Y40.6586 
G01 X-38.9216 Y40.8105 
G01 X-38.9915 Y40.9792 
G01 X-39.0271 Y41.1583 
G01 X-39.0271 Y42.6617 
G01 X-38.9915 Y42.8408 
G01 X-38.9387 Y42.9681 
G01 X-40.9767 Y45.0062 
G01 X-41.0615 Y45.1330 
G01 X-41.1199 Y45.2740 
G01 X-41.1497 Y45.4237 
G01 X-41.1497 Y54.2253 
G01 X-53.5541 Y54.2253 
G01 X-54.1003 Y53.6791 
G01 X-54.1003 Y44.6737 
G01 X-54.1301 Y44.5240 
G01 X-54.1885 Y44.3830 
G01 X-54.2733 Y44.2562 
G01 X-54.3812 Y44.1483 
G01 X-54.5080 Y44.0635 
G01 X-54.6490 Y44.0051 
G01 X-54.7987 Y43.9753 
G01 X-59.6791 Y43.9753 
G01 X-64.3503 Y39.3041 
G01 X-64.3503 Y24.9237 
G01 X-64.3801 Y24.7740 
G01 X-64.4385 Y24.6330 
G01 X-64.5233 Y24.5062 
G01 X-64.6312 Y24.3983 
G01 X-67.6529 Y21.3765 
G01 X-67.6529 Y21.2060 
G01 X-68.1960 Y20.6629 
G01 X-68.9640 Y20.6629 
G01 X-69.5071 Y21.2060 
G01 X-69.5071 Y21.9740 
G01 X-68.9640 Y22.5171 
G01 X-68.7035 Y22.5171 
G01 X-65.8997 Y25.3209 
G01 X-65.8997 Y39.7013 
G01 X-65.8699 Y39.8510 
G01 X-65.8115 Y39.9920 
G01 X-65.7267 Y40.1188 
G01 X-60.6017 Y45.2438 
G01 X-60.4938 Y45.3517 
G01 X-60.3670 Y45.4365 
G01 X-60.2260 Y45.4949 
G01 X-60.0763 Y45.5247 
G01 X-55.6497 Y45.5247 
G01 X-55.6497 Y54.0763 
G01 X-55.6199 Y54.2260 
G01 X-55.5615 Y54.3670 
G01 X-55.4767 Y54.4938 
G01 X-54.4767 Y55.4938 
G01 X-54.3688 Y55.6017 
G01 X-54.2420 Y55.6865 
G01 X-54.1010 Y55.7449 
G01 X-53.9513 Y55.7747 
G01 X-40.2987 Y55.7747 
G01 X-40.1490 Y55.7449 
G01 X-40.0080 Y55.6865 
G01 X-39.8812 Y55.6017 
G01 X-39.7733 Y55.4938 
G01 X-39.6885 Y55.3670 
G01 X-39.6301 Y55.2260 
G01 X-39.6003 Y55.0763 
G01 X-39.6003 Y45.8209 
G01 X-37.6312 Y43.8517 
G01 X-37.5233 Y43.7438 
G01 X-37.4385 Y43.6170 
G01 X-37.3801 Y43.4760 
G01 X-37.3503 Y43.3263 
G01 X-37.3503 Y43.1171 
G01 X-37.2784 Y43.0095 
G01 X-37.2085 Y42.8408 
G01 X-37.1729 Y42.6617 
G00 Z2.5400 
G00 X-39.7129 Y42.6617 
G01 Z-0.1778 F80.00 
G01 X-39.7129 Y41.1583 F80.00 
G01 X-39.7485 Y40.9792 
G01 X-39.8184 Y40.8105 
G01 X-39.9199 Y40.6586 
G01 X-40.0490 Y40.5295 
G01 X-40.2009 Y40.4280 
G01 X-40.3696 Y40.3581 
G01 X-40.5487 Y40.3225 
G01 X-40.7313 Y40.3225 
G01 X-40.9104 Y40.3581 
G01 X-41.0791 Y40.4280 
G01 X-41.2310 Y40.5295 
G01 X-41.3601 Y40.6586 
G01 X-41.4616 Y40.8105 
G01 X-41.5315 Y40.9792 
G01 X-41.5671 Y41.1583 
G01 X-41.5671 Y42.6617 
G01 X-41.5315 Y42.8408 
G01 X-41.4616 Y43.0095 
G01 X-41.3601 Y43.1614 
G01 X-41.2310 Y43.2905 
G01 X-41.0791 Y43.3920 
G01 X-40.9104 Y43.4619 
G01 X-40.7313 Y43.4975 
G01 X-40.5487 Y43.4975 
G01 X-40.3696 Y43.4619 
G01 X-40.2009 Y43.3920 
G01 X-40.0490 Y43.2905 
G01 X-39.9199 Y43.1614 
G01 X-39.8184 Y43.0095 
G01 X-39.7485 Y42.8408 
G01 X-39.7129 Y42.6617 
G00 Z2.5400 
G00 X-42.2529 Y42.6617 
G01 Z-0.1778 F80.00 
G01 X-42.2529 Y41.1583 F80.00 
G01 X-42.2885 Y40.9792 
G01 X-42.3584 Y40.8105 
G01 X-42.4599 Y40.6586 
G01 X-42.5890 Y40.5295 
G01 X-42.7409 Y40.4280 
G01 X-42.9096 Y40.3581 
G01 X-43.0887 Y40.3225 
G01 X-43.2713 Y40.3225 
G01 X-43.4504 Y40.3581 
G01 X-43.6191 Y40.4280 
G01 X-43.7710 Y40.5295 
G01 X-43.9001 Y40.6586 
G01 X-44.0016 Y40.8105 
G01 X-44.0715 Y40.9792 
G01 X-44.1071 Y41.1583 
G01 X-44.1071 Y42.6617 
G01 X-44.0715 Y42.8408 
G01 X-44.0016 Y43.0095 
G01 X-43.9001 Y43.1614 
G01 X-43.7710 Y43.2905 
G01 X-43.6191 Y43.3920 
G01 X-43.4504 Y43.4619 
G01 X-43.2713 Y43.4975 
G01 X-43.0887 Y43.4975 
G01 X-42.9096 Y43.4619 
G01 X-42.7409 Y43.3920 
G01 X-42.5890 Y43.2905 
G01 X-42.4599 Y43.1614 
G01 X-42.3584 Y43.0095 
G01 X-42.2885 Y42.8408 
G01 X-42.2529 Y42.6617 
G00 Z2.5400 
G00 X-42.2529 Y35.0417 
G01 Z-0.1778 F80.00 
G01 X-42.2529 Y33.5383 F80.00 
G01 X-42.2885 Y33.3592 
G01 X-42.3584 Y33.1905 
G01 X-42.4599 Y33.0386 
G01 X-42.5890 Y32.9095 
G01 X-42.7409 Y32.8080 
G01 X-42.9096 Y32.7381 
G01 X-43.0887 Y32.7025 
G01 X-43.2713 Y32.7025 
G01 X-43.4504 Y32.7381 
G01 X-43.6191 Y32.8080 
G01 X-43.7710 Y32.9095 
G01 X-43.9001 Y33.0386 
G01 X-44.0016 Y33.1905 
G01 X-44.0715 Y33.3592 
G01 X-44.1071 Y33.5383 
G01 X-44.1071 Y35.0417 
G01 X-44.0715 Y35.2208 
G01 X-44.0016 Y35.3895 
G01 X-43.9001 Y35.5414 
G01 X-43.7710 Y35.6705 
G01 X-43.6191 Y35.7720 
G01 X-43.4504 Y35.8419 
G01 X-43.2713 Y35.8775 
G01 X-43.0887 Y35.8775 
G01 X-42.9096 Y35.8419 
G01 X-42.7409 Y35.7720 
G01 X-42.5890 Y35.6705 
G01 X-42.4599 Y35.5414 
G01 X-42.3584 Y35.3895 
G01 X-42.2885 Y35.2208 
G01 X-42.2529 Y35.0417 
G00 Z2.5400 
G00 X-39.7129 Y35.0417 
G01 Z-0.1778 F80.00 
G01 X-39.7129 Y33.5383 F80.00 
G01 X-39.7485 Y33.3592 
G01 X-39.8184 Y33.1905 
G01 X-39.9199 Y33.0386 
G01 X-40.0490 Y32.9095 
G01 X-40.2009 Y32.8080 
G01 X-40.3696 Y32.7381 
G01 X-40.5487 Y32.7025 
G01 X-40.7313 Y32.7025 
G01 X-40.9104 Y32.7381 
G01 X-41.0791 Y32.8080 
G01 X-41.2310 Y32.9095 
G01 X-41.3601 Y33.0386 
G01 X-41.4616 Y33.1905 
G01 X-41.5315 Y33.3592 
G01 X-41.5671 Y33.5383 
G01 X-41.5671 Y34.1465 
G01 X-41.6199 Y34.2740 
G01 X-41.6497 Y34.4237 
G01 X-41.6497 Y35.4291 
G01 X-47.4767 Y41.2562 
G01 X-47.5615 Y41.3830 
G01 X-47.6199 Y41.5240 
G01 X-47.6497 Y41.6737 
G01 X-47.6497 Y41.8263 
G01 X-47.6199 Y41.9760 
G01 X-47.5615 Y42.1170 
G01 X-47.4767 Y42.2438 
G01 X-47.3688 Y42.3517 
G01 X-47.2420 Y42.4365 
G01 X-47.1010 Y42.4949 
G01 X-46.9513 Y42.5247 
G01 X-46.7987 Y42.5247 
G01 X-46.6490 Y42.4949 
G01 X-46.5080 Y42.4365 
G01 X-46.3812 Y42.3517 
G01 X-40.2733 Y36.2438 
G01 X-40.1885 Y36.1170 
G01 X-40.1301 Y35.9760 
G01 X-40.1003 Y35.8263 
G01 X-40.1003 Y35.7048 
G01 X-40.0490 Y35.6705 
G01 X-39.9199 Y35.5414 
G01 X-39.8184 Y35.3895 
G01 X-39.7485 Y35.2208 
G01 X-39.7129 Y35.0417 
G00 Z2.5400 
G00 X-37.1729 Y35.0417 
G01 Z-0.1778 F80.00 
G01 X-37.1729 Y33.5383 F80.00 
G01 X-37.2085 Y33.3592 
G01 X-37.2784 Y33.1905 
G01 X-37.3799 Y33.0386 
G01 X-37.5090 Y32.9095 
G01 X-37.6003 Y32.8485 
G01 X-37.6003 Y32.6737 
G01 X-37.6301 Y32.5240 
G01 X-37.6885 Y32.3830 
G01 X-37.7733 Y32.2562 
G01 X-39.1483 Y30.8812 
G01 X-39.2562 Y30.7733 
G01 X-39.3830 Y30.6885 
G01 X-39.5240 Y30.6301 
G01 X-39.6737 Y30.6003 
G01 X-49.0763 Y30.6003 
G01 X-49.2260 Y30.6301 
G01 X-49.3670 Y30.6885 
G01 X-49.4938 Y30.7733 
G01 X-49.6017 Y30.8812 
G01 X-49.6865 Y31.0080 
G01 X-49.7449 Y31.1490 
G01 X-49.7747 Y31.2987 
G01 X-49.7747 Y46.3263 
G01 X-49.7449 Y46.4760 
G01 X-49.6865 Y46.6170 
G01 X-49.6017 Y46.7438 
G01 X-49.4938 Y46.8517 
G01 X-49.3670 Y46.9365 
G01 X-49.2260 Y46.9949 
G01 X-49.0763 Y47.0247 
G01 X-48.9237 Y47.0247 
G01 X-48.7740 Y46.9949 
G01 X-48.6330 Y46.9365 
G01 X-48.5062 Y46.8517 
G01 X-48.3983 Y46.7438 
G01 X-48.3135 Y46.6170 
G01 X-48.2551 Y46.4760 
G01 X-48.2253 Y46.3263 
G01 X-48.2253 Y32.1497 
G01 X-40.0709 Y32.1497 
G01 X-39.1497 Y33.0709 
G01 X-39.1497 Y34.0763 
G01 X-39.1199 Y34.2260 
G01 X-39.0615 Y34.3670 
G01 X-39.0271 Y34.4185 
G01 X-39.0271 Y35.0417 
G01 X-38.9915 Y35.2208 
G01 X-38.9216 Y35.3895 
G01 X-38.8201 Y35.5414 
G01 X-38.6910 Y35.6705 
G01 X-38.5391 Y35.7720 
G01 X-38.3704 Y35.8419 
G01 X-38.1913 Y35.8775 
G01 X-38.0087 Y35.8775 
G01 X-37.8296 Y35.8419 
G01 X-37.6609 Y35.7720 
G01 X-37.5090 Y35.6705 
G01 X-37.3799 Y35.5414 
G01 X-37.2784 Y35.3895 
G01 X-37.2085 Y35.2208 
G01 X-37.1729 Y35.0417 
G00 Z2.5400 
G00 X-34.6329 Y35.0417 
G01 Z-0.1778 F80.00 
G01 X-34.6329 Y33.5383 F80.00 
G01 X-34.6685 Y33.3592 
G01 X-34.7384 Y33.1905 
G01 X-34.8399 Y33.0386 
G01 X-34.9690 Y32.9095 
G01 X-35.1209 Y32.8080 
G01 X-35.2896 Y32.7381 
G01 X-35.4687 Y32.7025 
G01 X-35.6513 Y32.7025 
G01 X-35.8304 Y32.7381 
G01 X-35.9991 Y32.8080 
G01 X-36.1510 Y32.9095 
G01 X-36.2801 Y33.0386 
G01 X-36.3816 Y33.1905 
G01 X-36.4515 Y33.3592 
G01 X-36.4871 Y33.5383 
G01 X-36.4871 Y35.0417 
G01 X-36.4515 Y35.2208 
G01 X-36.3816 Y35.3895 
G01 X-36.2801 Y35.5414 
G01 X-36.1510 Y35.6705 
G01 X-35.9991 Y35.7720 
G01 X-35.8304 Y35.8419 
G01 X-35.6513 Y35.8775 
G01 X-35.4687 Y35.8775 
G01 X-35.2896 Y35.8419 
G01 X-35.1209 Y35.7720 
G01 X-34.9690 Y35.6705 
G01 X-34.8399 Y35.5414 
G01 X-34.7384 Y35.3895 
G01 X-34.6685 Y35.2208 
G01 X-34.6329 Y35.0417 
G00 Z2.5400 
G00 X-21.9329 Y35.0417 
G01 Z-0.1778 F80.00 
G01 X-21.9329 Y33.5383 F80.00 
G01 X-21.9685 Y33.3592 
G01 X-22.0384 Y33.1905 
G01 X-22.1399 Y33.0386 
G01 X-22.2690 Y32.9095 
G01 X-22.4209 Y32.8080 
G01 X-22.5896 Y32.7381 
G01 X-22.7687 Y32.7025 
G01 X-22.9513 Y32.7025 
G01 X-23.1304 Y32.7381 
G01 X-23.2991 Y32.8080 
G01 X-23.4510 Y32.9095 
G01 X-23.5801 Y33.0386 
G01 X-23.6816 Y33.1905 
G01 X-23.7515 Y33.3592 
G01 X-23.7871 Y33.5383 
G01 X-23.7871 Y35.0417 
G01 X-23.7515 Y35.2208 
G01 X-23.6816 Y35.3895 
G01 X-23.5801 Y35.5414 
G01 X-23.4510 Y35.6705 
G01 X-23.2991 Y35.7720 
G01 X-23.1304 Y35.8419 
G01 X-22.9513 Y35.8775 
G01 X-22.7687 Y35.8775 
G01 X-22.5896 Y35.8419 
G01 X-22.4209 Y35.7720 
G01 X-22.2690 Y35.6705 
G01 X-22.1399 Y35.5414 
G01 X-22.0384 Y35.3895 
G01 X-21.9685 Y35.2208 
G01 X-21.9329 Y35.0417 
G00 Z2.5400 
G00 X-19.3929 Y35.0417 
G01 Z-0.1778 F80.00 
G01 X-19.3929 Y33.5383 F80.00 
G01 X-19.4285 Y33.3592 
G01 X-19.4984 Y33.1905 
G01 X-19.5999 Y33.0386 
G01 X-19.7290 Y32.9095 
G01 X-19.8809 Y32.8080 
G01 X-20.0496 Y32.7381 
G01 X-20.2287 Y32.7025 
G01 X-20.4113 Y32.7025 
G01 X-20.5904 Y32.7381 
G01 X-20.7591 Y32.8080 
G01 X-20.9110 Y32.9095 
G01 X-21.0401 Y33.0386 
G01 X-21.1416 Y33.1905 
G01 X-21.2115 Y33.3592 
G01 X-21.2471 Y33.5383 
G01 X-21.2471 Y35.0417 
G01 X-21.2115 Y35.2208 
G01 X-21.1416 Y35.3895 
G01 X-21.0401 Y35.5414 
G01 X-20.9110 Y35.6705 
G01 X-20.7591 Y35.7720 
G01 X-20.5904 Y35.8419 
G01 X-20.4113 Y35.8775 
G01 X-20.2287 Y35.8775 
G01 X-20.0496 Y35.8419 
G01 X-19.8809 Y35.7720 
G01 X-19.7290 Y35.6705 
G01 X-19.5999 Y35.5414 
G01 X-19.4984 Y35.3895 
G01 X-19.4285 Y35.2208 
G01 X-19.3929 Y35.0417 
G00 Z2.5400 
G00 X-16.8529 Y35.0417 
G01 Z-0.1778 F80.00 
G01 X-16.8529 Y33.5383 F80.00 
G01 X-16.8885 Y33.3592 
G01 X-16.9584 Y33.1905 
G01 X-17.0599 Y33.0386 
G01 X-17.1890 Y32.9095 
G01 X-17.3409 Y32.8080 
G01 X-17.5096 Y32.7381 
G01 X-17.6887 Y32.7025 
G01 X-17.8713 Y32.7025 
G01 X-18.0504 Y32.7381 
G01 X-18.2191 Y32.8080 
G01 X-18.3710 Y32.9095 
G01 X-18.5001 Y33.0386 
G01 X-18.6016 Y33.1905 
G01 X-18.6715 Y33.3592 
G01 X-18.7071 Y33.5383 
G01 X-18.7071 Y35.0417 
G01 X-18.6715 Y35.2208 
G01 X-18.6016 Y35.3895 
G01 X-18.5001 Y35.5414 
G01 X-18.3710 Y35.6705 
G01 X-18.2191 Y35.7720 
G01 X-18.0504 Y35.8419 
G01 X-17.8713 Y35.8775 
G01 X-17.6887 Y35.8775 
G01 X-17.5096 Y35.8419 
G01 X-17.3409 Y35.7720 
G01 X-17.1890 Y35.6705 
G01 X-17.0599 Y35.5414 
G01 X-16.9584 Y35.3895 
G01 X-16.8885 Y35.2208 
G01 X-16.8529 Y35.0417 
G00 Z2.5400 
G00 X-14.3129 Y35.0417 
G01 Z-0.1778 F80.00 
G01 X-14.3129 Y33.5383 F80.00 
G01 X-14.3485 Y33.3592 
G01 X-14.4184 Y33.1905 
G01 X-14.5199 Y33.0386 
G01 X-14.6490 Y32.9095 
G01 X-14.8009 Y32.8080 
G01 X-14.9696 Y32.7381 
G01 X-15.1487 Y32.7025 
G01 X-15.3313 Y32.7025 
G01 X-15.5104 Y32.7381 
G01 X-15.6791 Y32.8080 
G01 X-15.8310 Y32.9095 
G01 X-15.9601 Y33.0386 
G01 X-16.0616 Y33.1905 
G01 X-16.1315 Y33.3592 
G01 X-16.1671 Y33.5383 
G01 X-16.1671 Y35.0417 
G01 X-16.1315 Y35.2208 
G01 X-16.0616 Y35.3895 
G01 X-15.9601 Y35.5414 
G01 X-15.8310 Y35.6705 
G01 X-15.6791 Y35.7720 
G01 X-15.5104 Y35.8419 
G01 X-15.3313 Y35.8775 
G01 X-15.1487 Y35.8775 
G01 X-14.9696 Y35.8419 
G01 X-14.8009 Y35.7720 
G01 X-14.6490 Y35.6705 
G01 X-14.5199 Y35.5414 
G01 X-14.4184 Y35.3895 
G01 X-14.3485 Y35.2208 
G01 X-14.3129 Y35.0417 
G00 Z2.5400 
G00 X-11.7729 Y35.0417 
G01 Z-0.1778 F80.00 
G01 X-11.7729 Y33.5383 F80.00 
G01 X-11.8085 Y33.3592 
G01 X-11.8784 Y33.1905 
G01 X-11.9799 Y33.0386 
G01 X-12.1090 Y32.9095 
G01 X-12.2609 Y32.8080 
G01 X-12.4296 Y32.7381 
G01 X-12.6087 Y32.7025 
G01 X-12.7913 Y32.7025 
G01 X-12.9704 Y32.7381 
G01 X-13.1391 Y32.8080 
G01 X-13.2910 Y32.9095 
G01 X-13.4201 Y33.0386 
G01 X-13.5216 Y33.1905 
G01 X-13.5915 Y33.3592 
G01 X-13.6271 Y33.5383 
G01 X-13.6271 Y35.0417 
G01 X-13.5915 Y35.2208 
G01 X-13.5216 Y35.3895 
G01 X-13.4201 Y35.5414 
G01 X-13.2910 Y35.6705 
G01 X-13.1391 Y35.7720 
G01 X-12.9704 Y35.8419 
G01 X-12.7913 Y35.8775 
G01 X-12.6087 Y35.8775 
G01 X-12.4296 Y35.8419 
G01 X-12.2609 Y35.7720 
G01 X-12.1090 Y35.6705 
G01 X-11.9799 Y35.5414 
G01 X-11.8784 Y35.3895 
G01 X-11.8085 Y35.2208 
G01 X-11.7729 Y35.0417 
G00 Z2.5400 
G00 X-9.2329 Y35.0417 
G01 Z-0.1778 F80.00 
G01 X-9.2329 Y33.5383 F80.00 
G01 X-9.2685 Y33.3592 
G01 X-9.3384 Y33.1905 
G01 X-9.4399 Y33.0386 
G01 X-9.5690 Y32.9095 
G01 X-9.7209 Y32.8080 
G01 X-9.8896 Y32.7381 
G01 X-10.0687 Y32.7025 
G01 X-10.2513 Y32.7025 
G01 X-10.4304 Y32.7381 
G01 X-10.5991 Y32.8080 
G01 X-10.7510 Y32.9095 
G01 X-10.8801 Y33.0386 
G01 X-10.9816 Y33.1905 
G01 X-11.0515 Y33.3592 
G01 X-11.0871 Y33.5383 
G01 X-11.0871 Y35.0417 
G01 X-11.0515 Y35.2208 
G01 X-10.9816 Y35.3895 
G01 X-10.8801 Y35.5414 
G01 X-10.7510 Y35.6705 
G01 X-10.5991 Y35.7720 
G01 X-10.4304 Y35.8419 
G01 X-10.2513 Y35.8775 
G01 X-10.0687 Y35.8775 
G01 X-9.8896 Y35.8419 
G01 X-9.7209 Y35.7720 
G01 X-9.5690 Y35.6705 
G01 X-9.4399 Y35.5414 
G01 X-9.3384 Y35.3895 
G01 X-9.2685 Y35.2208 
G01 X-9.2329 Y35.0417 
G00 Z2.5400 
G00 Z2.540000
G00 X-42.5000 Y48.3750 
G01 Z-2.5000 F80.00 
G01 Z2.540000
(R2.5400  P1.000000)
(G00 Z2.540000)
G00 X-53.2500 Y29.2500 
G01 Z-1.500000
G01 Z2.540000
(G00 Z2.540000)
G00 X-35.1250 Y29.3750 
G01 Z-1.500000
G01 Z2.540000
(G00 Z2.540000)
G00 X-46.8750 Y41.7500 
G01 Z-1.500000
G01 Z2.540000
(G00 Z2.540000)
G00 X-51.1250 Y37.7500 
G01 Z-1.500000
G01 Z2.540000
(G00 Z2.540000)
G00 X-62.7500 Y39.1250 
G01 Z-1.500000
G01 Z2.540000
(G00 Z2.540000)
G00 X-49.0000 Y46.2500 
G01 Z-1.500000
G01 Z2.540000
(G00 Z2.540000)
G00 X-33.0200 Y22.8600 
G01 Z-1.500000
G01 Z2.540000
(G00 Z2.540000)
G00 X-33.0200 Y20.3200 
G01 Z-1.500000
G01 Z2.540000
(G00 Z2.540000)
G00 X-40.6400 Y19.0500 
G01 Z-1.500000
G01 Z2.540000
(G00 Z2.540000)
G00 X-43.1800 Y19.0500 
G01 Z-1.500000
G01 Z2.540000
(G00 Z2.540000)
G00 X-3.8100 Y49.5300 
G01 Z-1.500000
G01 Z2.540000
(G00 Z2.540000)
G00 X-3.8100 Y44.4500 
G01 Z-1.500000
G01 Z2.540000
(G00 Z2.540000)
G00 X-33.0200 Y55.8800 
G01 Z-1.500000
G01 Z2.540000
(G00 Z2.540000)
G00 X-35.5600 Y55.8800 
G01 Z-1.500000
G01 Z2.540000
(G00 Z2.540000)
G00 X-10.1600 Y34.2900 
G01 Z-1.500000
G01 Z2.540000
(G00 Z2.540000)
G00 X-12.7000 Y34.2900 
G01 Z-1.500000
G01 Z2.540000
(G00 Z2.540000)
G00 X-15.2400 Y34.2900 
G01 Z-1.500000
G01 Z2.540000
(G00 Z2.540000)
G00 X-17.7800 Y34.2900 
G01 Z-1.500000
G01 Z2.540000
(G00 Z2.540000)
G00 X-20.3200 Y34.2900 
G01 Z-1.500000
G01 Z2.540000
(G00 Z2.540000)
G00 X-22.8600 Y34.2900 
G01 Z-1.500000
G01 Z2.540000
(G00 Z2.540000)
G00 X-25.4000 Y34.2900 
G01 Z-1.500000
G01 Z2.540000
(G00 Z2.540000)
G00 X-27.9400 Y34.2900 
G01 Z-1.500000
G01 Z2.540000
(G00 Z2.540000)
G00 X-30.4800 Y34.2900 
G01 Z-1.500000
G01 Z2.540000
(G00 Z2.540000)
G00 X-33.0200 Y34.2900 
G01 Z-1.500000
G01 Z2.540000
(G00 Z2.540000)
G00 X-35.5600 Y34.2900 
G01 Z-1.500000
G01 Z2.540000
(G00 Z2.540000)
G00 X-38.1000 Y34.2900 
G01 Z-1.500000
G01 Z2.540000
(G00 Z2.540000)
G00 X-40.6400 Y34.2900 
G01 Z-1.500000
G01 Z2.540000
(G00 Z2.540000)
G00 X-43.1800 Y34.2900 
G01 Z-1.500000
G01 Z2.540000
(G00 Z2.540000)
G00 X-43.1800 Y41.9100 
G01 Z-1.500000
G01 Z2.540000
(G00 Z2.540000)
G00 X-40.6400 Y41.9100 
G01 Z-1.500000
G01 Z2.540000
(G00 Z2.540000)
G00 X-38.1000 Y41.9100 
G01 Z-1.500000
G01 Z2.540000
(G00 Z2.540000)
G00 X-35.5600 Y41.9100 
G01 Z-1.500000
G01 Z2.540000
(G00 Z2.540000)
G00 X-33.0200 Y41.9100 
G01 Z-1.500000
G01 Z2.540000
(G00 Z2.540000)
G00 X-30.4800 Y41.9100 
G01 Z-1.500000
G01 Z2.540000
(G00 Z2.540000)
G00 X-27.9400 Y41.9100 
G01 Z-1.500000
G01 Z2.540000
(G00 Z2.540000)
G00 X-25.4000 Y41.9100 
G01 Z-1.500000
G01 Z2.540000
(G00 Z2.540000)
G00 X-22.8600 Y41.9100 
G01 Z-1.500000
G01 Z2.540000
(G00 Z2.540000)
G00 X-20.3200 Y41.9100 
G01 Z-1.500000
G01 Z2.540000
(G00 Z2.540000)
G00 X-17.7800 Y41.9100 
G01 Z-1.500000
G01 Z2.540000
(G00 Z2.540000)
G00 X-15.2400 Y41.9100 
G01 Z-1.500000
G01 Z2.540000
(G00 Z2.540000)
G00 X-12.7000 Y41.9100 
G01 Z-1.500000
G01 Z2.540000
(G00 Z2.540000)
G00 X-10.1600 Y41.9100 
G01 Z-1.500000
G01 Z2.540000
(G00 Z2.540000)
G00 X-50.8000 Y21.4630 
G01 Z-1.500000
G01 Z2.540000
(G00 Z2.540000)
G00 X-50.8000 Y16.6370 
G01 Z-1.500000
G01 Z2.540000
(G00 Z2.540000)
G00 X-10.1600 Y29.2100 
G01 Z-1.500000
G01 Z2.540000
(G00 Z2.540000)
G00 X-2.5400 Y29.2100 
G01 Z-1.500000
G01 Z2.540000
(G00 Z2.540000)
G00 X-30.4800 Y49.5300 
G01 Z-1.500000
G01 Z2.540000
(G00 Z2.540000)
G00 X-38.1000 Y49.5300 
G01 Z-1.500000
G01 Z2.540000
(G00 Z2.540000)
G00 X-67.3100 Y52.0700 
G01 Z-1.500000
G01 Z2.540000
(G00 Z2.540000)
G00 X-59.6900 Y52.0700 
G01 Z-1.500000
G01 Z2.540000
(G00 Z2.540000)
G00 X-59.6900 Y46.9900 
G01 Z-1.500000
G01 Z2.540000
(G00 Z2.540000)
G00 X-67.3100 Y46.9900 
G01 Z-1.500000
G01 Z2.540000
(G00 Z2.540000)
G00 X-59.6900 Y41.9100 
G01 Z-1.500000
G01 Z2.540000
(G00 Z2.540000)
G00 X-67.3100 Y41.9100 
G01 Z-1.500000
G01 Z2.540000
(G00 Z2.540000)
G00 X-59.6900 Y36.8300 
G01 Z-1.500000
G01 Z2.540000
(G00 Z2.540000)
G00 X-67.3100 Y36.8300 
G01 Z-1.500000
G01 Z2.540000
(G00 Z2.540000)
G00 X-59.6900 Y31.7500 
G01 Z-1.500000
G01 Z2.540000
(G00 Z2.540000)
G00 X-67.3100 Y31.7500 
G01 Z-1.500000
G01 Z2.540000
(G00 Z2.540000)
G00 X-43.1800 Y27.9400 
G01 Z-1.500000
G01 Z2.540000
(G00 Z2.540000)
G00 X-50.8000 Y27.9400 
G01 Z-1.500000
G01 Z2.540000
(G00 Z2.540000)
G00 X-17.7800 Y19.0500 
G01 Z-1.500000
G01 Z2.540000
(G00 Z2.540000)
G00 X-25.4000 Y19.0500 
G01 Z-1.500000
G01 Z2.540000
(G00 Z2.540000)
G00 X-17.7800 Y13.9700 
G01 Z-1.500000
G01 Z2.540000
(G00 Z2.540000)
G00 X-25.4000 Y13.9700 
G01 Z-1.500000
G01 Z2.540000
(G00 Z2.540000)
G00 X-17.7800 Y8.8900 
G01 Z-1.500000
G01 Z2.540000
(G00 Z2.540000)
G00 X-25.4000 Y8.8900 
G01 Z-1.500000
G01 Z2.540000
(G00 Z2.540000)
G00 X-58.4200 Y22.8600 
G01 Z-1.500000
G01 Z2.540000
(G00 Z2.540000)
G00 X-58.4200 Y15.2400 
G01 Z-1.500000
G01 Z2.540000
(G00 Z2.540000)
G00 X-63.5000 Y22.8600 
G01 Z-1.500000
G01 Z2.540000
(G00 Z2.540000)
G00 X-63.5000 Y15.2400 
G01 Z-1.500000
G01 Z2.540000
(G00 Z2.540000)
G00 X-68.5800 Y21.5900 
G01 Z-1.500000
G01 Z2.540000
(G00 Z2.540000)
G00 X-68.5800 Y13.9700 
G01 Z-1.500000
G01 Z2.540000
(G00 Z2.540000)
G00 X-31.0388 Y9.8806 
G01 Z-1.500000
G01 Z2.540000
(G00 Z2.540000)
G00 X-37.5412 Y9.8806 
G01 Z-1.500000
G01 Z2.540000
(G00 Z2.540000)
G00 X-31.0388 Y5.3594 
G01 Z-1.500000
G01 Z2.540000
(G00 Z2.540000)
G00 X-37.5412 Y5.3594 
G01 Z-1.500000
G01 Z2.540000
(G00 Z2.540000)
G00 X-45.0088 Y9.8806 
G01 Z-1.500000
G01 Z2.540000
(G00 Z2.540000)
G00 X-51.5112 Y9.8806 
G01 Z-1.500000
G01 Z2.540000
(G00 Z2.540000)
G00 X-45.0088 Y5.3594 
G01 Z-1.500000
G01 Z2.540000
(G00 Z2.540000)
G00 X-51.5112 Y5.3594 
G01 Z-1.500000
G01 Z2.540000
(G00 Z2.540000)
G00 X-57.7088 Y9.8806 
G01 Z-1.500000
G01 Z2.540000
(G00 Z2.540000)
G00 X-64.2112 Y9.8806 
G01 Z-1.500000
G01 Z2.540000
(G00 Z2.540000)
G00 X-57.7088 Y5.3594 
G01 Z-1.500000
G01 Z2.540000
(G00 Z2.540000)
G00 X-64.2112 Y5.3594 
G01 Z-1.500000
G01 Z2.540000
(G00 Z2.540000)
G00 X-15.2400 Y48.2600 
G01 Z-1.500000
G01 Z2.540000
(G00 Z2.540000)
G00 X-17.7800 Y48.2600 
G01 Z-1.500000
G01 Z2.540000
(G00 Z2.540000)
G00 X-15.2400 Y50.8000 
G01 Z-1.500000
G01 Z2.540000
(G00 Z2.540000)
G00 X-17.7800 Y50.8000 
G01 Z-1.500000
G01 Z2.540000
(G00 Z2.540000)
G00 X-15.2400 Y53.3400 
G01 Z-1.500000
G01 Z2.540000
(G00 Z2.540000)
G00 X-17.7800 Y53.3400 
G01 Z-1.500000
G01 Z2.540000
(G00 Z2.540000)
G00 X-15.2400 Y55.8800 
G01 Z-1.500000
G01 Z2.540000
(G00 Z2.540000)
G00 X-17.7800 Y55.8800 
G01 Z-1.500000
G01 Z2.540000
(G00 Z2.540000)
G00 X-73.6600 Y24.1300 
G01 Z-1.500000
G01 Z2.540000
(G00 Z2.540000)
G00 X-73.6600 Y26.6700 
G01 Z-1.500000
G01 Z2.540000
(G00 Z2.540000)
G00 X-73.6600 Y29.2100 
G01 Z-1.500000
G01 Z2.540000
(G00 Z2.540000)
G00 X-73.6600 Y31.7500 
G01 Z-1.500000
G01 Z2.540000
(G00 Z2.540000)
G00 X-73.6600 Y34.2900 
G01 Z-1.500000
G01 Z2.540000
(G00 Z2.540000)
G00 X-73.6600 Y36.8300 
G01 Z-1.500000
G01 Z2.540000
(G00 Z2.540000)
G00 X-73.6600 Y39.3700 
G01 Z-1.500000
G01 Z2.540000
(G00 Z2.540000)
G00 X-73.6600 Y41.9100 
G01 Z-1.500000
G01 Z2.540000
(G00 Z2.540000)
G00 X-54.6100 Y39.3700 
G01 Z-1.500000
G01 Z2.540000
(G00 Z2.540000)
G00 X-54.6100 Y36.8300 
G01 Z-1.500000
G01 Z2.540000
(G00 Z2.540000)
G00 X-54.6100 Y34.2900 
G01 Z-1.500000
G01 Z2.540000
(G00 Z2.540000)
G00 X-8.8900 Y24.1300 
G01 Z-1.500000
G01 Z2.540000
(G00 Z2.540000)
G00 X-8.8900 Y21.5900 
G01 Z-1.500000
G01 Z2.540000
(G00 Z2.540000)
G00 X-8.8900 Y19.0500 
G01 Z-1.500000
G01 Z2.540000
(G00 Z2.540000)
G00 X-8.8900 Y16.5100 
G01 Z-1.500000
G01 Z2.540000
(G00 Z2.540000)
G00 X-8.8900 Y13.9700 
G01 Z-1.500000
G01 Z2.540000
G00 Z5.0000 
M05
M02
