(.../pcb-gcode-3_6_0_4/pcb-gcode.ulp)
(Copyright 2005 - 2012 by John Johnson)
(See readme.txt for licensing terms.)
(This file generated from the board:)
(.../Thermostaat/Thermostaat/Thermostaat.brd)
(Current profile is .../pcb-gcode-3_6_0_4/profiles/generic.pp  )
(This file generated 21/01/2023 17:20)
(Settings from pcb-machine.h)
(  Tool Size)
(0.1778 )
(Z Axis Settings)
(  High     Up        Down     Drill)
(5.0000 	2.5400 	-0.1778 	-1.5000 )
(spindle on time = 3.0000)
(milling depth = -1.5000)
(text depth = -0.1270)
(tool change at 10.0000 10.0000 10.0000 )
(feed rate xy = F80.00 )
(feed rate z  = F80.00 )
(Settings from pcb-defaults.h)
(isolate min = 0.1778)
(isolate max = 0.5080)
(isolate step = 0.1270)
(Generated top outlines, top drill, bottom outlines, bottom drill, )
(Unit of measure: mm)
(Metric Mode)
G21
(Absolute Coordinates)
G90
G00 X0.0000 Y0.0000 
M03
G04 P3.000000
G00 Z2.5400 
G00 X46.2733 Y42.2438 
G01 Z-0.1778 F80.00 
G01 X46.1885 Y42.1170 F80.00 
G01 X46.1301 Y41.9760 
G01 X46.1003 Y41.8263 
G01 X46.1003 Y41.6737 
G01 X46.1301 Y41.5240 
G01 X46.1885 Y41.3830 
G01 X46.2733 Y41.2562 
G01 X46.3812 Y41.1483 
G01 X46.5080 Y41.0635 
G01 X46.6490 Y41.0051 
G01 X46.7987 Y40.9753 
G01 X46.9513 Y40.9753 
G01 X47.1010 Y41.0051 
G01 X47.2420 Y41.0635 
G01 X47.2971 Y41.1003 
G01 X59.1886 Y41.1003 
G01 X59.3060 Y40.9829 
G01 X60.0740 Y40.9829 
G01 X60.6171 Y41.5260 
G01 X60.6171 Y42.2940 
G01 X60.0740 Y42.8371 
G01 X59.3060 Y42.8371 
G01 X59.1186 Y42.6497 
G01 X46.9237 Y42.6497 
G01 X46.7740 Y42.6199 
G01 X46.6330 Y42.5615 
G01 X46.5062 Y42.4767 
G01 X46.3983 Y42.3688 
G01 X46.2733 Y42.2438 
G00 Z2.5400 
G00 X35.2013 Y30.1497 
G01 Z-0.1778 F80.00 
G01 X26.8209 Y30.1497 F80.00 
G01 X23.7104 Y33.2601 
G01 X23.7515 Y33.3592 
G01 X23.7871 Y33.5383 
G01 X23.7871 Y35.0417 
G01 X23.7515 Y35.2208 
G01 X23.6816 Y35.3895 
G01 X23.5801 Y35.5414 
G01 X23.4510 Y35.6705 
G01 X23.2991 Y35.7720 
G01 X23.1304 Y35.8419 
G01 X22.9513 Y35.8775 
G01 X22.7687 Y35.8775 
G01 X22.5896 Y35.8419 
G01 X22.4209 Y35.7720 
G01 X22.2690 Y35.6705 
G01 X22.1399 Y35.5414 
G01 X22.0384 Y35.3895 
G01 X21.9685 Y35.2208 
G01 X21.9329 Y35.0417 
G01 X21.9329 Y33.5383 
G01 X21.9685 Y33.3592 
G01 X22.0384 Y33.1905 
G01 X22.1003 Y33.0978 
G01 X22.1003 Y32.9237 
G01 X22.1301 Y32.7740 
G01 X22.1885 Y32.6330 
G01 X22.2733 Y32.5062 
G01 X22.3812 Y32.3983 
G01 X26.0062 Y28.7733 
G01 X26.1330 Y28.6885 
G01 X26.2740 Y28.6301 
G01 X26.4237 Y28.6003 
G01 X35.2013 Y28.6003 
G01 X35.3510 Y28.6301 
G01 X35.4920 Y28.6885 
G01 X35.6188 Y28.7733 
G01 X35.7267 Y28.8812 
G01 X35.8115 Y29.0080 
G01 X35.8699 Y29.1490 
G01 X35.8997 Y29.2987 
G01 X35.8997 Y29.4513 
G01 X35.8699 Y29.6010 
G01 X35.8115 Y29.7420 
G01 X35.7267 Y29.8688 
G01 X35.6188 Y29.9767 
G01 X35.4920 Y30.0615 
G01 X35.3510 Y30.1199 
G01 X35.2013 Y30.1497 
G00 Z2.5400 
G00 X34.6329 Y56.6317 
G01 Z-0.1778 F80.00 
G01 X34.6329 Y55.1283 F80.00 
G01 X34.6685 Y54.9492 
G01 X34.7384 Y54.7805 
G01 X34.8399 Y54.6286 
G01 X34.9690 Y54.4995 
G01 X35.1209 Y54.3980 
G01 X35.2896 Y54.3281 
G01 X35.4687 Y54.2925 
G01 X35.6513 Y54.2925 
G01 X35.8304 Y54.3281 
G01 X35.9991 Y54.3980 
G01 X36.1510 Y54.4995 
G01 X36.2801 Y54.6286 
G01 X36.3816 Y54.7805 
G01 X36.4515 Y54.9492 
G01 X36.4871 Y55.1283 
G01 X36.4871 Y56.6317 
G01 X36.4515 Y56.8108 
G01 X36.3816 Y56.9795 
G01 X36.2801 Y57.1314 
G01 X36.1510 Y57.2605 
G01 X35.9991 Y57.3620 
G01 X35.8304 Y57.4319 
G01 X35.6513 Y57.4675 
G01 X35.4687 Y57.4675 
G01 X35.2896 Y57.4319 
G01 X35.1209 Y57.3620 
G01 X34.9690 Y57.2605 
G01 X34.8399 Y57.1314 
G01 X34.7384 Y56.9795 
G01 X34.6685 Y56.8108 
G01 X34.6329 Y56.6317 
G00 Z2.5400 
G00 X32.0929 Y56.6317 
G01 Z-0.1778 F80.00 
G01 X32.0929 Y55.1283 F80.00 
G01 X32.1285 Y54.9492 
G01 X32.1984 Y54.7805 
G01 X32.2999 Y54.6286 
G01 X32.4290 Y54.4995 
G01 X32.5809 Y54.3980 
G01 X32.7496 Y54.3281 
G01 X32.9287 Y54.2925 
G01 X33.1113 Y54.2925 
G01 X33.2904 Y54.3281 
G01 X33.4591 Y54.3980 
G01 X33.6110 Y54.4995 
G01 X33.7401 Y54.6286 
G01 X33.8416 Y54.7805 
G01 X33.9115 Y54.9492 
G01 X33.9471 Y55.1283 
G01 X33.9471 Y56.6317 
G01 X33.9115 Y56.8108 
G01 X33.8416 Y56.9795 
G01 X33.7401 Y57.1314 
G01 X33.6110 Y57.2605 
G01 X33.4591 Y57.3620 
G01 X33.2904 Y57.4319 
G01 X33.1113 Y57.4675 
G01 X32.9287 Y57.4675 
G01 X32.7496 Y57.4319 
G01 X32.5809 Y57.3620 
G01 X32.4290 Y57.2605 
G01 X32.2999 Y57.1314 
G01 X32.1984 Y56.9795 
G01 X32.1285 Y56.8108 
G01 X32.0929 Y56.6317 
G00 Z2.5400 
G00 X69.5071 Y13.5860 
G01 Z-0.1778 F80.00 
G01 X69.5071 Y14.3540 F80.00 
G01 X68.9640 Y14.8971 
G01 X68.1960 Y14.8971 
G01 X67.6529 Y14.3540 
G01 X67.6529 Y14.1235 
G01 X66.5541 Y13.0247 
G01 X62.4237 Y13.0247 
G01 X62.2740 Y12.9949 
G01 X62.1330 Y12.9365 
G01 X62.0062 Y12.8517 
G01 X60.3812 Y11.2267 
G01 X60.2733 Y11.1188 
G01 X60.1885 Y10.9920 
G01 X60.1301 Y10.8510 
G01 X60.1003 Y10.7013 
G01 X60.1003 Y6.5247 
G01 X58.0200 Y6.5247 
G01 X57.9637 Y6.5276 
G01 X57.9438 Y6.5247 
G01 X57.9237 Y6.5247 
G01 X57.8685 Y6.5137 
G01 X57.8127 Y6.5056 
G01 X57.7938 Y6.4989 
G01 X57.7740 Y6.4949 
G01 X57.7220 Y6.4734 
G01 X57.6689 Y6.4545 
G01 X57.6516 Y6.4442 
G01 X57.6330 Y6.4365 
G01 X57.5862 Y6.4052 
G01 X57.5575 Y6.3881 
G01 X56.8455 Y6.3881 
G01 X56.6467 Y6.3486 
G01 X56.4595 Y6.2710 
G01 X56.2910 Y6.1584 
G01 X56.1478 Y6.0152 
G01 X56.0352 Y5.8467 
G01 X55.9576 Y5.6595 
G01 X55.9181 Y5.4607 
G01 X55.9181 Y5.2581 
G01 X55.9576 Y5.0593 
G01 X56.0352 Y4.8721 
G01 X56.0818 Y4.8024 
G01 X55.0541 Y3.7747 
G01 X26.2747 Y3.7747 
G01 X26.2747 Y8.4536 
G01 X26.3271 Y8.5060 
G01 X26.3271 Y9.2740 
G01 X25.7840 Y9.8171 
G01 X25.0160 Y9.8171 
G01 X24.4729 Y9.2740 
G01 X24.4729 Y8.5060 
G01 X24.7253 Y8.2536 
G01 X24.7253 Y2.9237 
G01 X24.7551 Y2.7740 
G01 X24.8135 Y2.6330 
G01 X24.8983 Y2.5062 
G01 X25.0062 Y2.3982 
G01 X25.1330 Y2.3135 
G01 X25.2740 Y2.2551 
G01 X25.4237 Y2.2253 
G01 X55.4513 Y2.2253 
G01 X55.6010 Y2.2551 
G01 X55.7420 Y2.3135 
G01 X55.8688 Y2.3982 
G01 X57.8013 Y4.3307 
G01 X58.5721 Y4.3307 
G01 X58.7709 Y4.3702 
G01 X58.9581 Y4.4478 
G01 X59.1266 Y4.5604 
G01 X59.2698 Y4.7036 
G01 X59.3824 Y4.8721 
G01 X59.4252 Y4.9753 
G01 X60.9513 Y4.9753 
G01 X61.1010 Y5.0051 
G01 X61.2420 Y5.0635 
G01 X61.3688 Y5.1482 
G01 X61.4767 Y5.2562 
G01 X61.5615 Y5.3830 
G01 X61.6199 Y5.5240 
G01 X61.6497 Y5.6737 
G01 X61.6497 Y10.3041 
G01 X62.8209 Y11.4753 
G01 X66.9513 Y11.4753 
G01 X67.1010 Y11.5051 
G01 X67.2420 Y11.5635 
G01 X67.3688 Y11.6483 
G01 X67.4767 Y11.7562 
G01 X68.7635 Y13.0429 
G01 X68.9640 Y13.0429 
G01 X69.5071 Y13.5860 
G00 Z2.5400 
G00 X69.5071 Y21.2060 
G01 Z-0.1778 F80.00 
G01 X69.5071 Y21.9740 F80.00 
G01 X68.9640 Y22.5171 
G01 X68.1960 Y22.5171 
G01 X67.6529 Y21.9740 
G01 X67.6529 Y21.2060 
G01 X68.1960 Y20.6629 
G01 X68.9640 Y20.6629 
G01 X69.5071 Y21.2060 
G00 Z2.5400 
G00 X64.4271 Y14.8560 
G01 Z-0.1778 F80.00 
G01 X64.4271 Y15.6240 F80.00 
G01 X63.8840 Y16.1671 
G01 X63.6785 Y16.1671 
G01 X60.4767 Y19.3688 
G01 X60.3688 Y19.4767 
G01 X60.2420 Y19.5615 
G01 X60.1010 Y19.6199 
G01 X59.9513 Y19.6497 
G01 X46.2987 Y19.6497 
G01 X46.1490 Y19.6199 
G01 X46.0080 Y19.5615 
G01 X45.8812 Y19.4767 
G01 X43.8041 Y17.3997 
G01 X28.1959 Y17.3997 
G01 X26.3271 Y19.2685 
G01 X26.3271 Y19.4340 
G01 X25.7840 Y19.9771 
G01 X25.0160 Y19.9771 
G01 X24.4729 Y19.4340 
G01 X24.4729 Y18.6660 
G01 X25.0160 Y18.1229 
G01 X25.2815 Y18.1229 
G01 X27.3812 Y16.0233 
G01 X27.5080 Y15.9385 
G01 X27.6490 Y15.8801 
G01 X27.7987 Y15.8503 
G01 X44.2013 Y15.8503 
G01 X44.3510 Y15.8801 
G01 X44.4920 Y15.9385 
G01 X44.6188 Y16.0233 
G01 X44.7267 Y16.1312 
G01 X46.6959 Y18.1003 
G01 X59.5541 Y18.1003 
G01 X62.5729 Y15.0815 
G01 X62.5729 Y14.8560 
G01 X63.1160 Y14.3129 
G01 X63.8840 Y14.3129 
G01 X64.4271 Y14.8560 
G00 Z2.5400 
G00 X64.4271 Y22.4760 
G01 Z-0.1778 F80.00 
G01 X64.4271 Y23.2440 F80.00 
G01 X63.8840 Y23.7871 
G01 X63.1160 Y23.7871 
G01 X62.5729 Y23.2440 
G01 X62.5729 Y22.4760 
G01 X63.1160 Y21.9329 
G01 X63.8840 Y21.9329 
G01 X64.4271 Y22.4760 
G00 Z2.5400 
G00 X59.3471 Y14.8560 
G01 Z-0.1778 F80.00 
G01 X59.3471 Y15.6240 F80.00 
G01 X58.8040 Y16.1671 
G01 X58.0360 Y16.1671 
G01 X57.4929 Y15.6240 
G01 X57.4929 Y15.3385 
G01 X57.3041 Y15.1497 
G01 X25.7987 Y15.1497 
G01 X25.6490 Y15.1199 
G01 X25.5080 Y15.0615 
G01 X25.3812 Y14.9767 
G01 X25.3015 Y14.8971 
G01 X25.0160 Y14.8971 
G01 X24.4729 Y14.3540 
G01 X24.4729 Y13.5860 
G01 X25.0160 Y13.0429 
G01 X25.7840 Y13.0429 
G01 X26.3271 Y13.5860 
G01 X26.3271 Y13.6003 
G01 X57.7013 Y13.6003 
G01 X57.8510 Y13.6301 
G01 X57.9920 Y13.6885 
G01 X58.1188 Y13.7733 
G01 X58.6585 Y14.3129 
G01 X58.8040 Y14.3129 
G01 X59.3471 Y14.8560 
G00 Z2.5400 
G00 X59.3471 Y22.4760 
G01 Z-0.1778 F80.00 
G01 X59.3471 Y23.2440 F80.00 
G01 X58.8040 Y23.7871 
G01 X58.0360 Y23.7871 
G01 X57.4929 Y23.2440 
G01 X57.4929 Y22.4760 
G01 X58.0360 Y21.9329 
G01 X58.8040 Y21.9329 
G01 X59.3471 Y22.4760 
G00 Z2.5400 
G00 X65.0745 Y6.3881 
G01 Z-0.1778 F80.00 
G01 X63.3479 Y6.3881 F80.00 
G01 X63.1491 Y6.3486 
G01 X62.9619 Y6.2710 
G01 X62.7934 Y6.1584 
G01 X62.6502 Y6.0152 
G01 X62.5376 Y5.8467 
G01 X62.4600 Y5.6595 
G01 X62.4205 Y5.4607 
G01 X62.4205 Y5.2581 
G01 X62.4600 Y5.0593 
G01 X62.5376 Y4.8721 
G01 X62.6502 Y4.7036 
G01 X62.7934 Y4.5604 
G01 X62.9619 Y4.4478 
G01 X63.1491 Y4.3702 
G01 X63.3479 Y4.3307 
G01 X65.0745 Y4.3307 
G01 X65.2733 Y4.3702 
G01 X65.4605 Y4.4478 
G01 X65.6290 Y4.5604 
G01 X65.7722 Y4.7036 
G01 X65.8848 Y4.8721 
G01 X65.9624 Y5.0593 
G01 X66.0019 Y5.2581 
G01 X66.0019 Y5.4607 
G01 X65.9624 Y5.6595 
G01 X65.8848 Y5.8467 
G01 X65.7722 Y6.0152 
G01 X65.6290 Y6.1584 
G01 X65.4605 Y6.2710 
G01 X65.2733 Y6.3486 
G01 X65.0745 Y6.3881 
G00 Z2.5400 
G00 X65.0745 Y10.9093 
G01 Z-0.1778 F80.00 
G01 X63.3479 Y10.9093 F80.00 
G01 X63.1491 Y10.8698 
G01 X62.9619 Y10.7922 
G01 X62.7934 Y10.6796 
G01 X62.6502 Y10.5364 
G01 X62.5376 Y10.3679 
G01 X62.4600 Y10.1807 
G01 X62.4205 Y9.9819 
G01 X62.4205 Y9.7793 
G01 X62.4600 Y9.5805 
G01 X62.5376 Y9.3933 
G01 X62.6502 Y9.2248 
G01 X62.7934 Y9.0816 
G01 X62.9619 Y8.9690 
G01 X63.1491 Y8.8914 
G01 X63.3479 Y8.8519 
G01 X65.0745 Y8.8519 
G01 X65.2733 Y8.8914 
G01 X65.4605 Y8.9690 
G01 X65.6290 Y9.0816 
G01 X65.7722 Y9.2248 
G01 X65.8848 Y9.3933 
G01 X65.9624 Y9.5805 
G01 X66.0019 Y9.7793 
G01 X66.0019 Y9.9819 
G01 X65.9624 Y10.1807 
G01 X65.8848 Y10.3679 
G01 X65.7722 Y10.5364 
G01 X65.6290 Y10.6796 
G01 X65.4605 Y10.7922 
G01 X65.2733 Y10.8698 
G01 X65.0745 Y10.9093 
G00 Z2.5400 
G00 X52.3745 Y6.3881 
G01 Z-0.1778 F80.00 
G01 X50.6479 Y6.3881 F80.00 
G01 X50.4491 Y6.3486 
G01 X50.2619 Y6.2710 
G01 X50.0934 Y6.1584 
G01 X49.9502 Y6.0152 
G01 X49.8376 Y5.8467 
G01 X49.7600 Y5.6595 
G01 X49.7205 Y5.4607 
G01 X49.7205 Y5.2581 
G01 X49.7600 Y5.0593 
G01 X49.8376 Y4.8721 
G01 X49.9502 Y4.7036 
G01 X50.0934 Y4.5604 
G01 X50.2619 Y4.4478 
G01 X50.4491 Y4.3702 
G01 X50.6479 Y4.3307 
G01 X52.3745 Y4.3307 
G01 X52.5733 Y4.3702 
G01 X52.7605 Y4.4478 
G01 X52.9290 Y4.5604 
G01 X53.0722 Y4.7036 
G01 X53.1848 Y4.8721 
G01 X53.2624 Y5.0593 
G01 X53.3019 Y5.2581 
G01 X53.3019 Y5.4607 
G01 X53.2624 Y5.6595 
G01 X53.1848 Y5.8467 
G01 X53.0722 Y6.0152 
G01 X52.9290 Y6.1584 
G01 X52.7605 Y6.2710 
G01 X52.5733 Y6.3486 
G01 X52.3745 Y6.3881 
G00 Z2.5400 
G00 X52.3745 Y10.9093 
G01 Z-0.1778 F80.00 
G01 X50.6479 Y10.9093 F80.00 
G01 X50.4491 Y10.8698 
G01 X50.2619 Y10.7922 
G01 X50.0934 Y10.6796 
G01 X49.9502 Y10.5364 
G01 X49.8376 Y10.3679 
G01 X49.7600 Y10.1807 
G01 X49.7205 Y9.9819 
G01 X49.7205 Y9.7793 
G01 X49.7600 Y9.5805 
G01 X49.8376 Y9.3933 
G01 X49.9502 Y9.2248 
G01 X50.0934 Y9.0816 
G01 X50.2619 Y8.9690 
G01 X50.4491 Y8.8914 
G01 X50.6479 Y8.8519 
G01 X52.3745 Y8.8519 
G01 X52.5733 Y8.8914 
G01 X52.7605 Y8.9690 
G01 X52.9290 Y9.0816 
G01 X53.0722 Y9.2248 
G01 X53.1848 Y9.3933 
G01 X53.2624 Y9.5805 
G01 X53.3019 Y9.7793 
G01 X53.3019 Y9.9819 
G01 X53.2624 Y10.1807 
G01 X53.1848 Y10.3679 
G01 X53.0722 Y10.5364 
G01 X52.9290 Y10.6796 
G01 X52.7605 Y10.7922 
G01 X52.5733 Y10.8698 
G01 X52.3745 Y10.9093 
G00 Z2.5400 
G00 X45.8721 Y6.3881 
G01 Z-0.1778 F80.00 
G01 X44.1455 Y6.3881 F80.00 
G01 X43.9467 Y6.3486 
G01 X43.7595 Y6.2710 
G01 X43.5910 Y6.1584 
G01 X43.4478 Y6.0152 
G01 X43.3352 Y5.8467 
G01 X43.2576 Y5.6595 
G01 X43.2181 Y5.4607 
G01 X43.2181 Y5.2581 
G01 X43.2576 Y5.0593 
G01 X43.3352 Y4.8721 
G01 X43.4478 Y4.7036 
G01 X43.5910 Y4.5604 
G01 X43.7595 Y4.4478 
G01 X43.9467 Y4.3702 
G01 X44.1455 Y4.3307 
G01 X45.8721 Y4.3307 
G01 X46.0709 Y4.3702 
G01 X46.2581 Y4.4478 
G01 X46.4266 Y4.5604 
G01 X46.5698 Y4.7036 
G01 X46.6824 Y4.8721 
G01 X46.7600 Y5.0593 
G01 X46.7995 Y5.2581 
G01 X46.7995 Y5.4607 
G01 X46.7600 Y5.6595 
G01 X46.6824 Y5.8467 
G01 X46.5698 Y6.0152 
G01 X46.4266 Y6.1584 
G01 X46.2581 Y6.2710 
G01 X46.0709 Y6.3486 
G01 X45.8721 Y6.3881 
G00 Z2.5400 
G00 X38.4045 Y6.3881 
G01 Z-0.1778 F80.00 
G01 X36.6779 Y6.3881 F80.00 
G01 X36.4791 Y6.3486 
G01 X36.2919 Y6.2710 
G01 X36.1234 Y6.1584 
G01 X35.9802 Y6.0152 
G01 X35.8676 Y5.8467 
G01 X35.7900 Y5.6595 
G01 X35.7505 Y5.4607 
G01 X35.7505 Y5.2581 
G01 X35.7900 Y5.0593 
G01 X35.8676 Y4.8721 
G01 X35.9802 Y4.7036 
G01 X36.1234 Y4.5604 
G01 X36.2919 Y4.4478 
G01 X36.4791 Y4.3702 
G01 X36.6779 Y4.3307 
G01 X38.4045 Y4.3307 
G01 X38.6033 Y4.3702 
G01 X38.7905 Y4.4478 
G01 X38.9590 Y4.5604 
G01 X39.1022 Y4.7036 
G01 X39.2148 Y4.8721 
G01 X39.2924 Y5.0593 
G01 X39.3319 Y5.2581 
G01 X39.3319 Y5.4607 
G01 X39.2924 Y5.6595 
G01 X39.2148 Y5.8467 
G01 X39.1022 Y6.0152 
G01 X38.9590 Y6.1584 
G01 X38.7905 Y6.2710 
G01 X38.6033 Y6.3486 
G01 X38.4045 Y6.3881 
G00 Z2.5400 
G00 X38.4045 Y10.9093 
G01 Z-0.1778 F80.00 
G01 X36.6779 Y10.9093 F80.00 
G01 X36.4791 Y10.8698 
G01 X36.2919 Y10.7922 
G01 X36.1234 Y10.6796 
G01 X35.9802 Y10.5364 
G01 X35.8676 Y10.3679 
G01 X35.7900 Y10.1807 
G01 X35.7505 Y9.9819 
G01 X35.7505 Y9.7793 
G01 X35.7900 Y9.5805 
G01 X35.8676 Y9.3933 
G01 X35.9802 Y9.2248 
G01 X36.1234 Y9.0816 
G01 X36.2919 Y8.9690 
G01 X36.4791 Y8.8914 
G01 X36.6779 Y8.8519 
G01 X38.4045 Y8.8519 
G01 X38.6033 Y8.8914 
G01 X38.7905 Y8.9690 
G01 X38.9590 Y9.0816 
G01 X39.1022 Y9.2248 
G01 X39.2148 Y9.3933 
G01 X39.2924 Y9.5805 
G01 X39.3319 Y9.7793 
G01 X39.3319 Y9.9819 
G01 X39.2924 Y10.1807 
G01 X39.2148 Y10.3679 
G01 X39.1022 Y10.5364 
G01 X38.9590 Y10.6796 
G01 X38.7905 Y10.7922 
G01 X38.6033 Y10.8698 
G01 X38.4045 Y10.9093 
G00 Z2.5400 
G00 X31.9021 Y6.3881 
G01 Z-0.1778 F80.00 
G01 X30.1755 Y6.3881 F80.00 
G01 X29.9767 Y6.3486 
G01 X29.7895 Y6.2710 
G01 X29.6210 Y6.1584 
G01 X29.4778 Y6.0152 
G01 X29.3652 Y5.8467 
G01 X29.2876 Y5.6595 
G01 X29.2481 Y5.4607 
G01 X29.2481 Y5.2581 
G01 X29.2876 Y5.0593 
G01 X29.3652 Y4.8721 
G01 X29.4778 Y4.7036 
G01 X29.6210 Y4.5604 
G01 X29.7895 Y4.4478 
G01 X29.9767 Y4.3702 
G01 X30.1755 Y4.3307 
G01 X31.9021 Y4.3307 
G01 X32.1009 Y4.3702 
G01 X32.2881 Y4.4478 
G01 X32.4566 Y4.5604 
G01 X32.5998 Y4.7036 
G01 X32.7124 Y4.8721 
G01 X32.7900 Y5.0593 
G01 X32.8295 Y5.2581 
G01 X32.8295 Y5.4607 
G01 X32.7900 Y5.6595 
G01 X32.7124 Y5.8467 
G01 X32.5998 Y6.0152 
G01 X32.4566 Y6.1584 
G01 X32.2881 Y6.2710 
G01 X32.1009 Y6.3486 
G01 X31.9021 Y6.3881 
G00 Z2.5400 
G00 X18.7071 Y18.6660 
G01 Z-0.1778 F80.00 
G01 X18.7071 Y18.8615 F80.00 
G01 X22.0709 Y22.2253 
G01 X32.1460 Y22.2253 
G01 X32.5781 Y21.7932 
G01 X33.4619 Y21.7932 
G01 X34.0868 Y22.4181 
G01 X34.0868 Y22.7412 
G01 X35.5709 Y24.2253 
G01 X57.7013 Y24.2253 
G01 X57.8510 Y24.2551 
G01 X57.9920 Y24.3135 
G01 X58.0471 Y24.3503 
G01 X64.0541 Y24.3503 
G01 X64.6312 Y23.7733 
G01 X64.7580 Y23.6885 
G01 X64.8990 Y23.6301 
G01 X65.0487 Y23.6003 
G01 X72.0147 Y23.6003 
G01 X72.0990 Y23.4742 
G01 X72.2422 Y23.3310 
G01 X72.4107 Y23.2184 
G01 X72.5979 Y23.1408 
G01 X72.7967 Y23.1013 
G01 X74.5233 Y23.1013 
G01 X74.7221 Y23.1408 
G01 X74.9093 Y23.2184 
G01 X75.0778 Y23.3310 
G01 X75.2210 Y23.4742 
G01 X75.3336 Y23.6427 
G01 X75.4112 Y23.8299 
G01 X75.4507 Y24.0287 
G01 X75.4507 Y24.2313 
G01 X75.4112 Y24.4301 
G01 X75.3336 Y24.6173 
G01 X75.2210 Y24.7858 
G01 X75.0778 Y24.9290 
G01 X74.9093 Y25.0416 
G01 X74.7221 Y25.1192 
G01 X74.5233 Y25.1587 
G01 X72.7967 Y25.1587 
G01 X72.7514 Y25.1497 
G01 X65.4459 Y25.1497 
G01 X64.9767 Y25.6188 
G01 X64.8688 Y25.7267 
G01 X64.7420 Y25.8115 
G01 X64.6010 Y25.8699 
G01 X64.4513 Y25.8997 
G01 X57.6737 Y25.8997 
G01 X57.5240 Y25.8699 
G01 X57.3830 Y25.8115 
G01 X57.3279 Y25.7747 
G01 X35.1737 Y25.7747 
G01 X35.0240 Y25.7449 
G01 X34.8830 Y25.6865 
G01 X34.7562 Y25.6017 
G01 X33.0812 Y23.9268 
G01 X32.5781 Y23.9268 
G01 X32.4260 Y23.7747 
G01 X21.6737 Y23.7747 
G01 X21.5240 Y23.7449 
G01 X21.3830 Y23.6865 
G01 X21.2562 Y23.6017 
G01 X21.1483 Y23.4938 
G01 X17.6315 Y19.9771 
G01 X17.3960 Y19.9771 
G01 X16.8529 Y19.4340 
G01 X16.8529 Y18.6660 
G01 X17.3960 Y18.1229 
G01 X18.1640 Y18.1229 
G01 X18.7071 Y18.6660 
G00 Z2.5400 
G00 X9.7533 Y14.9987 
G01 Z-0.1778 F80.00 
G01 X8.0267 Y14.9987 F80.00 
G01 X7.8279 Y14.9592 
G01 X7.6407 Y14.8816 
G01 X7.4722 Y14.7690 
G01 X7.3290 Y14.6258 
G01 X7.2164 Y14.4573 
G01 X7.1388 Y14.2701 
G01 X7.0993 Y14.0713 
G01 X7.0993 Y13.8687 
G01 X7.1388 Y13.6699 
G01 X7.2164 Y13.4827 
G01 X7.3290 Y13.3142 
G01 X7.4722 Y13.1710 
G01 X7.6407 Y13.0584 
G01 X7.8279 Y12.9808 
G01 X8.0267 Y12.9413 
G01 X9.7533 Y12.9413 
G01 X9.9521 Y12.9808 
G01 X10.1393 Y13.0584 
G01 X10.3078 Y13.1710 
G01 X10.3621 Y13.2253 
G01 X16.9753 Y13.2253 
G01 X16.9753 Y9.3964 
G01 X16.8529 Y9.2740 
G01 X16.8529 Y8.5060 
G01 X17.3960 Y7.9629 
G01 X18.1640 Y7.9629 
G01 X18.7071 Y8.5060 
G01 X18.7071 Y9.2740 
G01 X18.5247 Y9.4564 
G01 X18.5247 Y13.4036 
G01 X18.7071 Y13.5860 
G01 X18.7071 Y14.3540 
G01 X18.1640 Y14.8971 
G01 X17.3960 Y14.8971 
G01 X17.2736 Y14.7747 
G01 X17.2176 Y14.7778 
G01 X17.1958 Y14.7747 
G01 X10.2993 Y14.7747 
G01 X10.1393 Y14.8816 
G01 X9.9521 Y14.9592 
G01 X9.7533 Y14.9987 
G00 Z2.5400 
G00 X9.7533 Y17.5387 
G01 Z-0.1778 F80.00 
G01 X8.0267 Y17.5387 F80.00 
G01 X7.8279 Y17.4992 
G01 X7.6407 Y17.4216 
G01 X7.4722 Y17.3090 
G01 X7.3290 Y17.1658 
G01 X7.2164 Y16.9973 
G01 X7.1388 Y16.8101 
G01 X7.0993 Y16.6113 
G01 X7.0993 Y16.4087 
G01 X7.1388 Y16.2099 
G01 X7.2164 Y16.0227 
G01 X7.3290 Y15.8542 
G01 X7.4722 Y15.7110 
G01 X7.6407 Y15.5984 
G01 X7.8279 Y15.5208 
G01 X8.0267 Y15.4813 
G01 X9.7533 Y15.4813 
G01 X9.9521 Y15.5208 
G01 X10.1393 Y15.5984 
G01 X10.1421 Y15.6003 
G01 X19.5541 Y15.6003 
G01 X24.5233 Y10.6312 
G01 X24.6312 Y10.5233 
G01 X24.7580 Y10.4385 
G01 X24.8990 Y10.3801 
G01 X25.0487 Y10.3503 
G01 X29.3579 Y10.3503 
G01 X29.2876 Y10.1807 
G01 X29.2481 Y9.9819 
G01 X29.2481 Y9.7793 
G01 X29.2876 Y9.5805 
G01 X29.3652 Y9.3933 
G01 X29.4778 Y9.2248 
G01 X29.6210 Y9.0816 
G01 X29.7895 Y8.9690 
G01 X29.9767 Y8.8914 
G01 X30.1755 Y8.8519 
G01 X31.9021 Y8.8519 
G01 X32.1009 Y8.8914 
G01 X32.2881 Y8.9690 
G01 X32.4566 Y9.0816 
G01 X32.5998 Y9.2248 
G01 X32.7124 Y9.3933 
G01 X32.7900 Y9.5805 
G01 X32.8295 Y9.7793 
G01 X32.8295 Y9.9819 
G01 X32.7900 Y10.1807 
G01 X32.7124 Y10.3679 
G01 X32.6628 Y10.4422 
G01 X33.6959 Y11.4753 
G01 X42.4291 Y11.4753 
G01 X42.4608 Y11.4437 
G01 X42.5687 Y11.3358 
G01 X43.4158 Y10.4886 
G01 X43.3352 Y10.3679 
G01 X43.2576 Y10.1807 
G01 X43.2181 Y9.9819 
G01 X43.2181 Y9.7793 
G01 X43.2576 Y9.5805 
G01 X43.3352 Y9.3933 
G01 X43.4478 Y9.2248 
G01 X43.5910 Y9.0816 
G01 X43.7595 Y8.9690 
G01 X43.9467 Y8.8914 
G01 X44.1455 Y8.8519 
G01 X45.8721 Y8.8519 
G01 X46.0709 Y8.8914 
G01 X46.2581 Y8.9690 
G01 X46.4266 Y9.0816 
G01 X46.5698 Y9.2248 
G01 X46.6824 Y9.3933 
G01 X46.7600 Y9.5805 
G01 X46.7995 Y9.7793 
G01 X46.7995 Y9.9819 
G01 X46.7600 Y10.1807 
G01 X46.6824 Y10.3679 
G01 X46.5698 Y10.5364 
G01 X46.4266 Y10.6796 
G01 X46.2581 Y10.7922 
G01 X46.0709 Y10.8698 
G01 X45.8721 Y10.9093 
G01 X45.1863 Y10.9093 
G01 X44.6203 Y11.4753 
G01 X55.0541 Y11.4753 
G01 X56.0858 Y10.4436 
G01 X56.0352 Y10.3679 
G01 X55.9576 Y10.1807 
G01 X55.9181 Y9.9819 
G01 X55.9181 Y9.7793 
G01 X55.9576 Y9.5805 
G01 X56.0352 Y9.3933 
G01 X56.1478 Y9.2248 
G01 X56.2910 Y9.0816 
G01 X56.4595 Y8.9690 
G01 X56.6467 Y8.8914 
G01 X56.8455 Y8.8519 
G01 X58.5721 Y8.8519 
G01 X58.7709 Y8.8914 
G01 X58.9581 Y8.9690 
G01 X59.1266 Y9.0816 
G01 X59.2698 Y9.2248 
G01 X59.3824 Y9.3933 
G01 X59.4600 Y9.5805 
G01 X59.4995 Y9.7793 
G01 X59.4995 Y9.9819 
G01 X59.4600 Y10.1807 
G01 X59.3824 Y10.3679 
G01 X59.2698 Y10.5364 
G01 X59.1266 Y10.6796 
G01 X58.9581 Y10.7922 
G01 X58.7709 Y10.8698 
G01 X58.5721 Y10.9093 
G01 X57.8113 Y10.9093 
G01 X55.9767 Y12.7438 
G01 X55.8688 Y12.8517 
G01 X55.7420 Y12.9365 
G01 X55.6010 Y12.9949 
G01 X55.4513 Y13.0247 
G01 X43.2987 Y13.0247 
G01 X43.1490 Y12.9949 
G01 X43.0625 Y12.9591 
G01 X42.9760 Y12.9949 
G01 X42.8263 Y13.0247 
G01 X33.2987 Y13.0247 
G01 X33.1490 Y12.9949 
G01 X33.0080 Y12.9365 
G01 X32.8812 Y12.8517 
G01 X32.7733 Y12.7438 
G01 X31.8852 Y11.8558 
G01 X31.8510 Y11.8699 
G01 X31.7013 Y11.8997 
G01 X25.4459 Y11.8997 
G01 X20.3688 Y16.9767 
G01 X20.2420 Y17.0615 
G01 X20.1010 Y17.1199 
G01 X19.9513 Y17.1497 
G01 X10.4618 Y17.1497 
G01 X10.4510 Y17.1658 
G01 X10.3078 Y17.3090 
G01 X10.1393 Y17.4216 
G01 X9.9521 Y17.4992 
G01 X9.7533 Y17.5387 
G00 Z2.5400 
G00 X9.7533 Y25.1587 
G01 Z-0.1778 F80.00 
G01 X8.0267 Y25.1587 F80.00 
G01 X7.8279 Y25.1192 
G01 X7.7562 Y25.0894 
G01 X4.9081 Y27.9375 
G01 X9.7617 Y32.7911 
G01 X9.8896 Y32.7381 
G01 X10.0687 Y32.7025 
G01 X10.2513 Y32.7025 
G01 X10.4304 Y32.7381 
G01 X10.5991 Y32.8080 
G01 X10.7510 Y32.9095 
G01 X10.8801 Y33.0386 
G01 X10.9816 Y33.1905 
G01 X11.0515 Y33.3592 
G01 X11.0871 Y33.5383 
G01 X11.0871 Y35.0417 
G01 X11.0515 Y35.2208 
G01 X10.9816 Y35.3895 
G01 X10.8801 Y35.5414 
G01 X10.7510 Y35.6705 
G01 X10.5991 Y35.7720 
G01 X10.4304 Y35.8419 
G01 X10.2513 Y35.8775 
G01 X10.0687 Y35.8775 
G01 X9.8896 Y35.8419 
G01 X9.7209 Y35.7720 
G01 X9.5690 Y35.6705 
G01 X9.4399 Y35.5414 
G01 X9.3384 Y35.3895 
G01 X9.2685 Y35.2208 
G01 X9.2329 Y35.0417 
G01 X9.2329 Y34.4535 
G01 X3.8125 Y29.0331 
G01 X3.4671 Y29.3785 
G01 X3.4671 Y29.5940 
G01 X2.9240 Y30.1371 
G01 X2.1560 Y30.1371 
G01 X1.6129 Y29.5940 
G01 X1.6129 Y28.8260 
G01 X2.1560 Y28.2829 
G01 X2.3715 Y28.2829 
G01 X3.2107 Y27.4437 
G01 X3.3187 Y27.3358 
G01 X6.8982 Y23.7562 
G01 X7.0062 Y23.6483 
G01 X7.1330 Y23.5635 
G01 X7.2740 Y23.5051 
G01 X7.3136 Y23.4972 
G01 X7.3290 Y23.4742 
G01 X7.4722 Y23.3310 
G01 X7.6407 Y23.2184 
G01 X7.8279 Y23.1408 
G01 X8.0267 Y23.1013 
G01 X9.7533 Y23.1013 
G01 X9.9521 Y23.1408 
G01 X10.1393 Y23.2184 
G01 X10.3078 Y23.3310 
G01 X10.4510 Y23.4742 
G01 X10.5636 Y23.6427 
G01 X10.6412 Y23.8299 
G01 X10.6807 Y24.0287 
G01 X10.6807 Y24.2313 
G01 X10.6412 Y24.4301 
G01 X10.5636 Y24.6173 
G01 X10.4510 Y24.7858 
G01 X10.3078 Y24.9290 
G01 X10.1393 Y25.0416 
G01 X9.9521 Y25.1192 
G01 X9.7533 Y25.1587 
G00 Z2.5400 
G00 X55.4733 Y35.3187 
G01 Z-0.1778 F80.00 
G01 X53.7467 Y35.3187 F80.00 
G01 X53.5479 Y35.2792 
G01 X53.3607 Y35.2016 
G01 X53.1922 Y35.0890 
G01 X53.0490 Y34.9458 
G01 X52.9364 Y34.7773 
G01 X52.8588 Y34.5901 
G01 X52.8193 Y34.3913 
G01 X52.8193 Y34.1887 
G01 X52.8588 Y33.9899 
G01 X52.9364 Y33.8027 
G01 X53.0490 Y33.6342 
G01 X53.1922 Y33.4910 
G01 X53.3607 Y33.3784 
G01 X53.5479 Y33.3008 
G01 X53.7467 Y33.2613 
G01 X55.4733 Y33.2613 
G01 X55.6721 Y33.3008 
G01 X55.8593 Y33.3784 
G01 X56.0278 Y33.4910 
G01 X56.1710 Y33.6342 
G01 X56.2836 Y33.8027 
G01 X56.3612 Y33.9899 
G01 X56.4007 Y34.1887 
G01 X56.4007 Y34.3913 
G01 X56.3612 Y34.5901 
G01 X56.2836 Y34.7773 
G01 X56.1710 Y34.9458 
G01 X56.0278 Y35.0890 
G01 X55.8593 Y35.2016 
G01 X55.6721 Y35.2792 
G01 X55.4733 Y35.3187 
G00 Z2.5400 
G00 X55.4733 Y40.3987 
G01 Z-0.1778 F80.00 
G01 X53.7467 Y40.3987 F80.00 
G01 X53.5479 Y40.3592 
G01 X53.3607 Y40.2816 
G01 X53.1922 Y40.1690 
G01 X53.0490 Y40.0258 
G01 X52.9364 Y39.8573 
G01 X52.8588 Y39.6701 
G01 X52.8193 Y39.4713 
G01 X52.8193 Y39.2687 
G01 X52.8588 Y39.0699 
G01 X52.9364 Y38.8827 
G01 X53.0490 Y38.7142 
G01 X53.1922 Y38.5710 
G01 X53.3607 Y38.4584 
G01 X53.5479 Y38.3808 
G01 X53.7467 Y38.3413 
G01 X55.4733 Y38.3413 
G01 X55.6721 Y38.3808 
G01 X55.8593 Y38.4584 
G01 X56.0278 Y38.5710 
G01 X56.1710 Y38.7142 
G01 X56.2836 Y38.8827 
G01 X56.3612 Y39.0699 
G01 X56.4007 Y39.2687 
G01 X56.4007 Y39.4713 
G01 X56.3612 Y39.6701 
G01 X56.2836 Y39.8573 
G01 X56.1710 Y40.0258 
G01 X56.0278 Y40.1690 
G01 X55.8593 Y40.2816 
G01 X55.6721 Y40.3592 
G01 X55.4733 Y40.3987 
G00 Z2.5400 
G00 X51.7271 Y28.3240 
G01 Z-0.1778 F80.00 
G01 X51.1840 Y28.8671 F80.00 
G01 X50.4160 Y28.8671 
G01 X49.8729 Y28.3240 
G01 X49.8729 Y27.5560 
G01 X50.4160 Y27.0129 
G01 X50.6415 Y27.0129 
G01 X51.0233 Y26.6312 
G01 X51.1312 Y26.5233 
G01 X51.2580 Y26.4385 
G01 X51.3990 Y26.3801 
G01 X51.5487 Y26.3503 
G01 X57.3263 Y26.3503 
G01 X57.4760 Y26.3801 
G01 X57.6170 Y26.4385 
G01 X57.7438 Y26.5233 
G01 X59.6959 Y28.4753 
G01 X69.7013 Y28.4753 
G01 X69.8510 Y28.5051 
G01 X69.9920 Y28.5635 
G01 X70.1188 Y28.6483 
G01 X72.3497 Y30.8791 
G01 X72.4107 Y30.8384 
G01 X72.5979 Y30.7608 
G01 X72.7967 Y30.7213 
G01 X74.5233 Y30.7213 
G01 X74.7221 Y30.7608 
G01 X74.9093 Y30.8384 
G01 X75.0778 Y30.9510 
G01 X75.2210 Y31.0942 
G01 X75.3336 Y31.2627 
G01 X75.4112 Y31.4499 
G01 X75.4507 Y31.6487 
G01 X75.4507 Y31.8513 
G01 X75.4112 Y32.0501 
G01 X75.3336 Y32.2373 
G01 X75.2210 Y32.4058 
G01 X75.0778 Y32.5490 
G01 X74.9093 Y32.6616 
G01 X74.7221 Y32.7392 
G01 X74.5233 Y32.7787 
G01 X72.7967 Y32.7787 
G01 X72.5979 Y32.7392 
G01 X72.4107 Y32.6616 
G01 X72.2422 Y32.5490 
G01 X72.2179 Y32.5247 
G01 X72.0487 Y32.5247 
G01 X71.8990 Y32.4949 
G01 X71.7580 Y32.4365 
G01 X71.6312 Y32.3517 
G01 X71.5233 Y32.2438 
G01 X69.3041 Y30.0247 
G01 X59.2987 Y30.0247 
G01 X59.1490 Y29.9949 
G01 X59.0080 Y29.9365 
G01 X58.8812 Y29.8517 
G01 X58.7733 Y29.7438 
G01 X56.9291 Y27.8997 
G01 X51.9459 Y27.8997 
G01 X51.7271 Y28.1185 
G01 X51.7271 Y28.3240 
G00 Z2.5400 
G00 X68.2371 Y31.3660 
G01 Z-0.1778 F80.00 
G01 X68.2371 Y31.5165 F80.00 
G01 X70.1959 Y33.4753 
G01 X72.2657 Y33.4753 
G01 X72.4107 Y33.3784 
G01 X72.5979 Y33.3008 
G01 X72.7967 Y33.2613 
G01 X74.5233 Y33.2613 
G01 X74.7221 Y33.3008 
G01 X74.9093 Y33.3784 
G01 X75.0778 Y33.4910 
G01 X75.2210 Y33.6342 
G01 X75.3336 Y33.8027 
G01 X75.4112 Y33.9899 
G01 X75.4507 Y34.1887 
G01 X75.4507 Y34.3913 
G01 X75.4112 Y34.5901 
G01 X75.3336 Y34.7773 
G01 X75.2210 Y34.9458 
G01 X75.0778 Y35.0890 
G01 X74.9093 Y35.2016 
G01 X74.7221 Y35.2792 
G01 X74.5233 Y35.3187 
G01 X72.7967 Y35.3187 
G01 X72.5979 Y35.2792 
G01 X72.4107 Y35.2016 
G01 X72.2422 Y35.0890 
G01 X72.1779 Y35.0247 
G01 X69.7987 Y35.0247 
G01 X69.6490 Y34.9949 
G01 X69.5080 Y34.9365 
G01 X69.3812 Y34.8517 
G01 X69.2733 Y34.7438 
G01 X67.2065 Y32.6771 
G01 X66.9260 Y32.6771 
G01 X66.3829 Y32.1340 
G01 X66.3829 Y31.3660 
G01 X66.9260 Y30.8229 
G01 X67.6940 Y30.8229 
G01 X68.2371 Y31.3660 
G00 Z2.5400 
G00 X60.6171 Y31.3660 
G01 Z-0.1778 F80.00 
G01 X60.6171 Y32.1340 F80.00 
G01 X60.0740 Y32.6771 
G01 X59.3060 Y32.6771 
G01 X58.7786 Y32.1497 
G01 X58.5487 Y32.1497 
G01 X58.3990 Y32.1199 
G01 X58.2580 Y32.0615 
G01 X58.1312 Y31.9767 
G01 X56.1791 Y30.0247 
G01 X53.1737 Y30.0247 
G01 X53.0240 Y29.9949 
G01 X52.8830 Y29.9365 
G01 X52.7562 Y29.8517 
G01 X52.6483 Y29.7438 
G01 X52.5635 Y29.6170 
G01 X52.5051 Y29.4760 
G01 X52.4753 Y29.3263 
G01 X52.4753 Y29.1737 
G01 X52.5051 Y29.0240 
G01 X52.5635 Y28.8830 
G01 X52.6483 Y28.7562 
G01 X52.7562 Y28.6483 
G01 X52.8830 Y28.5635 
G01 X53.0240 Y28.5051 
G01 X53.1737 Y28.4753 
G01 X56.5763 Y28.4753 
G01 X56.7260 Y28.5051 
G01 X56.8670 Y28.5635 
G01 X56.9938 Y28.6483 
G01 X57.1017 Y28.7562 
G01 X58.9459 Y30.6003 
G01 X59.3263 Y30.6003 
G01 X59.4760 Y30.6301 
G01 X59.6170 Y30.6885 
G01 X59.7438 Y30.7733 
G01 X59.7935 Y30.8229 
G01 X60.0740 Y30.8229 
G01 X60.6171 Y31.3660 
G00 Z2.5400 
G00 X67.6940 Y37.7571 
G01 Z-0.1778 F80.00 
G01 X66.9260 Y37.7571 F80.00 
G01 X66.3829 Y37.2140 
G01 X66.3829 Y36.4460 
G01 X66.9260 Y35.9029 
G01 X67.6940 Y35.9029 
G01 X67.8914 Y36.1003 
G01 X72.1729 Y36.1003 
G01 X72.2422 Y36.0310 
G01 X72.4107 Y35.9184 
G01 X72.5979 Y35.8408 
G01 X72.7967 Y35.8013 
G01 X74.5233 Y35.8013 
G01 X74.7221 Y35.8408 
G01 X74.9093 Y35.9184 
G01 X75.0778 Y36.0310 
G01 X75.2210 Y36.1742 
G01 X75.3336 Y36.3427 
G01 X75.4112 Y36.5299 
G01 X75.4507 Y36.7287 
G01 X75.4507 Y36.9313 
G01 X75.4112 Y37.1301 
G01 X75.3336 Y37.3173 
G01 X75.2210 Y37.4858 
G01 X75.0778 Y37.6290 
G01 X74.9093 Y37.7416 
G01 X74.7221 Y37.8192 
G01 X74.5233 Y37.8587 
G01 X72.7967 Y37.8587 
G01 X72.5979 Y37.8192 
G01 X72.4107 Y37.7416 
G01 X72.2732 Y37.6497 
G01 X67.8014 Y37.6497 
G01 X67.6940 Y37.7571 
G00 Z2.5400 
G00 X60.6171 Y51.6860 
G01 Z-0.1778 F80.00 
G01 X60.6171 Y52.4540 F80.00 
G01 X60.0740 Y52.9971 
G01 X59.3060 Y52.9971 
G01 X58.7629 Y52.4540 
G01 X58.7629 Y51.6860 
G01 X59.3060 Y51.1429 
G01 X60.0740 Y51.1429 
G01 X60.6171 Y51.6860 
G00 Z2.5400 
G00 X68.2371 Y52.4540 
G01 Z-0.1778 F80.00 
G01 X67.6940 Y52.9971 F80.00 
G01 X66.9260 Y52.9971 
G01 X66.3829 Y52.4540 
G01 X66.3829 Y51.6860 
G01 X66.9260 Y51.1429 
G01 X67.1365 Y51.1429 
G01 X74.6483 Y43.6312 
G01 X74.7562 Y43.5233 
G01 X74.8830 Y43.4385 
G01 X75.0240 Y43.3801 
G01 X75.1737 Y43.3503 
G01 X75.1791 Y43.3503 
G01 X75.9753 Y42.5541 
G01 X75.9753 Y27.5247 
G01 X74.9945 Y27.5247 
G01 X74.9093 Y27.5816 
G01 X74.7221 Y27.6592 
G01 X74.5233 Y27.6987 
G01 X72.7967 Y27.6987 
G01 X72.5979 Y27.6592 
G01 X72.4107 Y27.5816 
G01 X72.2422 Y27.4690 
G01 X72.0990 Y27.3258 
G01 X71.9864 Y27.1573 
G01 X71.9088 Y26.9701 
G01 X71.8693 Y26.7713 
G01 X71.8693 Y26.5687 
G01 X71.9088 Y26.3699 
G01 X71.9864 Y26.1827 
G01 X72.0990 Y26.0142 
G01 X72.2422 Y25.8710 
G01 X72.4107 Y25.7584 
G01 X72.5979 Y25.6808 
G01 X72.7967 Y25.6413 
G01 X74.5233 Y25.6413 
G01 X74.7221 Y25.6808 
G01 X74.9093 Y25.7584 
G01 X75.0778 Y25.8710 
G01 X75.1821 Y25.9753 
G01 X76.8263 Y25.9753 
G01 X76.9760 Y26.0051 
G01 X77.1170 Y26.0635 
G01 X77.2438 Y26.1483 
G01 X77.3517 Y26.2562 
G01 X77.4365 Y26.3830 
G01 X77.4949 Y26.5240 
G01 X77.5247 Y26.6737 
G01 X77.5247 Y42.9513 
G01 X77.4949 Y43.1010 
G01 X77.4365 Y43.2420 
G01 X77.3517 Y43.3688 
G01 X77.2438 Y43.4767 
G01 X75.9938 Y44.7267 
G01 X75.8670 Y44.8115 
G01 X75.7260 Y44.8699 
G01 X75.5763 Y44.8997 
G01 X75.5709 Y44.8997 
G01 X68.2371 Y52.2335 
G01 X68.2371 Y52.4540 
G00 Z2.5400 
G00 X39.0271 Y49.1460 
G01 Z-0.1778 F80.00 
G01 X39.0271 Y49.9140 F80.00 
G01 X38.4840 Y50.4571 
G01 X37.7160 Y50.4571 
G01 X37.1729 Y49.9140 
G01 X37.1729 Y49.1460 
G01 X37.7160 Y48.6029 
G01 X38.4840 Y48.6029 
G01 X39.0271 Y49.1460 
G00 Z2.5400 
G00 X72.7967 Y40.8813 
G01 Z-0.1778 F80.00 
G01 X74.5233 Y40.8813 F80.00 
G01 X74.7221 Y40.9208 
G01 X74.9093 Y40.9984 
G01 X75.0778 Y41.1110 
G01 X75.2210 Y41.2542 
G01 X75.3336 Y41.4227 
G01 X75.4112 Y41.6099 
G01 X75.4507 Y41.8087 
G01 X75.4507 Y42.0113 
G01 X75.4112 Y42.2101 
G01 X75.3336 Y42.3973 
G01 X75.2210 Y42.5658 
G01 X75.0778 Y42.7090 
G01 X74.9093 Y42.8216 
G01 X74.7221 Y42.8992 
G01 X74.5233 Y42.9387 
G01 X72.7967 Y42.9387 
G01 X72.5979 Y42.8992 
G01 X72.4908 Y42.8548 
G01 X68.2371 Y47.1085 
G01 X68.2371 Y47.3740 
G01 X67.6940 Y47.9171 
G01 X66.9260 Y47.9171 
G01 X66.3829 Y47.3740 
G01 X66.3829 Y46.6060 
G01 X66.9260 Y46.0629 
G01 X67.0915 Y46.0629 
G01 X71.6483 Y41.5062 
G01 X71.7562 Y41.3983 
G01 X71.8830 Y41.3135 
G01 X72.0240 Y41.2551 
G01 X72.1165 Y41.2367 
G01 X72.2422 Y41.1110 
G01 X72.4107 Y40.9984 
G01 X72.5979 Y40.9208 
G01 X72.7967 Y40.8813 
G00 Z2.5400 
G00 X72.7967 Y38.3413 
G01 Z-0.1778 F80.00 
G01 X74.5233 Y38.3413 F80.00 
G01 X74.7221 Y38.3808 
G01 X74.9093 Y38.4584 
G01 X75.0778 Y38.5710 
G01 X75.2210 Y38.7142 
G01 X75.3336 Y38.8827 
G01 X75.4112 Y39.0699 
G01 X75.4507 Y39.2687 
G01 X75.4507 Y39.4713 
G01 X75.4112 Y39.6701 
G01 X75.3336 Y39.8573 
G01 X75.2210 Y40.0258 
G01 X75.0778 Y40.1690 
G01 X74.9093 Y40.2816 
G01 X74.7221 Y40.3592 
G01 X74.5233 Y40.3987 
G01 X72.7967 Y40.3987 
G01 X72.5979 Y40.3592 
G01 X72.4107 Y40.2816 
G01 X72.2422 Y40.1690 
G01 X72.2229 Y40.1497 
G01 X70.1959 Y40.1497 
G01 X68.2371 Y42.1085 
G01 X68.2371 Y42.2940 
G01 X67.6940 Y42.8371 
G01 X66.9260 Y42.8371 
G01 X66.3829 Y42.2940 
G01 X66.3829 Y41.5260 
G01 X66.9260 Y40.9829 
G01 X67.1715 Y40.9829 
G01 X69.2733 Y38.8812 
G01 X69.3812 Y38.7733 
G01 X69.5080 Y38.6885 
G01 X69.6490 Y38.6301 
G01 X69.7987 Y38.6003 
G01 X72.2129 Y38.6003 
G01 X72.2422 Y38.5710 
G01 X72.4107 Y38.4584 
G01 X72.5979 Y38.3808 
G01 X72.7967 Y38.3413 
G00 Z2.5400 
G00 X72.7967 Y28.1813 
G01 Z-0.1778 F80.00 
G01 X74.5233 Y28.1813 F80.00 
G01 X74.7221 Y28.2208 
G01 X74.9093 Y28.2984 
G01 X75.0778 Y28.4110 
G01 X75.2210 Y28.5542 
G01 X75.3336 Y28.7227 
G01 X75.4112 Y28.9099 
G01 X75.4507 Y29.1087 
G01 X75.4507 Y29.3113 
G01 X75.4112 Y29.5101 
G01 X75.3336 Y29.6973 
G01 X75.2210 Y29.8658 
G01 X75.0778 Y30.0090 
G01 X74.9093 Y30.1216 
G01 X74.7221 Y30.1992 
G01 X74.5233 Y30.2387 
G01 X72.7967 Y30.2387 
G01 X72.5979 Y30.1992 
G01 X72.4107 Y30.1216 
G01 X72.2422 Y30.0090 
G01 X72.0990 Y29.8658 
G01 X71.9864 Y29.6973 
G01 X71.9088 Y29.5101 
G01 X71.8693 Y29.3113 
G01 X71.8693 Y29.1087 
G01 X71.9088 Y28.9099 
G01 X71.9864 Y28.7227 
G01 X72.0990 Y28.5542 
G01 X72.2422 Y28.4110 
G01 X72.4107 Y28.2984 
G01 X72.5979 Y28.2208 
G01 X72.7967 Y28.1813 
G00 Z2.5400 
G00 X18.8087 Y55.4539 
G01 Z-0.1778 F80.00 
G01 X18.8087 Y56.3061 F80.00 
G01 X18.2061 Y56.9087 
G01 X17.3539 Y56.9087 
G01 X16.7513 Y56.3061 
G01 X16.7513 Y55.4539 
G01 X17.3539 Y54.8513 
G01 X18.2061 Y54.8513 
G01 X18.8087 Y55.4539 
G00 Z2.5400 
G00 X18.8087 Y52.9139 
G01 Z-0.1778 F80.00 
G01 X18.8087 Y53.7661 F80.00 
G01 X18.2061 Y54.3687 
G01 X17.3539 Y54.3687 
G01 X16.7513 Y53.7661 
G01 X16.7513 Y52.9139 
G01 X17.3539 Y52.3113 
G01 X18.2061 Y52.3113 
G01 X18.8087 Y52.9139 
G00 Z2.5400 
G00 X18.8087 Y50.3739 
G01 Z-0.1778 F80.00 
G01 X18.8087 Y51.2261 F80.00 
G01 X18.2061 Y51.8287 
G01 X17.3539 Y51.8287 
G01 X17.1749 Y51.6497 
G01 X15.8451 Y51.6497 
G01 X15.6661 Y51.8287 
G01 X14.8139 Y51.8287 
G01 X14.3849 Y51.3997 
G01 X4.7987 Y51.3997 
G01 X4.6490 Y51.3699 
G01 X4.5080 Y51.3115 
G01 X4.3812 Y51.2267 
G01 X3.7512 Y50.5968 
G01 X3.3681 Y50.5968 
G01 X2.7432 Y49.9719 
G01 X2.7432 Y49.0881 
G01 X3.3681 Y48.4632 
G01 X4.2519 Y48.4632 
G01 X4.8768 Y49.0881 
G01 X4.8768 Y49.5312 
G01 X5.1959 Y49.8503 
G01 X14.7307 Y49.8503 
G01 X14.7351 Y49.8501 
G01 X14.8139 Y49.7713 
G01 X15.6661 Y49.7713 
G01 X15.9951 Y50.1003 
G01 X17.0249 Y50.1003 
G01 X17.3539 Y49.7713 
G01 X18.2061 Y49.7713 
G01 X18.8087 Y50.3739 
G00 Z2.5400 
G00 X18.8087 Y48.6861 
G01 Z-0.1778 F80.00 
G01 X18.2061 Y49.2887 F80.00 
G01 X17.3539 Y49.2887 
G01 X17.0899 Y49.0247 
G01 X15.9301 Y49.0247 
G01 X15.6661 Y49.2887 
G01 X14.8139 Y49.2887 
G01 X14.4249 Y48.8997 
G01 X7.4237 Y48.8997 
G01 X7.2740 Y48.8699 
G01 X7.1330 Y48.8115 
G01 X7.0062 Y48.7267 
G01 X6.8982 Y48.6188 
G01 X3.7962 Y45.5168 
G01 X3.3681 Y45.5168 
G01 X2.7432 Y44.8919 
G01 X2.7432 Y44.0081 
G01 X3.3681 Y43.3832 
G01 X4.2519 Y43.3832 
G01 X4.8768 Y44.0081 
G01 X4.8768 Y44.4062 
G01 X7.8209 Y47.3503 
G01 X14.6949 Y47.3503 
G01 X14.8139 Y47.2313 
G01 X15.6661 Y47.2313 
G01 X15.9101 Y47.4753 
G01 X17.1099 Y47.4753 
G01 X17.3539 Y47.2313 
G01 X18.0481 Y47.2313 
G01 X20.8983 Y44.3812 
G01 X21.0062 Y44.2733 
G01 X21.1330 Y44.1885 
G01 X21.2740 Y44.1301 
G01 X21.4237 Y44.1003 
G01 X24.7253 Y44.1003 
G01 X24.7253 Y43.2068 
G01 X24.6799 Y43.1614 
G01 X24.5784 Y43.0095 
G01 X24.5085 Y42.8408 
G01 X24.4729 Y42.6617 
G01 X24.4729 Y41.1583 
G01 X24.5085 Y40.9792 
G01 X24.5784 Y40.8105 
G01 X24.6799 Y40.6586 
G01 X24.8090 Y40.5295 
G01 X24.9609 Y40.4280 
G01 X25.1296 Y40.3581 
G01 X25.3087 Y40.3225 
G01 X25.4913 Y40.3225 
G01 X25.6704 Y40.3581 
G01 X25.8391 Y40.4280 
G01 X25.9910 Y40.5295 
G01 X26.1201 Y40.6586 
G01 X26.2216 Y40.8105 
G01 X26.2915 Y40.9792 
G01 X26.3271 Y41.1583 
G01 X26.3271 Y42.6617 
G01 X26.2915 Y42.8408 
G01 X26.2747 Y42.8813 
G01 X26.2747 Y44.3041 
G01 X28.4898 Y46.5192 
G01 X28.5240 Y46.5051 
G01 X28.6737 Y46.4753 
G01 X41.4513 Y46.4753 
G01 X41.6010 Y46.5051 
G01 X41.7420 Y46.5635 
G01 X41.8688 Y46.6483 
G01 X41.9767 Y46.7562 
G01 X43.1017 Y47.8812 
G01 X43.1865 Y48.0080 
G01 X43.2449 Y48.1490 
G01 X43.2747 Y48.2987 
G01 X43.2747 Y48.4513 
G01 X43.2449 Y48.6010 
G01 X43.1865 Y48.7420 
G01 X43.1017 Y48.8688 
G01 X42.9938 Y48.9767 
G01 X42.8670 Y49.0615 
G01 X42.7260 Y49.1199 
G01 X42.5763 Y49.1497 
G01 X42.4237 Y49.1497 
G01 X42.2740 Y49.1199 
G01 X42.1330 Y49.0615 
G01 X42.0062 Y48.9767 
G01 X41.0541 Y48.0247 
G01 X29.9953 Y48.0247 
G01 X30.5735 Y48.6029 
G01 X30.8640 Y48.6029 
G01 X31.4071 Y49.1460 
G01 X31.4071 Y49.9140 
G01 X30.8640 Y50.4571 
G01 X30.0960 Y50.4571 
G01 X29.5529 Y49.9140 
G01 X29.5529 Y49.7735 
G01 X27.9437 Y48.1642 
G01 X27.8358 Y48.0563 
G01 X25.3852 Y45.6058 
G01 X25.3510 Y45.6199 
G01 X25.2756 Y45.6349 
G01 X25.2013 Y45.6497 
G01 X25.1256 Y45.6497 
G01 X21.8209 Y45.6497 
G01 X18.8206 Y48.6500 
G01 X18.8087 Y48.6641 
G01 X18.8087 Y48.6861 
G00 Z2.5400 
G00 X16.2687 Y55.4539 
G01 Z-0.1778 F80.00 
G01 X16.2687 Y56.3061 F80.00 
G01 X15.6661 Y56.9087 
G01 X14.8139 Y56.9087 
G01 X14.2113 Y56.3061 
G01 X14.2113 Y55.4539 
G01 X14.8139 Y54.8513 
G01 X15.6661 Y54.8513 
G01 X16.2687 Y55.4539 
G00 Z2.5400 
G00 X16.2687 Y52.9139 
G01 Z-0.1778 F80.00 
G01 X16.2687 Y53.7661 F80.00 
G01 X15.6661 Y54.3687 
G01 X14.8139 Y54.3687 
G01 X14.2113 Y53.7661 
G01 X14.2113 Y52.9139 
G01 X14.8139 Y52.3113 
G01 X15.6661 Y52.3113 
G01 X16.2687 Y52.9139 
G00 Z2.5400 
G00 X44.2468 Y18.6081 
G01 Z-0.1778 F80.00 
G01 X44.2468 Y19.4919 F80.00 
G01 X43.6219 Y20.1168 
G01 X42.7381 Y20.1168 
G01 X42.1132 Y19.4919 
G01 X42.1132 Y18.6081 
G01 X42.7381 Y17.9832 
G01 X43.6219 Y17.9832 
G01 X44.2468 Y18.6081 
G00 Z2.5400 
G00 X41.7068 Y18.6081 
G01 Z-0.1778 F80.00 
G01 X41.7068 Y19.4919 F80.00 
G01 X41.0819 Y20.1168 
G01 X40.1981 Y20.1168 
G01 X39.5732 Y19.4919 
G01 X39.5732 Y18.6081 
G01 X40.1981 Y17.9832 
G01 X41.0819 Y17.9832 
G01 X41.7068 Y18.6081 
G00 Z2.5400 
G00 X33.4619 Y21.3868 
G01 Z-0.1778 F80.00 
G01 X32.5781 Y21.3868 F80.00 
G01 X31.9532 Y20.7619 
G01 X31.9532 Y19.8781 
G01 X32.5781 Y19.2532 
G01 X33.4619 Y19.2532 
G01 X33.8090 Y19.6003 
G01 X33.9513 Y19.6003 
G01 X34.1010 Y19.6301 
G01 X34.2420 Y19.6885 
G01 X34.3688 Y19.7733 
G01 X34.4767 Y19.8812 
G01 X35.1959 Y20.6003 
G01 X50.4601 Y20.6003 
G01 X50.5296 Y20.5715 
G01 X50.7087 Y20.5359 
G01 X50.8913 Y20.5359 
G01 X51.0704 Y20.5715 
G01 X51.2391 Y20.6414 
G01 X51.3910 Y20.7429 
G01 X51.5201 Y20.8720 
G01 X51.6216 Y21.0239 
G01 X51.6915 Y21.1926 
G01 X51.7271 Y21.3717 
G01 X51.7271 Y21.5543 
G01 X51.6915 Y21.7334 
G01 X51.6216 Y21.9021 
G01 X51.5201 Y22.0540 
G01 X51.3910 Y22.1831 
G01 X51.2391 Y22.2846 
G01 X51.0704 Y22.3545 
G01 X50.8913 Y22.3901 
G01 X50.7087 Y22.3901 
G01 X50.5296 Y22.3545 
G01 X50.3609 Y22.2846 
G01 X50.2090 Y22.1831 
G01 X50.1756 Y22.1497 
G01 X34.7987 Y22.1497 
G01 X34.6490 Y22.1199 
G01 X34.5080 Y22.0615 
G01 X34.3812 Y21.9767 
G01 X33.6265 Y21.2221 
G01 X33.4619 Y21.3868 
G00 Z2.5400 
G00 X51.7271 Y16.5457 
G01 Z-0.1778 F80.00 
G01 X51.7271 Y16.7283 F80.00 
G01 X51.6915 Y16.9074 
G01 X51.6216 Y17.0761 
G01 X51.5201 Y17.2280 
G01 X51.3910 Y17.3571 
G01 X51.2391 Y17.4586 
G01 X51.0704 Y17.5285 
G01 X50.8913 Y17.5641 
G01 X50.7087 Y17.5641 
G01 X50.5296 Y17.5285 
G01 X50.3609 Y17.4586 
G01 X50.2090 Y17.3571 
G01 X50.0799 Y17.2280 
G01 X49.9784 Y17.0761 
G01 X49.9085 Y16.9074 
G01 X49.8729 Y16.7283 
G01 X49.8729 Y16.5457 
G01 X49.9085 Y16.3666 
G01 X49.9784 Y16.1979 
G01 X50.0799 Y16.0460 
G01 X50.2090 Y15.9169 
G01 X50.3609 Y15.8154 
G01 X50.5296 Y15.7455 
G01 X50.7087 Y15.7099 
G01 X50.8913 Y15.7099 
G01 X51.0704 Y15.7455 
G01 X51.2391 Y15.8154 
G01 X51.3910 Y15.9169 
G01 X51.5201 Y16.0460 
G01 X51.6216 Y16.1979 
G01 X51.6915 Y16.3666 
G01 X51.7271 Y16.5457 
G00 Z2.5400 
G00 X11.0871 Y28.8260 
G01 Z-0.1778 F80.00 
G01 X11.0871 Y29.5940 F80.00 
G01 X10.5440 Y30.1371 
G01 X9.7760 Y30.1371 
G01 X9.2329 Y29.5940 
G01 X9.2329 Y28.8260 
G01 X9.7760 Y28.2829 
G01 X10.5440 Y28.2829 
G01 X11.0871 Y28.8260 
G00 Z2.5400 
G00 X9.2329 Y42.6617 
G01 Z-0.1778 F80.00 
G01 X9.2329 Y41.1583 F80.00 
G01 X9.2685 Y40.9792 
G01 X9.3384 Y40.8105 
G01 X9.4399 Y40.6586 
G01 X9.5690 Y40.5295 
G01 X9.7209 Y40.4280 
G01 X9.8896 Y40.3581 
G01 X10.0687 Y40.3225 
G01 X10.2513 Y40.3225 
G01 X10.4304 Y40.3581 
G01 X10.5991 Y40.4280 
G01 X10.7510 Y40.5295 
G01 X10.8801 Y40.6586 
G01 X10.9816 Y40.8105 
G01 X11.0515 Y40.9792 
G01 X11.0871 Y41.1583 
G01 X11.0871 Y42.6617 
G01 X11.0515 Y42.8408 
G01 X10.9816 Y43.0095 
G01 X10.8801 Y43.1614 
G01 X10.7510 Y43.2905 
G01 X10.5991 Y43.3920 
G01 X10.4304 Y43.4619 
G01 X10.2513 Y43.4975 
G01 X10.0687 Y43.4975 
G01 X9.8896 Y43.4619 
G01 X9.7209 Y43.3920 
G01 X9.5690 Y43.2905 
G01 X9.4399 Y43.1614 
G01 X9.3384 Y43.0095 
G01 X9.2685 Y42.8408 
G01 X9.2329 Y42.6617 
G00 Z2.5400 
G00 X11.7729 Y42.6617 
G01 Z-0.1778 F80.00 
G01 X11.7729 Y41.1583 F80.00 
G01 X11.8085 Y40.9792 
G01 X11.8784 Y40.8105 
G01 X11.9799 Y40.6586 
G01 X12.1090 Y40.5295 
G01 X12.2609 Y40.4280 
G01 X12.4296 Y40.3581 
G01 X12.6087 Y40.3225 
G01 X12.7913 Y40.3225 
G01 X12.9704 Y40.3581 
G01 X13.1391 Y40.4280 
G01 X13.2910 Y40.5295 
G01 X13.4201 Y40.6586 
G01 X13.5216 Y40.8105 
G01 X13.5915 Y40.9792 
G01 X13.6271 Y41.1583 
G01 X13.6271 Y42.6617 
G01 X13.5915 Y42.8408 
G01 X13.5216 Y43.0095 
G01 X13.4201 Y43.1614 
G01 X13.2910 Y43.2905 
G01 X13.1391 Y43.3920 
G01 X12.9704 Y43.4619 
G01 X12.7913 Y43.4975 
G01 X12.6087 Y43.4975 
G01 X12.4296 Y43.4619 
G01 X12.2609 Y43.3920 
G01 X12.1090 Y43.2905 
G01 X11.9799 Y43.1614 
G01 X11.8784 Y43.0095 
G01 X11.8085 Y42.8408 
G01 X11.7729 Y42.6617 
G00 Z2.5400 
G00 X14.3129 Y42.6617 
G01 Z-0.1778 F80.00 
G01 X14.3129 Y41.1583 F80.00 
G01 X14.3485 Y40.9792 
G01 X14.4184 Y40.8105 
G01 X14.5199 Y40.6586 
G01 X14.6490 Y40.5295 
G01 X14.8009 Y40.4280 
G01 X14.9696 Y40.3581 
G01 X15.1487 Y40.3225 
G01 X15.3313 Y40.3225 
G01 X15.5104 Y40.3581 
G01 X15.6791 Y40.4280 
G01 X15.8310 Y40.5295 
G01 X15.9601 Y40.6586 
G01 X16.0616 Y40.8105 
G01 X16.1315 Y40.9792 
G01 X16.1671 Y41.1583 
G01 X16.1671 Y42.6617 
G01 X16.1315 Y42.8408 
G01 X16.0616 Y43.0095 
G01 X15.9601 Y43.1614 
G01 X15.8310 Y43.2905 
G01 X15.6791 Y43.3920 
G01 X15.5104 Y43.4619 
G01 X15.3313 Y43.4975 
G01 X15.1487 Y43.4975 
G01 X14.9696 Y43.4619 
G01 X14.8009 Y43.3920 
G01 X14.6490 Y43.2905 
G01 X14.5199 Y43.1614 
G01 X14.4184 Y43.0095 
G01 X14.3485 Y42.8408 
G01 X14.3129 Y42.6617 
G00 Z2.5400 
G00 X16.8529 Y42.6617 
G01 Z-0.1778 F80.00 
G01 X16.8529 Y41.1583 F80.00 
G01 X16.8885 Y40.9792 
G01 X16.9584 Y40.8105 
G01 X17.0599 Y40.6586 
G01 X17.1890 Y40.5295 
G01 X17.3409 Y40.4280 
G01 X17.5096 Y40.3581 
G01 X17.6887 Y40.3225 
G01 X17.8713 Y40.3225 
G01 X18.0504 Y40.3581 
G01 X18.2191 Y40.4280 
G01 X18.3710 Y40.5295 
G01 X18.5001 Y40.6586 
G01 X18.6016 Y40.8105 
G01 X18.6715 Y40.9792 
G01 X18.7071 Y41.1583 
G01 X18.7071 Y42.6617 
G01 X18.6715 Y42.8408 
G01 X18.6016 Y43.0095 
G01 X18.5001 Y43.1614 
G01 X18.3710 Y43.2905 
G01 X18.2191 Y43.3920 
G01 X18.0504 Y43.4619 
G01 X17.8713 Y43.4975 
G01 X17.6887 Y43.4975 
G01 X17.5096 Y43.4619 
G01 X17.3409 Y43.3920 
G01 X17.1890 Y43.2905 
G01 X17.0599 Y43.1614 
G01 X16.9584 Y43.0095 
G01 X16.8885 Y42.8408 
G01 X16.8529 Y42.6617 
G00 Z2.5400 
G00 X19.3929 Y42.6617 
G01 Z-0.1778 F80.00 
G01 X19.3929 Y41.1583 F80.00 
G01 X19.4285 Y40.9792 
G01 X19.4984 Y40.8105 
G01 X19.5999 Y40.6586 
G01 X19.7290 Y40.5295 
G01 X19.8809 Y40.4280 
G01 X20.0496 Y40.3581 
G01 X20.2287 Y40.3225 
G01 X20.4113 Y40.3225 
G01 X20.5904 Y40.3581 
G01 X20.7591 Y40.4280 
G01 X20.9110 Y40.5295 
G01 X21.0401 Y40.6586 
G01 X21.1416 Y40.8105 
G01 X21.2115 Y40.9792 
G01 X21.2471 Y41.1583 
G01 X21.2471 Y42.6617 
G01 X21.2115 Y42.8408 
G01 X21.1416 Y43.0095 
G01 X21.0401 Y43.1614 
G01 X20.9110 Y43.2905 
G01 X20.7591 Y43.3920 
G01 X20.5904 Y43.4619 
G01 X20.4113 Y43.4975 
G01 X20.2287 Y43.4975 
G01 X20.0496 Y43.4619 
G01 X19.8809 Y43.3920 
G01 X19.7290 Y43.2905 
G01 X19.5999 Y43.1614 
G01 X19.4984 Y43.0095 
G01 X19.4285 Y42.8408 
G01 X19.3929 Y42.6617 
G00 Z2.5400 
G00 X21.9329 Y42.6617 
G01 Z-0.1778 F80.00 
G01 X21.9329 Y41.1583 F80.00 
G01 X21.9685 Y40.9792 
G01 X22.0384 Y40.8105 
G01 X22.1399 Y40.6586 
G01 X22.2690 Y40.5295 
G01 X22.4209 Y40.4280 
G01 X22.5896 Y40.3581 
G01 X22.7687 Y40.3225 
G01 X22.9513 Y40.3225 
G01 X23.1304 Y40.3581 
G01 X23.2991 Y40.4280 
G01 X23.4510 Y40.5295 
G01 X23.5801 Y40.6586 
G01 X23.6816 Y40.8105 
G01 X23.7515 Y40.9792 
G01 X23.7871 Y41.1583 
G01 X23.7871 Y42.6617 
G01 X23.7515 Y42.8408 
G01 X23.6816 Y43.0095 
G01 X23.5801 Y43.1614 
G01 X23.4510 Y43.2905 
G01 X23.2991 Y43.3920 
G01 X23.1304 Y43.4619 
G01 X22.9513 Y43.4975 
G01 X22.7687 Y43.4975 
G01 X22.5896 Y43.4619 
G01 X22.4209 Y43.3920 
G01 X22.2690 Y43.2905 
G01 X22.1399 Y43.1614 
G01 X22.0384 Y43.0095 
G01 X21.9685 Y42.8408 
G01 X21.9329 Y42.6617 
G00 Z2.5400 
G00 X27.0129 Y42.6617 
G01 Z-0.1778 F80.00 
G01 X27.0129 Y41.1583 F80.00 
G01 X27.0485 Y40.9792 
G01 X27.1184 Y40.8105 
G01 X27.2199 Y40.6586 
G01 X27.3490 Y40.5295 
G01 X27.5009 Y40.4280 
G01 X27.6696 Y40.3581 
G01 X27.8487 Y40.3225 
G01 X28.0313 Y40.3225 
G01 X28.2104 Y40.3581 
G01 X28.3791 Y40.4280 
G01 X28.5310 Y40.5295 
G01 X28.6601 Y40.6586 
G01 X28.7616 Y40.8105 
G01 X28.8315 Y40.9792 
G01 X28.8671 Y41.1583 
G01 X28.8671 Y42.6617 
G01 X28.8315 Y42.8408 
G01 X28.7616 Y43.0095 
G01 X28.6601 Y43.1614 
G01 X28.5310 Y43.2905 
G01 X28.3791 Y43.3920 
G01 X28.2104 Y43.4619 
G01 X28.0313 Y43.4975 
G01 X27.8487 Y43.4975 
G01 X27.6696 Y43.4619 
G01 X27.5009 Y43.3920 
G01 X27.3490 Y43.2905 
G01 X27.2199 Y43.1614 
G01 X27.1184 Y43.0095 
G01 X27.0485 Y42.8408 
G01 X27.0129 Y42.6617 
G00 Z2.5400 
G00 X32.0929 Y42.6617 
G01 Z-0.1778 F80.00 
G01 X32.0929 Y41.1583 F80.00 
G01 X32.1285 Y40.9792 
G01 X32.1984 Y40.8105 
G01 X32.2999 Y40.6586 
G01 X32.4290 Y40.5295 
G01 X32.5809 Y40.4280 
G01 X32.7496 Y40.3581 
G01 X32.9287 Y40.3225 
G01 X33.1113 Y40.3225 
G01 X33.2904 Y40.3581 
G01 X33.4591 Y40.4280 
G01 X33.6110 Y40.5295 
G01 X33.7401 Y40.6586 
G01 X33.8416 Y40.8105 
G01 X33.9115 Y40.9792 
G01 X33.9471 Y41.1583 
G01 X33.9471 Y42.6617 
G01 X33.9115 Y42.8408 
G01 X33.8416 Y43.0095 
G01 X33.7401 Y43.1614 
G01 X33.6110 Y43.2905 
G01 X33.4591 Y43.3920 
G01 X33.2904 Y43.4619 
G01 X33.1113 Y43.4975 
G01 X32.9287 Y43.4975 
G01 X32.7496 Y43.4619 
G01 X32.5809 Y43.3920 
G01 X32.4290 Y43.2905 
G01 X32.2999 Y43.1614 
G01 X32.1984 Y43.0095 
G01 X32.1285 Y42.8408 
G01 X32.0929 Y42.6617 
G00 Z2.5400 
G00 X34.6329 Y42.6617 
G01 Z-0.1778 F80.00 
G01 X34.6329 Y41.1583 F80.00 
G01 X34.6685 Y40.9792 
G01 X34.7384 Y40.8105 
G01 X34.8399 Y40.6586 
G01 X34.9690 Y40.5295 
G01 X35.1209 Y40.4280 
G01 X35.2896 Y40.3581 
G01 X35.4687 Y40.3225 
G01 X35.6513 Y40.3225 
G01 X35.8304 Y40.3581 
G01 X35.9991 Y40.4280 
G01 X36.1510 Y40.5295 
G01 X36.2801 Y40.6586 
G01 X36.3816 Y40.8105 
G01 X36.4515 Y40.9792 
G01 X36.4871 Y41.1583 
G01 X36.4871 Y42.6617 
G01 X36.4515 Y42.8408 
G01 X36.3816 Y43.0095 
G01 X36.2801 Y43.1614 
G01 X36.1510 Y43.2905 
G01 X35.9991 Y43.3920 
G01 X35.8304 Y43.4619 
G01 X35.6513 Y43.4975 
G01 X35.4687 Y43.4975 
G01 X35.2896 Y43.4619 
G01 X35.1209 Y43.3920 
G01 X34.9690 Y43.2905 
G01 X34.8399 Y43.1614 
G01 X34.7384 Y43.0095 
G01 X34.6685 Y42.8408 
G01 X34.6329 Y42.6617 
G00 Z2.5400 
G00 X37.1729 Y42.6617 
G01 Z-0.1778 F80.00 
G01 X37.1729 Y41.1583 F80.00 
G01 X37.2085 Y40.9792 
G01 X37.2784 Y40.8105 
G01 X37.3799 Y40.6586 
G01 X37.5090 Y40.5295 
G01 X37.6609 Y40.4280 
G01 X37.8296 Y40.3581 
G01 X38.0087 Y40.3225 
G01 X38.1913 Y40.3225 
G01 X38.3704 Y40.3581 
G01 X38.5391 Y40.4280 
G01 X38.6910 Y40.5295 
G01 X38.8201 Y40.6586 
G01 X38.9216 Y40.8105 
G01 X38.9915 Y40.9792 
G01 X39.0271 Y41.1583 
G01 X39.0271 Y42.6617 
G01 X38.9915 Y42.8408 
G01 X38.9216 Y43.0095 
G01 X38.8201 Y43.1614 
G01 X38.6910 Y43.2905 
G01 X38.5391 Y43.3920 
G01 X38.3704 Y43.4619 
G01 X38.1913 Y43.4975 
G01 X38.0087 Y43.4975 
G01 X37.8296 Y43.4619 
G01 X37.6609 Y43.3920 
G01 X37.5090 Y43.2905 
G01 X37.3799 Y43.1614 
G01 X37.2784 Y43.0095 
G01 X37.2085 Y42.8408 
G01 X37.1729 Y42.6617 
G00 Z2.5400 
G00 X39.7129 Y42.6617 
G01 Z-0.1778 F80.00 
G01 X39.7129 Y41.1583 F80.00 
G01 X39.7485 Y40.9792 
G01 X39.8184 Y40.8105 
G01 X39.9199 Y40.6586 
G01 X39.9753 Y40.6032 
G01 X39.9753 Y40.4237 
G01 X40.0051 Y40.2740 
G01 X40.0635 Y40.1330 
G01 X40.1483 Y40.0062 
G01 X40.2562 Y39.8983 
G01 X41.7562 Y38.3983 
G01 X41.8830 Y38.3135 
G01 X42.0240 Y38.2551 
G01 X42.1737 Y38.2253 
G01 X49.5541 Y38.2253 
G01 X50.6312 Y37.1483 
G01 X50.7580 Y37.0635 
G01 X50.8990 Y37.0051 
G01 X51.0487 Y36.9753 
G01 X51.2013 Y36.9753 
G01 X51.3510 Y37.0051 
G01 X51.4920 Y37.0635 
G01 X51.6188 Y37.1483 
G01 X51.7267 Y37.2562 
G01 X51.8115 Y37.3830 
G01 X51.8699 Y37.5240 
G01 X51.8997 Y37.6737 
G01 X51.8997 Y37.8263 
G01 X51.8699 Y37.9760 
G01 X51.8115 Y38.1170 
G01 X51.7267 Y38.2438 
G01 X50.4767 Y39.4938 
G01 X50.3688 Y39.6017 
G01 X50.2420 Y39.6865 
G01 X50.1010 Y39.7449 
G01 X49.9513 Y39.7747 
G01 X42.5709 Y39.7747 
G01 X41.5247 Y40.8209 
G01 X41.5247 Y40.9628 
G01 X41.5315 Y40.9792 
G01 X41.5671 Y41.1583 
G01 X41.5671 Y42.6617 
G01 X41.5315 Y42.8408 
G01 X41.4616 Y43.0095 
G01 X41.3601 Y43.1614 
G01 X41.2310 Y43.2905 
G01 X41.0791 Y43.3920 
G01 X40.9104 Y43.4619 
G01 X40.7313 Y43.4975 
G01 X40.5487 Y43.4975 
G01 X40.3696 Y43.4619 
G01 X40.2009 Y43.3920 
G01 X40.0490 Y43.2905 
G01 X39.9199 Y43.1614 
G01 X39.8184 Y43.0095 
G01 X39.7485 Y42.8408 
G01 X39.7129 Y42.6617 
G00 Z2.5400 
G00 X42.2529 Y42.6617 
G01 Z-0.1778 F80.00 
G01 X42.2529 Y41.1583 F80.00 
G01 X42.2885 Y40.9792 
G01 X42.3584 Y40.8105 
G01 X42.4599 Y40.6586 
G01 X42.5890 Y40.5295 
G01 X42.7409 Y40.4280 
G01 X42.9096 Y40.3581 
G01 X43.0887 Y40.3225 
G01 X43.2713 Y40.3225 
G01 X43.4504 Y40.3581 
G01 X43.6191 Y40.4280 
G01 X43.7710 Y40.5295 
G01 X43.9001 Y40.6586 
G01 X44.0016 Y40.8105 
G01 X44.0715 Y40.9792 
G01 X44.1071 Y41.1583 
G01 X44.1071 Y41.7615 
G01 X45.6959 Y43.3503 
G01 X61.9753 Y43.3503 
G01 X61.9753 Y39.0487 
G01 X62.0051 Y38.8990 
G01 X62.0635 Y38.7580 
G01 X62.1483 Y38.6312 
G01 X62.2562 Y38.5233 
G01 X62.3830 Y38.4385 
G01 X62.5240 Y38.3801 
G01 X62.6737 Y38.3503 
G01 X62.8263 Y38.3503 
G01 X62.9760 Y38.3801 
G01 X63.1170 Y38.4385 
G01 X63.2438 Y38.5233 
G01 X63.3517 Y38.6312 
G01 X63.4365 Y38.7580 
G01 X63.4949 Y38.8990 
G01 X63.5247 Y39.0487 
G01 X63.5247 Y44.2013 
G01 X63.4949 Y44.3510 
G01 X63.4365 Y44.4920 
G01 X63.3517 Y44.6188 
G01 X63.2438 Y44.7267 
G01 X63.1170 Y44.8115 
G01 X62.9760 Y44.8699 
G01 X62.8263 Y44.8997 
G01 X45.2987 Y44.8997 
G01 X45.1490 Y44.8699 
G01 X45.0080 Y44.8115 
G01 X44.8812 Y44.7267 
G01 X43.5677 Y43.4133 
G01 X43.4504 Y43.4619 
G01 X43.2713 Y43.4975 
G01 X43.0887 Y43.4975 
G01 X42.9096 Y43.4619 
G01 X42.7409 Y43.3920 
G01 X42.5890 Y43.2905 
G01 X42.4599 Y43.1614 
G01 X42.3584 Y43.0095 
G01 X42.2885 Y42.8408 
G01 X42.2529 Y42.6617 
G00 Z2.5400 
G00 X42.2529 Y35.0417 
G01 Z-0.1778 F80.00 
G01 X42.2529 Y33.5383 F80.00 
G01 X42.2885 Y33.3592 
G01 X42.3584 Y33.1905 
G01 X42.4599 Y33.0386 
G01 X42.5890 Y32.9095 
G01 X42.7409 Y32.8080 
G01 X42.9096 Y32.7381 
G01 X43.0887 Y32.7025 
G01 X43.2713 Y32.7025 
G01 X43.4504 Y32.7381 
G01 X43.6191 Y32.8080 
G01 X43.7710 Y32.9095 
G01 X43.9001 Y33.0386 
G01 X44.0016 Y33.1905 
G01 X44.0715 Y33.3592 
G01 X44.1071 Y33.5383 
G01 X44.1071 Y34.1365 
G01 X44.8209 Y34.8503 
G01 X51.9513 Y34.8503 
G01 X52.1010 Y34.8801 
G01 X52.2420 Y34.9385 
G01 X52.3688 Y35.0233 
G01 X53.3027 Y35.9571 
G01 X53.3607 Y35.9184 
G01 X53.5479 Y35.8408 
G01 X53.7467 Y35.8013 
G01 X55.4733 Y35.8013 
G01 X55.6721 Y35.8408 
G01 X55.8593 Y35.9184 
G01 X56.0278 Y36.0310 
G01 X56.1710 Y36.1742 
G01 X56.2836 Y36.3427 
G01 X56.3612 Y36.5299 
G01 X56.4007 Y36.7287 
G01 X56.4007 Y36.9313 
G01 X56.3612 Y37.1301 
G01 X56.2836 Y37.3173 
G01 X56.1710 Y37.4858 
G01 X56.0278 Y37.6290 
G01 X55.8593 Y37.7416 
G01 X55.6721 Y37.8192 
G01 X55.4733 Y37.8587 
G01 X53.7467 Y37.8587 
G01 X53.5479 Y37.8192 
G01 X53.3607 Y37.7416 
G01 X53.1922 Y37.6290 
G01 X53.0879 Y37.5247 
G01 X52.9237 Y37.5247 
G01 X52.7740 Y37.4949 
G01 X52.6330 Y37.4365 
G01 X52.5062 Y37.3517 
G01 X52.3983 Y37.2438 
G01 X51.5541 Y36.3997 
G01 X44.4237 Y36.3997 
G01 X44.2740 Y36.3699 
G01 X44.1330 Y36.3115 
G01 X44.0062 Y36.2267 
G01 X43.8983 Y36.1188 
G01 X43.5712 Y35.7918 
G01 X43.4504 Y35.8419 
G01 X43.2713 Y35.8775 
G01 X43.0887 Y35.8775 
G01 X42.9096 Y35.8419 
G01 X42.7409 Y35.7720 
G01 X42.5890 Y35.6705 
G01 X42.4599 Y35.5414 
G01 X42.3584 Y35.3895 
G01 X42.2885 Y35.2208 
G01 X42.2529 Y35.0417 
G00 Z2.5400 
G00 X39.7129 Y35.0417 
G01 Z-0.1778 F80.00 
G01 X39.7129 Y33.5383 F80.00 
G01 X39.7485 Y33.3592 
G01 X39.8184 Y33.1905 
G01 X39.9199 Y33.0386 
G01 X40.0490 Y32.9095 
G01 X40.2009 Y32.8080 
G01 X40.3696 Y32.7381 
G01 X40.5487 Y32.7025 
G01 X40.7313 Y32.7025 
G01 X40.9104 Y32.7381 
G01 X41.0791 Y32.8080 
G01 X41.2310 Y32.9095 
G01 X41.3601 Y33.0386 
G01 X41.4616 Y33.1905 
G01 X41.5315 Y33.3592 
G01 X41.5671 Y33.5383 
G01 X41.5671 Y35.0417 
G01 X41.5315 Y35.2208 
G01 X41.4616 Y35.3895 
G01 X41.3601 Y35.5414 
G01 X41.2310 Y35.6705 
G01 X41.0791 Y35.7720 
G01 X40.9104 Y35.8419 
G01 X40.7313 Y35.8775 
G01 X40.5487 Y35.8775 
G01 X40.3696 Y35.8419 
G01 X40.2009 Y35.7720 
G01 X40.0490 Y35.6705 
G01 X39.9199 Y35.5414 
G01 X39.8184 Y35.3895 
G01 X39.7485 Y35.2208 
G01 X39.7129 Y35.0417 
G00 Z2.5400 
G00 X37.1729 Y35.0417 
G01 Z-0.1778 F80.00 
G01 X37.1729 Y33.5383 F80.00 
G01 X37.2085 Y33.3592 
G01 X37.2784 Y33.1905 
G01 X37.3799 Y33.0386 
G01 X37.5090 Y32.9095 
G01 X37.6609 Y32.8080 
G01 X37.8296 Y32.7381 
G01 X38.0087 Y32.7025 
G01 X38.1913 Y32.7025 
G01 X38.3704 Y32.7381 
G01 X38.5391 Y32.8080 
G01 X38.6910 Y32.9095 
G01 X38.8201 Y33.0386 
G01 X38.9216 Y33.1905 
G01 X38.9915 Y33.3592 
G01 X39.0271 Y33.5383 
G01 X39.0271 Y35.0417 
G01 X38.9915 Y35.2208 
G01 X38.9216 Y35.3895 
G01 X38.8201 Y35.5414 
G01 X38.6910 Y35.6705 
G01 X38.5391 Y35.7720 
G01 X38.3704 Y35.8419 
G01 X38.1913 Y35.8775 
G01 X38.0087 Y35.8775 
G01 X37.8296 Y35.8419 
G01 X37.6609 Y35.7720 
G01 X37.5090 Y35.6705 
G01 X37.3799 Y35.5414 
G01 X37.2784 Y35.3895 
G01 X37.2085 Y35.2208 
G01 X37.1729 Y35.0417 
G00 Z2.5400 
G00 X34.6329 Y35.0417 
G01 Z-0.1778 F80.00 
G01 X34.6329 Y33.5383 F80.00 
G01 X34.6685 Y33.3592 
G01 X34.7384 Y33.1905 
G01 X34.8399 Y33.0386 
G01 X34.8503 Y33.0282 
G01 X34.8503 Y31.2987 
G01 X34.8801 Y31.1490 
G01 X34.9385 Y31.0080 
G01 X35.0233 Y30.8812 
G01 X35.1312 Y30.7733 
G01 X35.2580 Y30.6885 
G01 X35.3990 Y30.6301 
G01 X35.5487 Y30.6003 
G01 X55.8263 Y30.6003 
G01 X55.9760 Y30.6301 
G01 X56.1170 Y30.6885 
G01 X56.2438 Y30.7733 
G01 X60.1188 Y34.6483 
G01 X60.2267 Y34.7562 
G01 X60.3115 Y34.8830 
G01 X60.3699 Y35.0240 
G01 X60.3997 Y35.1737 
G01 X60.3997 Y36.2286 
G01 X60.6171 Y36.4460 
G01 X60.6171 Y37.2140 
G01 X60.0740 Y37.7571 
G01 X59.3060 Y37.7571 
G01 X58.7629 Y37.2140 
G01 X58.7629 Y36.4460 
G01 X58.8503 Y36.3586 
G01 X58.8503 Y35.5709 
G01 X55.4291 Y32.1497 
G01 X36.3997 Y32.1497 
G01 X36.3997 Y33.2342 
G01 X36.4515 Y33.3592 
G01 X36.4871 Y33.5383 
G01 X36.4871 Y35.0417 
G01 X36.4515 Y35.2208 
G01 X36.3816 Y35.3895 
G01 X36.2801 Y35.5414 
G01 X36.1510 Y35.6705 
G01 X35.9991 Y35.7720 
G01 X35.8304 Y35.8419 
G01 X35.6513 Y35.8775 
G01 X35.4687 Y35.8775 
G01 X35.2896 Y35.8419 
G01 X35.1209 Y35.7720 
G01 X34.9690 Y35.6705 
G01 X34.8399 Y35.5414 
G01 X34.7384 Y35.3895 
G01 X34.6685 Y35.2208 
G01 X34.6329 Y35.0417 
G00 Z2.5400 
G00 X32.0929 Y35.0417 
G01 Z-0.1778 F80.00 
G01 X32.0929 Y33.5383 F80.00 
G01 X32.1285 Y33.3592 
G01 X32.1984 Y33.1905 
G01 X32.2999 Y33.0386 
G01 X32.4290 Y32.9095 
G01 X32.5809 Y32.8080 
G01 X32.7496 Y32.7381 
G01 X32.9287 Y32.7025 
G01 X33.1113 Y32.7025 
G01 X33.2904 Y32.7381 
G01 X33.4591 Y32.8080 
G01 X33.6110 Y32.9095 
G01 X33.7401 Y33.0386 
G01 X33.8416 Y33.1905 
G01 X33.9115 Y33.3592 
G01 X33.9471 Y33.5383 
G01 X33.9471 Y35.0417 
G01 X33.9115 Y35.2208 
G01 X33.8416 Y35.3895 
G01 X33.7401 Y35.5414 
G01 X33.6110 Y35.6705 
G01 X33.4591 Y35.7720 
G01 X33.2904 Y35.8419 
G01 X33.1113 Y35.8775 
G01 X32.9287 Y35.8775 
G01 X32.7496 Y35.8419 
G01 X32.5809 Y35.7720 
G01 X32.4290 Y35.6705 
G01 X32.2999 Y35.5414 
G01 X32.1984 Y35.3895 
G01 X32.1285 Y35.2208 
G01 X32.0929 Y35.0417 
G00 Z2.5400 
G00 X29.5529 Y35.0417 
G01 Z-0.1778 F80.00 
G01 X29.5529 Y33.5383 F80.00 
G01 X29.5885 Y33.3592 
G01 X29.6584 Y33.1905 
G01 X29.7599 Y33.0386 
G01 X29.8890 Y32.9095 
G01 X30.0409 Y32.8080 
G01 X30.2096 Y32.7381 
G01 X30.3887 Y32.7025 
G01 X30.5713 Y32.7025 
G01 X30.7504 Y32.7381 
G01 X30.9191 Y32.8080 
G01 X31.0710 Y32.9095 
G01 X31.2001 Y33.0386 
G01 X31.3016 Y33.1905 
G01 X31.3715 Y33.3592 
G01 X31.4071 Y33.5383 
G01 X31.4071 Y35.0417 
G01 X31.3715 Y35.2208 
G01 X31.3016 Y35.3895 
G01 X31.2001 Y35.5414 
G01 X31.0710 Y35.6705 
G01 X30.9191 Y35.7720 
G01 X30.7504 Y35.8419 
G01 X30.5713 Y35.8775 
G01 X30.3887 Y35.8775 
G01 X30.2096 Y35.8419 
G01 X30.0409 Y35.7720 
G01 X29.8890 Y35.6705 
G01 X29.7599 Y35.5414 
G01 X29.6584 Y35.3895 
G01 X29.5885 Y35.2208 
G01 X29.5529 Y35.0417 
G00 Z2.5400 
G00 X27.0129 Y35.0417 
G01 Z-0.1778 F80.00 
G01 X27.0129 Y33.5383 F80.00 
G01 X27.0485 Y33.3592 
G01 X27.1184 Y33.1905 
G01 X27.2199 Y33.0386 
G01 X27.3490 Y32.9095 
G01 X27.5009 Y32.8080 
G01 X27.6696 Y32.7381 
G01 X27.8487 Y32.7025 
G01 X28.0313 Y32.7025 
G01 X28.2104 Y32.7381 
G01 X28.3791 Y32.8080 
G01 X28.5310 Y32.9095 
G01 X28.6601 Y33.0386 
G01 X28.7616 Y33.1905 
G01 X28.8315 Y33.3592 
G01 X28.8671 Y33.5383 
G01 X28.8671 Y35.0417 
G01 X28.8315 Y35.2208 
G01 X28.7616 Y35.3895 
G01 X28.6601 Y35.5414 
G01 X28.5310 Y35.6705 
G01 X28.3791 Y35.7720 
G01 X28.2104 Y35.8419 
G01 X28.0313 Y35.8775 
G01 X27.8487 Y35.8775 
G01 X27.6696 Y35.8419 
G01 X27.5009 Y35.7720 
G01 X27.3490 Y35.6705 
G01 X27.2199 Y35.5414 
G01 X27.1184 Y35.3895 
G01 X27.0485 Y35.2208 
G01 X27.0129 Y35.0417 
G00 Z2.5400 
G00 X24.4729 Y35.0417 
G01 Z-0.1778 F80.00 
G01 X24.4729 Y33.5383 F80.00 
G01 X24.5085 Y33.3592 
G01 X24.5784 Y33.1905 
G01 X24.6799 Y33.0386 
G01 X24.8090 Y32.9095 
G01 X24.9609 Y32.8080 
G01 X25.1296 Y32.7381 
G01 X25.3087 Y32.7025 
G01 X25.4913 Y32.7025 
G01 X25.6704 Y32.7381 
G01 X25.8391 Y32.8080 
G01 X25.9910 Y32.9095 
G01 X26.1201 Y33.0386 
G01 X26.2216 Y33.1905 
G01 X26.2915 Y33.3592 
G01 X26.3271 Y33.5383 
G01 X26.3271 Y35.0417 
G01 X26.2915 Y35.2208 
G01 X26.2747 Y35.2613 
G01 X26.2747 Y38.2253 
G01 X28.9513 Y38.2253 
G01 X29.1010 Y38.2551 
G01 X29.2420 Y38.3135 
G01 X29.3688 Y38.3983 
G01 X30.8688 Y39.8983 
G01 X30.9767 Y40.0062 
G01 X31.0615 Y40.1330 
G01 X31.1199 Y40.2740 
G01 X31.1497 Y40.4237 
G01 X31.1497 Y40.6082 
G01 X31.2001 Y40.6586 
G01 X31.3016 Y40.8105 
G01 X31.3715 Y40.9792 
G01 X31.4071 Y41.1583 
G01 X31.4071 Y42.6617 
G01 X31.3715 Y42.8408 
G01 X31.3016 Y43.0095 
G01 X31.2001 Y43.1614 
G01 X31.0710 Y43.2905 
G01 X30.9191 Y43.3920 
G01 X30.7504 Y43.4619 
G01 X30.5713 Y43.4975 
G01 X30.3887 Y43.4975 
G01 X30.2096 Y43.4619 
G01 X30.0409 Y43.3920 
G01 X29.8890 Y43.2905 
G01 X29.7599 Y43.1614 
G01 X29.6584 Y43.0095 
G01 X29.5885 Y42.8408 
G01 X29.5529 Y42.6617 
G01 X29.5529 Y41.1583 
G01 X29.5885 Y40.9792 
G01 X29.6003 Y40.9508 
G01 X29.6003 Y40.8209 
G01 X28.5541 Y39.7747 
G01 X25.4237 Y39.7747 
G01 X25.2740 Y39.7449 
G01 X25.1330 Y39.6865 
G01 X25.0062 Y39.6017 
G01 X24.8983 Y39.4938 
G01 X24.8135 Y39.3670 
G01 X24.7551 Y39.2260 
G01 X24.7253 Y39.0763 
G01 X24.7253 Y35.5868 
G01 X24.6799 Y35.5414 
G01 X24.5784 Y35.3895 
G01 X24.5085 Y35.2208 
G01 X24.4729 Y35.0417 
G00 Z2.5400 
G00 X19.3929 Y35.0417 
G01 Z-0.1778 F80.00 
G01 X19.3929 Y33.5383 F80.00 
G01 X19.4285 Y33.3592 
G01 X19.4984 Y33.1905 
G01 X19.5999 Y33.0386 
G01 X19.6003 Y27.1737 
G01 X19.6301 Y27.0240 
G01 X19.6885 Y26.8830 
G01 X19.7733 Y26.7562 
G01 X19.8812 Y26.6483 
G01 X20.0080 Y26.5635 
G01 X20.1490 Y26.5051 
G01 X20.2987 Y26.4753 
G01 X42.5763 Y26.4753 
G01 X42.7260 Y26.5051 
G01 X42.8670 Y26.5635 
G01 X42.9938 Y26.6483 
G01 X43.3585 Y27.0129 
G01 X43.5640 Y27.0129 
G01 X44.1071 Y27.5560 
G01 X44.1071 Y28.3240 
G01 X43.5640 Y28.8671 
G01 X42.7960 Y28.8671 
G01 X42.2529 Y28.3240 
G01 X42.2529 Y28.0985 
G01 X42.1791 Y28.0247 
G01 X21.1497 Y28.0247 
G01 X21.1497 Y33.2101 
G01 X21.2115 Y33.3592 
G01 X21.2471 Y33.5383 
G01 X21.2471 Y35.0417 
G01 X21.2115 Y35.2208 
G01 X21.1416 Y35.3895 
G01 X21.0401 Y35.5414 
G01 X20.9110 Y35.6705 
G01 X20.7591 Y35.7720 
G01 X20.5904 Y35.8419 
G01 X20.4113 Y35.8775 
G01 X20.2287 Y35.8775 
G01 X20.0496 Y35.8419 
G01 X19.8809 Y35.7720 
G01 X19.7290 Y35.6705 
G01 X19.5999 Y35.5414 
G01 X19.4984 Y35.3895 
G01 X19.4285 Y35.2208 
G01 X19.3929 Y35.0417 
G00 Z2.5400 
G00 X16.8529 Y35.0417 
G01 Z-0.1778 F80.00 
G01 X16.8529 Y33.5383 F80.00 
G01 X16.8885 Y33.3592 
G01 X16.9584 Y33.1905 
G01 X17.0599 Y33.0386 
G01 X17.1890 Y32.9095 
G01 X17.3409 Y32.8080 
G01 X17.5096 Y32.7381 
G01 X17.6887 Y32.7025 
G01 X17.8713 Y32.7025 
G01 X18.0504 Y32.7381 
G01 X18.2191 Y32.8080 
G01 X18.3710 Y32.9095 
G01 X18.5001 Y33.0386 
G01 X18.6016 Y33.1905 
G01 X18.6715 Y33.3592 
G01 X18.7071 Y33.5383 
G01 X18.7071 Y35.0417 
G01 X18.6715 Y35.2208 
G01 X18.6016 Y35.3895 
G01 X18.5001 Y35.5414 
G01 X18.3710 Y35.6705 
G01 X18.2191 Y35.7720 
G01 X18.0504 Y35.8419 
G01 X17.8713 Y35.8775 
G01 X17.6887 Y35.8775 
G01 X17.5096 Y35.8419 
G01 X17.3409 Y35.7720 
G01 X17.1890 Y35.6705 
G01 X17.0599 Y35.5414 
G01 X16.9584 Y35.3895 
G01 X16.8885 Y35.2208 
G01 X16.8529 Y35.0417 
G00 Z2.5400 
G00 X14.3129 Y35.0417 
G01 Z-0.1778 F80.00 
G01 X14.3129 Y33.5383 F80.00 
G01 X14.3485 Y33.3592 
G01 X14.4184 Y33.1905 
G01 X14.4753 Y33.1053 
G01 X14.4753 Y28.4237 
G01 X14.5051 Y28.2740 
G01 X14.5635 Y28.1330 
G01 X14.6483 Y28.0062 
G01 X15.2253 Y27.4291 
G01 X15.2253 Y21.1497 
G01 X13.5487 Y21.1497 
G01 X13.3990 Y21.1199 
G01 X13.2580 Y21.0615 
G01 X13.1312 Y20.9767 
G01 X12.0541 Y19.8997 
G01 X10.2319 Y19.8997 
G01 X10.1393 Y19.9616 
G01 X9.9521 Y20.0392 
G01 X9.7533 Y20.0787 
G01 X8.0267 Y20.0787 
G01 X7.8279 Y20.0392 
G01 X7.6407 Y19.9616 
G01 X7.4722 Y19.8490 
G01 X7.3290 Y19.7058 
G01 X7.2164 Y19.5373 
G01 X7.1388 Y19.3501 
G01 X7.0993 Y19.1513 
G01 X7.0993 Y18.9487 
G01 X7.1388 Y18.7499 
G01 X7.2164 Y18.5627 
G01 X7.3290 Y18.3942 
G01 X7.4722 Y18.2510 
G01 X7.6407 Y18.1384 
G01 X7.8279 Y18.0608 
G01 X8.0267 Y18.0213 
G01 X9.7533 Y18.0213 
G01 X9.9521 Y18.0608 
G01 X10.1393 Y18.1384 
G01 X10.3078 Y18.2510 
G01 X10.4071 Y18.3503 
G01 X12.4513 Y18.3503 
G01 X12.6010 Y18.3801 
G01 X12.7420 Y18.4385 
G01 X12.8688 Y18.5233 
G01 X12.9767 Y18.6312 
G01 X13.9459 Y19.6003 
G01 X16.0763 Y19.6003 
G01 X16.2260 Y19.6301 
G01 X16.3670 Y19.6885 
G01 X16.4938 Y19.7733 
G01 X16.6017 Y19.8812 
G01 X16.6865 Y20.0080 
G01 X16.7449 Y20.1490 
G01 X16.7747 Y20.2987 
G01 X16.7747 Y27.8263 
G01 X16.7449 Y27.9760 
G01 X16.6865 Y28.1170 
G01 X16.6017 Y28.2438 
G01 X16.4938 Y28.3517 
G01 X16.0247 Y28.8209 
G01 X16.0247 Y33.1353 
G01 X16.0616 Y33.1905 
G01 X16.1315 Y33.3592 
G01 X16.1671 Y33.5383 
G01 X16.1671 Y35.0417 
G01 X16.1315 Y35.2208 
G01 X16.0616 Y35.3895 
G01 X15.9601 Y35.5414 
G01 X15.8310 Y35.6705 
G01 X15.6791 Y35.7720 
G01 X15.5104 Y35.8419 
G01 X15.3313 Y35.8775 
G01 X15.1487 Y35.8775 
G01 X14.9696 Y35.8419 
G01 X14.8009 Y35.7720 
G01 X14.6490 Y35.6705 
G01 X14.5199 Y35.5414 
G01 X14.4184 Y35.3895 
G01 X14.3485 Y35.2208 
G01 X14.3129 Y35.0417 
G00 Z2.5400 
G00 X11.7729 Y35.0417 
G01 Z-0.1778 F80.00 
G01 X11.7729 Y33.5383 F80.00 
G01 X11.8085 Y33.3592 
G01 X11.8503 Y33.2583 
G01 X11.8503 Y23.0247 
G01 X11.0487 Y23.0247 
G01 X10.8990 Y22.9949 
G01 X10.7580 Y22.9365 
G01 X10.6312 Y22.8517 
G01 X10.2242 Y22.4448 
G01 X10.1393 Y22.5016 
G01 X9.9521 Y22.5792 
G01 X9.7533 Y22.6187 
G01 X8.0267 Y22.6187 
G01 X7.8279 Y22.5792 
G01 X7.6407 Y22.5016 
G01 X7.4722 Y22.3890 
G01 X7.3290 Y22.2458 
G01 X7.2164 Y22.0773 
G01 X7.1388 Y21.8901 
G01 X7.0993 Y21.6913 
G01 X7.0993 Y21.4887 
G01 X7.1388 Y21.2899 
G01 X7.2164 Y21.1027 
G01 X7.3290 Y20.9342 
G01 X7.4722 Y20.7910 
G01 X7.6407 Y20.6784 
G01 X7.8279 Y20.6008 
G01 X8.0267 Y20.5613 
G01 X9.7533 Y20.5613 
G01 X9.9521 Y20.6008 
G01 X10.1393 Y20.6784 
G01 X10.3078 Y20.7910 
G01 X10.3671 Y20.8503 
G01 X10.5763 Y20.8503 
G01 X10.7260 Y20.8801 
G01 X10.8670 Y20.9385 
G01 X10.9938 Y21.0233 
G01 X11.1017 Y21.1312 
G01 X11.4459 Y21.4753 
G01 X12.7013 Y21.4753 
G01 X12.8510 Y21.5051 
G01 X12.9920 Y21.5635 
G01 X13.1188 Y21.6483 
G01 X13.2267 Y21.7562 
G01 X13.3115 Y21.8830 
G01 X13.3699 Y22.0240 
G01 X13.3997 Y22.1737 
G01 X13.3997 Y33.0182 
G01 X13.4201 Y33.0386 
G01 X13.5216 Y33.1905 
G01 X13.5915 Y33.3592 
G01 X13.6271 Y33.5383 
G01 X13.6271 Y35.0417 
G01 X13.5915 Y35.2208 
G01 X13.5216 Y35.3895 
G01 X13.4201 Y35.5414 
G01 X13.2910 Y35.6705 
G01 X13.1391 Y35.7720 
G01 X12.9704 Y35.8419 
G01 X12.7913 Y35.8775 
G01 X12.6087 Y35.8775 
G01 X12.4296 Y35.8419 
G01 X12.2609 Y35.7720 
G01 X12.1090 Y35.6705 
G01 X11.9799 Y35.5414 
G01 X11.8784 Y35.3895 
G01 X11.8085 Y35.2208 
G01 X11.7729 Y35.0417 
G00 Z2.5400 
G00 X49.4938 Y45.6483 
G01 Z-0.1778 F80.00 
G01 X49.9459 Y46.1003 F80.00 
G01 X59.2686 Y46.1003 
G01 X59.3060 Y46.0629 
G01 X60.0740 Y46.0629 
G01 X60.6171 Y46.6060 
G01 X60.6171 Y47.3740 
G01 X60.0740 Y47.9171 
G01 X59.3060 Y47.9171 
G01 X59.0386 Y47.6497 
G01 X49.5487 Y47.6497 
G01 X49.3990 Y47.6199 
G01 X49.2580 Y47.5615 
G01 X49.1312 Y47.4767 
G01 X49.0233 Y47.3688 
G01 X48.3983 Y46.7438 
G01 X48.3135 Y46.6170 
G01 X48.2551 Y46.4760 
G01 X48.2253 Y46.3263 
G01 X48.2253 Y46.1737 
G01 X48.2551 Y46.0240 
G01 X48.3135 Y45.8830 
G01 X48.3983 Y45.7562 
G01 X48.5062 Y45.6483 
G01 X48.6330 Y45.5635 
G01 X48.7740 Y45.5051 
G01 X48.9237 Y45.4753 
G01 X49.0763 Y45.4753 
G01 X49.2260 Y45.5051 
G01 X49.3670 Y45.5635 
G01 X49.4938 Y45.6483 
G00 Z2.5400 
G00 Z2.540000
G00 X42.5000 Y48.3750 
G01 Z-2.5000 F80.00 
G01 Z2.540000
(R2.5400  P1.000000)
(G00 Z2.540000)
G00 X53.2500 Y29.2500 
G01 Z-1.500000
G01 Z2.540000
(G00 Z2.540000)
G00 X35.1250 Y29.3750 
G01 Z-1.500000
G01 Z2.540000
(G00 Z2.540000)
G00 X46.8750 Y41.7500 
G01 Z-1.500000
G01 Z2.540000
(G00 Z2.540000)
G00 X51.1250 Y37.7500 
G01 Z-1.500000
G01 Z2.540000
(G00 Z2.540000)
G00 X62.7500 Y39.1250 
G01 Z-1.500000
G01 Z2.540000
(G00 Z2.540000)
G00 X49.0000 Y46.2500 
G01 Z-1.500000
G01 Z2.540000
(G00 Z2.540000)
G00 X33.0200 Y22.8600 
G01 Z-1.500000
G01 Z2.540000
(G00 Z2.540000)
G00 X33.0200 Y20.3200 
G01 Z-1.500000
G01 Z2.540000
(G00 Z2.540000)
G00 X40.6400 Y19.0500 
G01 Z-1.500000
G01 Z2.540000
(G00 Z2.540000)
G00 X43.1800 Y19.0500 
G01 Z-1.500000
G01 Z2.540000
(G00 Z2.540000)
G00 X3.8100 Y49.5300 
G01 Z-1.500000
G01 Z2.540000
(G00 Z2.540000)
G00 X3.8100 Y44.4500 
G01 Z-1.500000
G01 Z2.540000
(G00 Z2.540000)
G00 X33.0200 Y55.8800 
G01 Z-1.500000
G01 Z2.540000
(G00 Z2.540000)
G00 X35.5600 Y55.8800 
G01 Z-1.500000
G01 Z2.540000
(G00 Z2.540000)
G00 X10.1600 Y34.2900 
G01 Z-1.500000
G01 Z2.540000
(G00 Z2.540000)
G00 X12.7000 Y34.2900 
G01 Z-1.500000
G01 Z2.540000
(G00 Z2.540000)
G00 X15.2400 Y34.2900 
G01 Z-1.500000
G01 Z2.540000
(G00 Z2.540000)
G00 X17.7800 Y34.2900 
G01 Z-1.500000
G01 Z2.540000
(G00 Z2.540000)
G00 X20.3200 Y34.2900 
G01 Z-1.500000
G01 Z2.540000
(G00 Z2.540000)
G00 X22.8600 Y34.2900 
G01 Z-1.500000
G01 Z2.540000
(G00 Z2.540000)
G00 X25.4000 Y34.2900 
G01 Z-1.500000
G01 Z2.540000
(G00 Z2.540000)
G00 X27.9400 Y34.2900 
G01 Z-1.500000
G01 Z2.540000
(G00 Z2.540000)
G00 X30.4800 Y34.2900 
G01 Z-1.500000
G01 Z2.540000
(G00 Z2.540000)
G00 X33.0200 Y34.2900 
G01 Z-1.500000
G01 Z2.540000
(G00 Z2.540000)
G00 X35.5600 Y34.2900 
G01 Z-1.500000
G01 Z2.540000
(G00 Z2.540000)
G00 X38.1000 Y34.2900 
G01 Z-1.500000
G01 Z2.540000
(G00 Z2.540000)
G00 X40.6400 Y34.2900 
G01 Z-1.500000
G01 Z2.540000
(G00 Z2.540000)
G00 X43.1800 Y34.2900 
G01 Z-1.500000
G01 Z2.540000
(G00 Z2.540000)
G00 X43.1800 Y41.9100 
G01 Z-1.500000
G01 Z2.540000
(G00 Z2.540000)
G00 X40.6400 Y41.9100 
G01 Z-1.500000
G01 Z2.540000
(G00 Z2.540000)
G00 X38.1000 Y41.9100 
G01 Z-1.500000
G01 Z2.540000
(G00 Z2.540000)
G00 X35.5600 Y41.9100 
G01 Z-1.500000
G01 Z2.540000
(G00 Z2.540000)
G00 X33.0200 Y41.9100 
G01 Z-1.500000
G01 Z2.540000
(G00 Z2.540000)
G00 X30.4800 Y41.9100 
G01 Z-1.500000
G01 Z2.540000
(G00 Z2.540000)
G00 X27.9400 Y41.9100 
G01 Z-1.500000
G01 Z2.540000
(G00 Z2.540000)
G00 X25.4000 Y41.9100 
G01 Z-1.500000
G01 Z2.540000
(G00 Z2.540000)
G00 X22.8600 Y41.9100 
G01 Z-1.500000
G01 Z2.540000
(G00 Z2.540000)
G00 X20.3200 Y41.9100 
G01 Z-1.500000
G01 Z2.540000
(G00 Z2.540000)
G00 X17.7800 Y41.9100 
G01 Z-1.500000
G01 Z2.540000
(G00 Z2.540000)
G00 X15.2400 Y41.9100 
G01 Z-1.500000
G01 Z2.540000
(G00 Z2.540000)
G00 X12.7000 Y41.9100 
G01 Z-1.500000
G01 Z2.540000
(G00 Z2.540000)
G00 X10.1600 Y41.9100 
G01 Z-1.500000
G01 Z2.540000
(G00 Z2.540000)
G00 X50.8000 Y21.4630 
G01 Z-1.500000
G01 Z2.540000
(G00 Z2.540000)
G00 X50.8000 Y16.6370 
G01 Z-1.500000
G01 Z2.540000
(G00 Z2.540000)
G00 X10.1600 Y29.2100 
G01 Z-1.500000
G01 Z2.540000
(G00 Z2.540000)
G00 X2.5400 Y29.2100 
G01 Z-1.500000
G01 Z2.540000
(G00 Z2.540000)
G00 X30.4800 Y49.5300 
G01 Z-1.500000
G01 Z2.540000
(G00 Z2.540000)
G00 X38.1000 Y49.5300 
G01 Z-1.500000
G01 Z2.540000
(G00 Z2.540000)
G00 X67.3100 Y52.0700 
G01 Z-1.500000
G01 Z2.540000
(G00 Z2.540000)
G00 X59.6900 Y52.0700 
G01 Z-1.500000
G01 Z2.540000
(G00 Z2.540000)
G00 X59.6900 Y46.9900 
G01 Z-1.500000
G01 Z2.540000
(G00 Z2.540000)
G00 X67.3100 Y46.9900 
G01 Z-1.500000
G01 Z2.540000
(G00 Z2.540000)
G00 X59.6900 Y41.9100 
G01 Z-1.500000
G01 Z2.540000
(G00 Z2.540000)
G00 X67.3100 Y41.9100 
G01 Z-1.500000
G01 Z2.540000
(G00 Z2.540000)
G00 X59.6900 Y36.8300 
G01 Z-1.500000
G01 Z2.540000
(G00 Z2.540000)
G00 X67.3100 Y36.8300 
G01 Z-1.500000
G01 Z2.540000
(G00 Z2.540000)
G00 X59.6900 Y31.7500 
G01 Z-1.500000
G01 Z2.540000
(G00 Z2.540000)
G00 X67.3100 Y31.7500 
G01 Z-1.500000
G01 Z2.540000
(G00 Z2.540000)
G00 X43.1800 Y27.9400 
G01 Z-1.500000
G01 Z2.540000
(G00 Z2.540000)
G00 X50.8000 Y27.9400 
G01 Z-1.500000
G01 Z2.540000
(G00 Z2.540000)
G00 X17.7800 Y19.0500 
G01 Z-1.500000
G01 Z2.540000
(G00 Z2.540000)
G00 X25.4000 Y19.0500 
G01 Z-1.500000
G01 Z2.540000
(G00 Z2.540000)
G00 X17.7800 Y13.9700 
G01 Z-1.500000
G01 Z2.540000
(G00 Z2.540000)
G00 X25.4000 Y13.9700 
G01 Z-1.500000
G01 Z2.540000
(G00 Z2.540000)
G00 X17.7800 Y8.8900 
G01 Z-1.500000
G01 Z2.540000
(G00 Z2.540000)
G00 X25.4000 Y8.8900 
G01 Z-1.500000
G01 Z2.540000
(G00 Z2.540000)
G00 X58.4200 Y22.8600 
G01 Z-1.500000
G01 Z2.540000
(G00 Z2.540000)
G00 X58.4200 Y15.2400 
G01 Z-1.500000
G01 Z2.540000
(G00 Z2.540000)
G00 X63.5000 Y22.8600 
G01 Z-1.500000
G01 Z2.540000
(G00 Z2.540000)
G00 X63.5000 Y15.2400 
G01 Z-1.500000
G01 Z2.540000
(G00 Z2.540000)
G00 X68.5800 Y21.5900 
G01 Z-1.500000
G01 Z2.540000
(G00 Z2.540000)
G00 X68.5800 Y13.9700 
G01 Z-1.500000
G01 Z2.540000
(G00 Z2.540000)
G00 X31.0388 Y9.8806 
G01 Z-1.500000
G01 Z2.540000
(G00 Z2.540000)
G00 X37.5412 Y9.8806 
G01 Z-1.500000
G01 Z2.540000
(G00 Z2.540000)
G00 X31.0388 Y5.3594 
G01 Z-1.500000
G01 Z2.540000
(G00 Z2.540000)
G00 X37.5412 Y5.3594 
G01 Z-1.500000
G01 Z2.540000
(G00 Z2.540000)
G00 X45.0088 Y9.8806 
G01 Z-1.500000
G01 Z2.540000
(G00 Z2.540000)
G00 X51.5112 Y9.8806 
G01 Z-1.500000
G01 Z2.540000
(G00 Z2.540000)
G00 X45.0088 Y5.3594 
G01 Z-1.500000
G01 Z2.540000
(G00 Z2.540000)
G00 X51.5112 Y5.3594 
G01 Z-1.500000
G01 Z2.540000
(G00 Z2.540000)
G00 X57.7088 Y9.8806 
G01 Z-1.500000
G01 Z2.540000
(G00 Z2.540000)
G00 X64.2112 Y9.8806 
G01 Z-1.500000
G01 Z2.540000
(G00 Z2.540000)
G00 X57.7088 Y5.3594 
G01 Z-1.500000
G01 Z2.540000
(G00 Z2.540000)
G00 X64.2112 Y5.3594 
G01 Z-1.500000
G01 Z2.540000
(G00 Z2.540000)
G00 X15.2400 Y48.2600 
G01 Z-1.500000
G01 Z2.540000
(G00 Z2.540000)
G00 X17.7800 Y48.2600 
G01 Z-1.500000
G01 Z2.540000
(G00 Z2.540000)
G00 X15.2400 Y50.8000 
G01 Z-1.500000
G01 Z2.540000
(G00 Z2.540000)
G00 X17.7800 Y50.8000 
G01 Z-1.500000
G01 Z2.540000
(G00 Z2.540000)
G00 X15.2400 Y53.3400 
G01 Z-1.500000
G01 Z2.540000
(G00 Z2.540000)
G00 X17.7800 Y53.3400 
G01 Z-1.500000
G01 Z2.540000
(G00 Z2.540000)
G00 X15.2400 Y55.8800 
G01 Z-1.500000
G01 Z2.540000
(G00 Z2.540000)
G00 X17.7800 Y55.8800 
G01 Z-1.500000
G01 Z2.540000
(G00 Z2.540000)
G00 X73.6600 Y24.1300 
G01 Z-1.500000
G01 Z2.540000
(G00 Z2.540000)
G00 X73.6600 Y26.6700 
G01 Z-1.500000
G01 Z2.540000
(G00 Z2.540000)
G00 X73.6600 Y29.2100 
G01 Z-1.500000
G01 Z2.540000
(G00 Z2.540000)
G00 X73.6600 Y31.7500 
G01 Z-1.500000
G01 Z2.540000
(G00 Z2.540000)
G00 X73.6600 Y34.2900 
G01 Z-1.500000
G01 Z2.540000
(G00 Z2.540000)
G00 X73.6600 Y36.8300 
G01 Z-1.500000
G01 Z2.540000
(G00 Z2.540000)
G00 X73.6600 Y39.3700 
G01 Z-1.500000
G01 Z2.540000
(G00 Z2.540000)
G00 X73.6600 Y41.9100 
G01 Z-1.500000
G01 Z2.540000
(G00 Z2.540000)
G00 X54.6100 Y39.3700 
G01 Z-1.500000
G01 Z2.540000
(G00 Z2.540000)
G00 X54.6100 Y36.8300 
G01 Z-1.500000
G01 Z2.540000
(G00 Z2.540000)
G00 X54.6100 Y34.2900 
G01 Z-1.500000
G01 Z2.540000
(G00 Z2.540000)
G00 X8.8900 Y24.1300 
G01 Z-1.500000
G01 Z2.540000
(G00 Z2.540000)
G00 X8.8900 Y21.5900 
G01 Z-1.500000
G01 Z2.540000
(G00 Z2.540000)
G00 X8.8900 Y19.0500 
G01 Z-1.500000
G01 Z2.540000
(G00 Z2.540000)
G00 X8.8900 Y16.5100 
G01 Z-1.500000
G01 Z2.540000
(G00 Z2.540000)
G00 X8.8900 Y13.9700 
G01 Z-1.500000
G01 Z2.540000
G00 Z5.0000 
M05
M02
